/* XPM */
static char *_44d46b6e44c44b9a12c4a98cc04cd3azl1CnBrGjLU0FpmM[] = {
/* columns rows colors chars-per-pixel */
"64 64 82 1 ",
"  c #1C152A",
". c #1F192D",
"X c #201A2D",
"o c #241E33",
"O c #272036",
"+ c #25253A",
"@ c #2D263D",
"# c #28283E",
"$ c #2D2D44",
"% c #332D44",
"& c #352F48",
"* c #343246",
"= c #383246",
"- c #34314E",
"; c #3C354B",
": c #3E394E",
"> c #363451",
", c #3B3752",
"< c #3D3B54",
"1 c #3D3C5A",
"2 c #403A4F",
"3 c #433D53",
"4 c #463D5A",
"5 c #493E5D",
"6 c #474156",
"7 c #484257",
"8 c #464159",
"9 c #4A445B",
"0 c #4B455C",
"q c #48455F",
"w c #4C465D",
"e c #4C475F",
"r c #4C485C",
"t c #4F4B5F",
"y c #474560",
"u c #474663",
"i c #474765",
"p c #494763",
"a c #4D4761",
"s c #484766",
"d c #4F4B62",
"f c #4F4B63",
"g c #4F4C60",
"h c #4A4867",
"j c #4A4A6A",
"k c #514B63",
"l c #504C63",
"z c #514D65",
"x c #524C67",
"c c #544E67",
"v c #534E68",
"b c #554F69",
"n c #554F6A",
"m c #535065",
"M c #545067",
"N c #555368",
"B c #57516C",
"V c #58526C",
"C c #58566C",
"Z c #5B5A6F",
"A c #5D5A6E",
"S c #5A5470",
"D c #565975",
"F c #5C5C75",
"G c #5F5E74",
"H c #5A5D78",
"J c #615F76",
"K c #5F627C",
"L c #636176",
"P c #636279",
"I c #63637B",
"U c #66667C",
"Y c #68677C",
"T c #646780",
"R c #676981",
"E c #6C6D86",
"W c #6F7188",
"Q c #717087",
"! c #79798E",
"~ c #7D7D92",
"^ c #808196",
"/ c #85869A",
/* pixels */
"jjjjjjjjs1>-------------------1jjjjjjjjjjjjjjjjjjjjjjjjjjjjjjjjj",
"jjjjjjjjjji<----------------->4jjjjjjjjjjjjjjjjjjjjjjjjjjjjjjjjj",
"hpphjjjjjjji1----------------,ijjjjjjjjjjjhhpppppphhjjjjjjjjjjjj",
"q66666776666833333633333333368qqqrrrr766667766666666666776667qjj",
"q6666rNr666666666rN766666666666rN766666667rm6666666666rNr66668jj",
"h6666gUZ66666666rCUr6666666666rCUr6666666rFIr666666666gUZ66668jj",
"h66666r76666666667r6666666666667r6666666667r66666666666r766668jj",
"u233333333333333333333663366666666666663333333332::33333333338jj",
"s48ldrzdrzdr767776763333<*3363333838rr6:376776rr<+&7rlldzlrlzhjj",
"s47dllzdrzdr8877q7rr6rr73@4zbcVbNNzBBza33w77q7rq<+&7dlldzlrzzhjj",
"s47dlrzlrzdr6877q7rq7r76:o4zbzVbbVbBBza33q77q7qq:O%7ddzglzrzzhjj",
"s47dzdllrzdr8677q77q7q76; 4zbzVbcVbBNza33w77q77r;.@7ddzglzdzzhjj",
"s47rzddzrzlr8676q77q7r76; 4vbzVbcVbBNkw33rr7qrrr;.@7ldzddzgzzhjj",
"s48dzdrzdzdr6876r76q7r76= 4vNzNbzVNNNkw33rr6rr7r;.@7lrzdrzlzzhjj",
"s48rzdrzdzdr6776rr6qrrr6= 5bNzNNzNNNNkq33rr7rrrr;X@7drzdrzlzzhjj",
"s48dzdrgqzdr6q76rr777rr6= 5VNzNNzbbNVzq33rq7r7rq2o@9ddzldzrzzhjj",
"s47dzdrdrzzr8wr7wr6r6rq7= 5VNzVNzNzbVzq33qr7777q3+@qldzddlrzzhjj",
"s47dzdddrzzw7q77q76r67q7;o5VbzVbzNkcVzq86wr7q77q3O@qldzgdlrlzhjj",
"s47lzdddqlzr7q77q77767q7;O5VNbVbvNkzVbq37w77q77q3O@qllzldlrlzpjj",
"s47zzdzdqlzd7qrrq77766q7;O5VNNSbbNkzVbq38q77q77w3+@qlzzlllrddqjj",
"s49zzdzdqdzd7q77q7rr67q7;O5VBBVbNVzzBvq47q77q77w3@@qzzzlzzrdd8jj",
"s49zzdzlqdzd7q7q97wr66q7;O5VBVVbVVczBvq37q7rq77q6&@qzzzdzzrdd8jj",
"s49zldzlrlzr7qrwq7qq77q7;O5VBVVbVVcbVvq37qrqq77w3%@qzzzdzzrld<jj",
"i39zddzlrzzr7qrqr7wq7qq7;O5VBBVbSVbVSbq37qrqq7rw3%@qzzzdzzrzd<jj",
"i39zddzdrzlw9qrrr7wr6r97;O5VNNNbSBzBVba37qrwq7qq6&@9zzzlzzlzr<uj",
"i37zddzdrzdw9r7rr7wr6q77:O5BbNNbCNzBBza3rqrwr7rq6&@7dzldzldzq:qj",
"i,7zldzdrzdq776777wr6r77:O5zzbNNVNkNBzw3rr7w76rr7;@7rlllzlrzq;<j",
"i,8zlzzdwzdq786777wr6q77:O4zkbBbVNkNBzq3rr7w76rr72@7rlllzlrlq*,j",
"h<7zllzdrzdq9767q7wr6r77:O4zzbBbCNlNNzw3797wr6rq72@7rlllzlrlq*-j",
"Qz8zddzdrzdqq66777wr6rr7:O4zcbBzSVzBNzw37q7wr6qw72@7rlldzlrlw*$j",
"~C8ddrzdrzdq7677r7qr6rr73@4zbbBcBVzBBzd37q77r7qq72@7lzldzlrlq*$i",
"~C7dlrzdrzdq7877q7rr6rr73%4zbzVbNBcVVza37q77q7qq72@7lllrzzrzr*+$",
"~C7dzdzlrzdr7677q77w7qr63%4zbvVbcVbBNza37q77q77q73&7ddzdlzdzr*+$",
"~C7dzdzlrzdr7677q77w7rr63%4zbzVbcVbNNkd36q77q77r73&7gdzllzdzr*+$",
"~C8dzdrzdzdr7876w76q7rr63%4zNzBbzVNNNkw66rr7wr7r73&7ldzddzlzr*+$",
"~C8rzdrzdzdr77r6776qrrr63%4bBzBbzVNNNdw87rr6qrrq72&7drzdrzlzr*+$",
"!N8rzdrzrzdr7qr6r7677rr62%5NNzNbzNbNBkq87rq7rrrq72&9ddzdrzdzr*+$",
"d,7dzdrdrzlr8wr6q7676rq72%5VNzBNzbcNVzq87rq7777q73=qldzldzrzr*+$",
"1&7dzdddrzzr8q77q76r6rq72%5VbzVNzBzbVzq87wr7r77q73;qddzddlrlr*+$",
"1&7dzdddrlzq6877q77r67q72%5VNcVbvVzzVvq87wr7q77q73;qldzddlrld*+$",
",&7zzdddqkzr67r7q77r67972%5SNbVbbNkzVvq77qr7q76qr3;qllzlglrld*+$",
",&9zzdzdqkzr67rrq77r67972%5SNNVbbBzzBvw7rqr7q76q73;qzzzdzzrdd*+$",
">&9zldzlrdzr37rqq7q766q72%5SBBVbBVzzBvw8rq7rq76q73:qzzzlzzrdd*+$",
"-&9zzdzlqlzl377w97qq77q73=5VBVVbVVczBvw8rq7qw77q763qzzzdzzrld*+$",
"%&9zldzlrzzr377qr7wq7rq73;5VBVVbVVbNVvw87q7qw7rw733qzzzdzzdzd*+$",
"%&9zddzlrzzq84r7r7w76rq73;5VNBBbSVbBVba8rq7ww7qw7339zzzdzzdzr*+$",
"$&7zddzdrzlq74rrr7wr6qq73;5BNbNbSBzBVva6rqrwq7rq7639lzldzldzw*+$",
"+&7zldzdrzdq7387r7wr6q773;5bzbNNVNzNNcd67r7wr6rr7637rllgzldzq*+$",
"+&8zllzdrzdq836777wr67763;5vkbNbVNzBBza6rr7wr67r7767rlllzllzq*+$",
"+&7zllzdrzdr3367r7wr67773;5zkbNbVNzBBzw6rr7wr6rr7777rlllzlrlq*+$",
"+&7zddzdrzdr3367r7wr6r773;4zzbNcVNkBNzr67w7wr67r7777rlldzlrzq*+$",
"+&8ldrzdrzdr3377r6qr6rr76;4zbbNcVNzBBzd87q7wr6qq7747rlldzlrlw*+$",
"+&8dlrzdwzdr3377q7rr6qr76;4zbcVbNNzBBzd77w7rr7qq7767dlldzgrzr*+$",
"+&7dlrzlwzd73377q77q7qr66;4zbzVbbVbBBzd67q77q7qq7767ddzgzzrzr*+$",
"+&7dzdllrzdr3377w77q7qr66;4zbzVbcVbBNzd76q77q77r7769ddzzlzdzr*+$",
"+&7rzddzdzdr3376q77q77766;4zbzVbzVNNNkd77rr7qr7r7767llFYLClzr*+$",
"+&8rzdrzdzdr33r6r76q7rr6734vBzNbzVNNNkd77rr6qrrq7777lA^//!Nzw*+$",
"+&8rzdrzdzdr33r6rr6q7r73644bBzBNzNNNNkwq7r77rrrr7677zI^WW~Izw*+$",
"+&8dzdrlrzlr3376rr677rr6645VBzBNzbbNVzwq7rq7r7rw767qzLEDHRLzr*+>",
"+&7dzdrdrzzr3377wr6r6rq7645VNzSNcNzbVzwr7qr7777w76rwMFKDDHLzr*$q",
"+&7dzdddqdlq3377q76r67q7645VNzVbzBkcVzwr7wr7q77wr6rqzFKDDHLld*$u",
"+&7lzdddrdzq33r7q77767q7645VNbVbvBkzVvq77q77q76qr8rqzFKDDHLld*$q",
"+&9zzdzdrlzr:;rrq77768q7645VNNVbbNkzVz7r7q77q76qr6rqcJTDDILdd*#<",
"+&9zzdzdrdzr:;r7q77767q7645VBNVbbVzzBz7rrq77q76q78rqMY~IR!Ldd*#<"
};
