/* XPM */
static const char *door0[] = {
/* columns rows colors chars-per-pixel */
"64 64 70 1 ",
"  c black",
". c #000005",
"X c #000008",
"o c #01010C",
"O c #020112",
"+ c #020116",
"@ c #020218",
"# c #04031F",
"$ c #050522",
"% c #030326",
"& c #050426",
"* c #06052C",
"= c #070632",
"- c #080830",
"; c #0B0B35",
": c #09083A",
"> c #090A3F",
", c #0B0B42",
"< c #0E0D42",
"1 c #0D0C46",
"2 c #0F0F4F",
"3 c #14144C",
"4 c #131351",
"5 c #151557",
"6 c #15135C",
"7 c #14145F",
"8 c #171766",
"9 c #1D1D61",
"0 c #1F1F65",
"q c #17176E",
"w c #181869",
"e c MidnightBlue",
"r c #1E1E74",
"t c #232365",
"y c #242467",
"u c #21216A",
"i c #242469",
"p c #25256C",
"a c #28286F",
"s c #262670",
"d c #282871",
"f c #282874",
"g c #2B2B76",
"h c #22227D",
"j c #28267F",
"k c #2B2B79",
"l c #2B2B7C",
"z c #2B2C7D",
"x c #2D2D7E",
"c c #252582",
"v c #282883",
"b c #2F2F83",
"n c #2E2B86",
"m c #2B2C86",
"M c #2F2F86",
"N c #302D86",
"B c #303186",
"V c #323289",
"C c #35368B",
"Z c #37378C",
"A c #39398C",
"S c #3D3E8F",
"D c #404191",
"F c #454593",
"G c #474794",
"H c #474894",
"J c #4A4A95",
"K c #4E4E97",
"L c #505098",
"P c #5A5A9D",
/* pixels */
"990udgu>.    ...XXoooooooXXX. .4AZCVVVbMbMVVkMlbkxlgdkdut0td753%",
"tiiddkxbl*   ...XXXoooooooXX..oDSSAAVVMbVMVMMMVbMbMllxbbkxkkddda",
"iyipdgkbVVjO  ..XXoooooooooXX.=DSSAAZVZVVVVCVCMMVVVMMbblklxggddd",
"iippdgkbBVAV: ..XXoooooooooX.XmJDDSAAZZAAAAZZZCCCCVVVVVMMxbMxkgg",
"tipppgkbMVZAn ..XXooOOOOooooo#KKHFDSSV>>XoX+,rSAZAZACCCVVVbVxkgg",
"iipsggzbMVAAC@..XooOOOOOOOo. .@+O                XO<7ACVCVVVblxk",
"ippdggbMVCZSS6..XooOOOX.                                 .;5Vlbx",
"pdsgglbbVCASDSXXX                                          .VVll",
"idddkxMVVCASDSO                                             VVxl",
"pgggbbMVCASDN.                                              CVVx",
"ggklMMVVCSS2                                                ZVMM",
"xkbMVVCCAh                                                  wCVb",
"lxMVVCZV#                                                   1CCV",
"bMMVCC8                                                     +ZCM",
"MVVCM+                                                      OCCM",
"MVA2                                                         DAC",
"VVO                                                          DSS",
"ZV                                                           FAA",
"SV                                                           8ZA",
"SA                                                           1ZS",
"AM                                                           oDA",
"CV                                                           .DS",
"AA                                                            FD",
"Dv                                                            GF",
"S8                                                            FD",
"Fq                                                            eJ",
"Jq                                                            4K",
"J&                                                            OJ",
"A$                                                            XL",
"G-                                                             L",
"GO                                                             L",
"S.                                                             P",
"J.                                                              ",
"L.                                                             .",
"G                                                              .",
"D                                                              X",
"F                                                              X",
"C                                                              X",
"c                                                              X",
"c                                                              X",
"h                                                              X",
"1                                                              o",
"1                                                              X",
"<                                                              o",
"$                                                              X",
"O                                                              X",
"o                                                              X",
"o                                                              o",
"                                                               X",
"                                                               X",
"                                                               X",
"                                                               X",
"                                                               X",
"                                                               X",
"                                                               X",
"                                                               X",
"                                                               .",
"                                                               X",
"                                                               X",
"                                                               o",
"                                                               w",
"                                                               h",
"                                                               h",
"                                                               ;"
};
