/* XPM */
static const char *door1[] = {
/* columns rows colors chars-per-pixel */
"64 64 192 2 ",
"   c #000002",
".  c #03020B",
"X  c #0A050F",
"o  c #050314",
"O  c #0A0615",
"+  c #0B0817",
"@  c #05021B",
"#  c #0A061C",
"$  c #0C091C",
"%  c #100A1E",
"&  c #070224",
"*  c #0A0623",
"=  c #0D0923",
"-  c #030329",
";  c #0A042A",
":  c #0E092B",
">  c #110C25",
",  c #120C2C",
"<  c #17112E",
"1  c #050536",
"2  c #0E0A32",
"3  c #0F0B3A",
"4  c #140E33",
"5  c #140E3A",
"6  c #151135",
"7  c #1A1435",
"8  c #16113A",
"9  c #19133C",
"0  c #1E183E",
"q  c #21193F",
"w  c #060747",
"e  c #070848",
"r  c #130F41",
"t  c #180F48",
"y  c #171142",
"u  c #1B1343",
"i  c #1E1844",
"p  c #16114F",
"a  c #1C144A",
"s  c #1F194B",
"d  c #0A0C54",
"f  c #100F5A",
"g  c #0E1058",
"h  c #141453",
"j  c #1A1654",
"k  c #1E1854",
"l  c #15155C",
"z  c #1C1A5B",
"x  c #221B44",
"c  c #20174B",
"v  c #231C4C",
"b  c #2B1F4D",
"n  c #211652",
"m  c #241D53",
"M  c #281E54",
"N  c #251E5A",
"B  c #291E59",
"V  c #29214E",
"C  c #272054",
"Z  c #2A2254",
"A  c #26205A",
"S  c #2B235C",
"D  c #2F2A5C",
"F  c #30265E",
"G  c #372B59",
"H  c #34295E",
"J  c #141564",
"K  c #1A1B64",
"L  c #161769",
"P  c #1C1D6C",
"I  c #1C1D73",
"U  c #1C1F7B",
"Y  c #291E62",
"T  c #1F2076",
"R  c #1F207B",
"E  c #272162",
"W  c #2D2562",
"Q  c #2F2866",
"!  c #2C256B",
"~  c #312565",
"^  c #332965",
"/  c #3A2E64",
"(  c #34276B",
")  c #342B6C",
"_  c #392D6C",
"`  c #3B3264",
"'  c #3B316E",
"]  c #20217A",
"[  c #21227F",
"{  c #21247E",
"}  c #342774",
"|  c #352C72",
" . c #3B2D74",
".. c #362779",
"X. c #362D7A",
"o. c #3A2D7B",
"O. c #3C3274",
"+. c #3C327B",
"@. c #3A357B",
"#. c #41326F",
"$. c #402E74",
"%. c #402F79",
"&. c #413474",
"*. c #42347C",
"=. c #44387E",
"-. c #1A1D84",
";. c #1F2283",
":. c #212381",
">. c #222482",
",. c #222385",
"<. c #222485",
"1. c #25268B",
"2. c #26298D",
"3. c #292C8E",
"4. c #3D2E84",
"5. c #3E3482",
"6. c #3F3388",
"7. c #2B2E90",
"8. c #433583",
"9. c #493783",
"0. c #453A85",
"q. c #4B3B85",
"w. c #44348A",
"e. c #49368C",
"r. c #463A8B",
"t. c #4C3B8C",
"y. c #513C8D",
"u. c #473A94",
"i. c #4B3D92",
"p. c #4D3B9B",
"a. c #523E93",
"s. c #533D99",
"d. c #464088",
"f. c #4D408C",
"g. c #52428D",
"h. c #474193",
"j. c #4E4193",
"k. c #4E4099",
"l. c #534494",
"z. c #5B4696",
"x. c #554996",
"c. c #5C4994",
"v. c #53449A",
"b. c #5B459C",
"n. c #56489D",
"m. c #5C4A9B",
"M. c #624C9D",
"N. c #61509F",
"B. c #5445A0",
"V. c #5C46A0",
"C. c #5D4DA2",
"Z. c #644DA3",
"A. c #684EA6",
"S. c #6450A3",
"D. c #6A52A5",
"F. c #6C54A9",
"G. c #6C5AAB",
"H. c #7157AB",
"J. c #745BAC",
"K. c #7A5EAE",
"L. c #596FAF",
"P. c #5E76B2",
"I. c #6E60A3",
"U. c #7060AB",
"Y. c #7A61AF",
"T. c #7F65B1",
"R. c #627BB4",
"E. c #8265B1",
"W. c #866BB4",
"Q. c #8A6CB4",
"!. c #8E72B7",
"~. c #847BB3",
"^. c #9173B8",
"/. c #9379B9",
"(. c #6A83B7",
"). c #7F98BE",
"_. c #8983BA",
"`. c #9D92BF",
"'. c #8D9EC0",
"]. c #9D9BC1",
"[. c #A299C2",
"{. c #ADA6C5",
"}. c #B1AEC8",
"|. c #B8AFC9",
" X c #A5B8CA",
".X c #BAB5CB",
"XX c #C0B9CD",
"oX c #B9C9D1",
"OX c #C9C7D2",
"+X c #CCCCD4",
"@X c #D3D7D9",
"#X c gainsboro",
/* pixels */
"[ [ <.1.1.1.2.2.I -                   .                     @ 7.3.2.2.<.<.1.[ :.[ [ <.<.] >.:.>.[ >.:.] ] :.R ] ] T T T I I T I ",
"] { >.1.1.1.2.2.3.7.J o                                     1 7.2.2.1.1.>.<.:.[ <.:.<.>.{ >.<.{ { { <.>.:.:.:.<.[ [ R R T I T P ",
"I h j K [ [ [ ,.1.1.3.U -           .           .         . I 1.1.,.:.[ [ T R R U R T K j l j j j j K P R U U I P I I P P P I I ",
"5 O O O O O > % $ $ $ , , O # # # = : # # # # # # @ @ * # : u y 9 , = = = $ O O O O $ $ O O O O O O O O O O O $ + O X O $ : R I ",
"5 O O O O 7 _./ $ $ $ $ > > > , , O.[.6 , , < , , , > > = $ $ V _.$ O O O O O O O $ G I.+ + $ $ $ $ $ O O O 7 ~.G O O O O # I I ",
"K O O O O ` #X.X$ $ $ $ = > > > i }.#Xd., , < , > > > = $ $ < ].#XD O O O O O O O x +X#X> $ $ $ $ $ $ $ $ O ` #X}.O O O X # U T ",
"P O O O O O > $ O O O $ $ $ $ $ = , x > > > > > > > = $ $ $ # = 6 O O O O O # # # # $ 6 O O O O O O O O O O O % O X X X X # R U ",
"h                   .     . . . . o O O o O + + # o # $ # # o o o O O o . o . . . . . . .                                 # U U ",
"L @ # *._ Z m._ x j.+.9 = = , , , # 5 > O # # O .   . o o . .   . o . @ , , @     = # , , $ u u .     : F O.+.F M.O.x _ _ z I I ",
"L @ $ _ O.v n.| i j.O.8 * $ , , u 4 u y = u u 4 .   & p.H.Z.^.A.E.E.q.E.W.s.k   . 9 , 4 u , y u .     : | *.9.Z l._ q &.' z I I ",
"L @ $ W +.v 0.+.s t. .4 # # 4 , y , 6 a , 9 8 =     & p.F.a.Q.Z.M.E.M.K.E.w.k   . y , > a 4 u u       4 X.) x.^ *.*.v &.' j I I ",
"L @ * S 0.Z ' +.v t.| , * # , = a , , u 4 y 9 $     & u.F.e.!.b.y.Q.Z.K.K.| j   . 8 : > a 8 8 u       2 o.W j._ _ &.v O.' z I P ",
"J @ # v 0.F Z 0.v 0._ , # * , $ u , > c 4 9 8 $     & p.D.o.E.M.*.Q.F.J.K.( u . . 4 , = a 8 8 u       2 +.W n.) Z q.~ ' ' j I I ",
"L @ # m l.~ V g.S +.) , # * , # 8 , $ a 4 8 6 O     & B.H.o.F.b.%.E.H.J.K.Z y . . , , $ 9 6 8 u       4 =.Z l.^ b q.H ' ' j I P ",
"L @ # u g.D x =.Z +.) = O , 4 # 4 6 = u 6 8 4 O     & F.H.o.K.D. .H.Z.A.K.S 2 o . , 4 = 9 6 8 u       4 | Z l.D v q.H ' O.j I P ",
"J @ # v l.^ u _ 9 =.O.= # 9 4 # 8 4 $ 4 , 6 5 O     ; /.F. .J.A.( v.t.A.Y. .2 o o , 9 , 5 , 6 u       5 | S g._ v O.x ' ' z I P ",
"J @ # F f.W x W 7 =.+., # 9 , $ c 4 $ 8 $ 4 u =     ; !.F.*.T.M. .M.^ a.Y.*.5 o o 4 4 = 4 = > u .     r 5.~ l.W Z O.0 ' ' z I I ",
"L @ # S f.W m W 7 O.=.u ; 8 , = y : # 8 # , 5 =     ; ^.V.4.Y.v. .D.Z 8.J.8.: @ @ 9 6 = u = > a .     5 +.) l.| m ^ 0 ` O.p I I ",
"J @ = ' =.S N W 6 _ 0.x ; 8 , , y , : 4 # # 5 =     ; !.F.i.T.a.o.F.B  .J.w.: o o 5 : = a : = u .     5 +.+.j.^ W ^ 0 F ^ r I I ",
"J @ = =.&.C | S 6 ^ 8.m ; 8 , , y , , 8 # # y =     ; ^.A.S.Y.a.8.D.M  .J.i.2 o # 5 = = u = $ u .     4 +.0.8._ ( &.0 C S : I U ",
"J @ = m.O.m f.W 6 Q 8.m ; 5 , 4 5 , 8 8 O = y :     ; !.J.F.G.v.Z.F.~ ~ H.i.3 o # 5 : , y = $ u .     4 r.v.8._ q.O.9 v Z & U U ",
"l @ = c.O.Z x.) 6 W 8.N ; 5 4 9 4 , 9 9 # = 9 =     ; Q.H.J.J.t.Y.K.*.~ G.r.: . # 4 : 4 u : $ u #     4 r.C.8.~ f.O.9 Z v o U R ",
"f o = f._ D x._ 7 O.8.m * 5 , u 5 , u 9 = , y =     & !.H.H.H.a.J.J.8.8.Y.r.2 . # 4 , y u , = a #     4 r.S.8.! m.*.v #.x . R R ",
"g . ; f.W Z x._ 0 =.8.s * 8 , 8 6 = s 9 = 9 y ,     & Q.J.H.H.a.T.J.y.F.T.a.5 . # 4 , y y , 4 u @     5 i.C.0.) m.*.v *.s . I ;.",
"d . ; 0.W S 0.W i r.*.y : 4 , 4 6 : c 8 # 5 5 :     & E.J.Z.D.t.Y.M. .A.J.t.y . # 4 , u y , y u #     4 5.v.=._ m.=.M g.s   e <.",
"d . @ 0.S W 0.D i =.Q 8 : , = , 6 , c 8 + y 4 =     & H.b.Z.F.y.T.Z.S D.D.*.r   = 4 > a 6 = 9 y #     : ) 0.O.( m.*.Z g.8   - 1.",
"e   o  .^ W 0.Z 9 +.D 8 : # O , , , c 4 + 4 , =     & e. .l.D.m.Y.x.m D.Z.*.5   = , = a 4 # 9 8 #     = v +.O. .j./ V g.9   o 2.",
"w   o | ~ ' 0.m 9 +.W 8 : # o = , , a , O 5 4 =     @ e.S b.F.i.J.z.m C.Z.+.2   = , = u 4 # 4 9 >     = m +.+.+.j._ x =.u     2.",
"d   o O.W D =.C 8 +.Q 8 : * # 4 9 , c , # 4 4 =     @ e.*.V.D.t.Y.c.S N.F.+.5   * 4 > u 8 # 4 9 >     = D 0.+.=.x._ C O.u     2.",
"#X$.o ) m s 0.Z 8 5.Q 4 , @ # > 4 $ c 6 + 8 8 ,     @ o.t.j.A. .W.M.S F.H.*.5   * 4 > u 4 # 9 u ,     = Z +.O.) m.O.v +.s     7.",
"#XK.o m k 9 8.Z 8 5.Q 4 : # = > 4 = u 8 # 8 8 :     @ 4.b.e.F.0.A.M._ D.F.w.a   # 4 = 4 8 = y y ,     : W O.0.S C.+.v +.s     -.",
"#XE.o y S u 8.N 8 5.W 4 : # : = 5 , 8 8 # 5 8 = .   @ 4.b.*.H.r.m.G.=.H.J.*.y   # 4 = , y , y y ,     : | O.0.Z 0.r.D j.m       ",
"#XT.o v ! s ( W 0 5.W , : # : = 9 , , u , 5 4 # .   @ 4.b.4.T.y.q.J.a.F.H.~ a . O 5 = $ y , 4 u > .   : X.W r.~ O.r.W i.N       ",
"#XY.@ a | s Z ) u 5.W , : # = $ y , = u , 5 4 # .   @ 4.V.) T.y.#.J.y.F.F.S a . o 4 = + y 4 4 8 $ .   : X.W v.O.O.n.X.j.m       ",
"#XK.o a  .m v @.m @.Q , : # : # 9 > $ u , 4 4 O .   @ e.F. .D.8.S Y.Z.D.F.Z 5 o o : , # 8 4 4 8 = .   : +.S v.) S n.+.j.N       ",
"#XW.o 9 o.m i 0.E | ) , : = 4 # , , $ u 4 4 4 o     @ v.F.( Z.m.) F.z.M.A.u 4 o # : , # 8 , 4 y =     : | S r.) D n.=.v.E       ",
"#XH.@ 4 0.N 9 +.v | Q , * 4 4 # 4 4 # 4 , 4 4 o     & Y.D.( D.M._ Z.t.M.F.S 2 @ # : 4 = 4 4 , y $     3 | W n.^ D i.| p.E       ",
"U   @ v 8.S u W 7 =. ., # u 4 # y 4 $ 4 # , 9 $     & W.F. .F.m.W t.^ M.J. .2 @ # , 5 = , > > 9 =     5 +.~ n.O.W t.S k.Y       ",
"@   & N t.W s W 7 =.+.4 # 4 , $ y , # 8 # , y =     & Q.b. .T.M._ S.S y.J.8.2 @ # 8 , $ 4 $ $ 9 , .   5 | ) v.| S 5.m i.E       ",
"@   * ! i.W N W 7 | 0.y o # , = y : = 4 O > 5 ;     & Q.D.9.Y.y.| S.m  .Y.w.: o # 8 , = 9 $ = 9 , .   5 +.) v.| ! 5.v t.!       ",
"    : 8.5.S W W 6 _ 0.m o # , , y , : 4 O # 5 =     & W.F.l.Y.a.8.M.M  .H.w.: @ * 8 : = y = # 9 , .   5 +.0.l.O.+.+.C r.!       ",
"    2 C.8.S 8.W 6 _ r.m o # , 4 8 , , 8 O # 5 =     & W.H.Z.Y.y.t.Z.S ) F.w.5 @ = 4 : : 9 $ O 9 , .   4 r.x.r.) r.t.m ) !       ",
"    4 S.0.S j.| 6 Z r.m o # 4 y 5 , 5 5 O # 5 =     & W.F.F.D.y.M.F.^ B G.r.4 @ : 4 : , 9 = O 9 , .   4 r.C.l.O.l.r.C ) !       ",
"    4 S.r.) C.| 6 | r.m o # 4 a 5 , y u $ $ 9 = .   & W.F.J.F.t.J.J.*. .G.r.4 @ = 4 = 6 9 = $ 8 : o . 4 r.C.0.) C.r.W 0.!       ",
"    4 V.| Q C.| u r.r.m o # 4 y 8 : c u = 4 y = .   & W.F.F.F.i.H.J.q.n.H.r.4 @ = 4 , 5 9 , , y : o . 4 r.C.8.| C.r.W v.!       ",
"    5 V.X.) C. .x l.0.u # # , 4 6 : s 8 $ 8 y = .   & W.H.S.D.i.T.D.8.G.Y.i.y o = 4 , u y = 8 y , o . 2 r.m.8.| C.r.W v.!       ",
"    4 C.X.) l.) v l.O.9 ; # , , 8 , c 8 # 8 5 * o   & J.A.Z.C.8.T.M.W D.J.w.u o = 4 , u 8 = 6 8 = o   2 +.j.| } C.0.! C.N       ",
"    2 C.5.| v.^ x r.) 8 # o # , 4 , c 4 + 4 : * o   @ a.*.l.Z.x.J.m.m b.A.%.u . = , = y , # 6 6 = #   * C  .| | v.O.W C.k       ",
"    ; v.8.+.v.Q x 0.^ 9 # . O , , , u 4 + 4 : # o   @ w.S a.D.t.H.z.m Z.Z.%.9 . = , = u 4 # 4 6 = # # * v  ._ | v. .m i.k       ",
"    : v.8.+.v.W i 0.) 6 o . O , 4 , c , O 4 , * .   @ 8.S l.S.q.J.z.m m.Z. .4 . = , = y , O 4 6 = = * # s | | _ n.| n w.j       ",
"    : v.X.) v.^ i 0.) 4 o   # , 4 = c 6 + 4 , = .   @ o.( e.b.*.J.m.m Z.D.$.9 o # 4 > u , # 4 4 = $ # # u | | S n.X.s u.s       ",
"    : r.X.D v.^ i r.| 4 o   = , 6 $ u 4 + 6 6 = o   @ 6.l.g.S.*.J.M._ D.F.o.a o # 4 = 8 4 # 5 8 = # @ * m W | Z l.} v 5.k       ",
"    : 5.=.A n.) i i.| 4 o   , > 9 , 9 8 # 8 6 = o   @ o.b.9.H.y.M.M.^ D.F.8.n o # 4 = , 8 = 5 8 = # o @ Z W | n w.| s w.n       ",
"    , | 8.m r.+.s i.| , o   , = 9 = , u > 4 , # o   @ 4.b. .F.q.q.F.q.Z.D.} n o O 4 = $ 9 : 5 4 $ # @ ; S m 8.A | X.v 4.k       ",
"    4 | k.W +.+.v r.| , o   , = u , > u , 5 4 O o   @ o.b. .Y.q.&.J.y.D.F.W n @ o 4 = # 9 , 4 4 # # o ; N s 5.| | o.N 4.s       ",
"    , W k.| W r.S r.| , o   , $ u , = u , 4 4 O o   @ 6.V.~ F.q._ J.m.D.F.S a # o : = # 5 , , 4 O # o @ W ~ [.@XOX/.) 4.a       ",
"    : W C._ Z x.! 5.| , .   4 # 4 > $ u , 4 , o # . @ i.A.~ M.y.S F.m.S.F.v u = o = , # 4 , , 4 # # @ & ~ `.#X#X#X#XU.o.p       ",
"    : N C.| M r.W 5.| : . . 4 # 4 6 = 9 , 4 , o o o @ C.A.( D.m.^ M.M.M.F.m 5 : # = , # 4 , , 4 # o @ & 8.+X#X#X#X#XOX..p       ",
"    : ! C.X.s +.i r.O.: . . 4 $ 8 4 $ 4 = , 4 o o o & W.A.~ Z.z.W a.8.M.J._ 5 : # = 4 = , = > 4 # o * ; w..X#XR.).@XXX..t       ",
"    4 +.C.| m | 0 t.8., . . 4 = c 4 # 5 # 4 9 # o o & W.Z. .Y.z.( m.F a.H.8.9 : O 2 , # : # # 4 # o = : t.`. XR.R.'.XX..a     w ",
"    : +.C.| ) | 0 5.r.8   . , = u , $ 4 # , 4 * o o & W.M. .J.a.( M.m =.J.8., * # 8 , # 4 # # 4 = o ; : r.]. XR.P.'.XX( j     d ",
"    5 u.k._ ! | 9 5.i.u     4 , u 4 : 4 O # 4 * o o & W.Z.a.Y.y.| M.M  .J.w.: * # 4 = # 5 # # 4 * o * ; 8.]. XL.L.'.XXY p     e ",
"    5 S.j.! 5.| 9 O.i.s     4 4 u , , 4 O # 8 * o o & W.Z.m.J.t.q.M.M  .J.| o = * 4 = * 9 # O 4 * o * ; t.{.oXR.(. X.Xn p     @ ",
"    5 G.h.! n.| 7 | j.m     4 4 9 , 8 4 O $ 8 * o o & W.F.D.F.a.b.D.~ ~ F...* * = 4 = = 5 # O 4 * o & ; r.+X#X X+X#X|.t p     @ "
};
