/* XPM */
static const char *enemy0[] = {
/* columns rows colors chars-per-pixel */
"64 64 166 2 ",
"   c #000000",
".  c #0B0303",
"X  c #00000D",
"o  c #0A020E",
"O  c #140505",
"+  c #1B0707",
"@  c #1F0808",
"#  c #000013",
"$  c #00001C",
"%  c #240909",
"&  c #2C0B0B",
"*  c #340D0D",
"=  c #3B0F0F",
"-  c #360D1F",
";  c #3F1010",
":  c #010225",
">  c #02022A",
",  c #140625",
"<  c #000033",
"1  c #01013C",
"2  c #300C33",
"3  c #431111",
"4  c #4B1313",
"5  c #531515",
"6  c #5B1717",
"7  c #5F1818",
"8  c #631919",
"9  c #6C1B1B",
"0  c #731D1D",
"q  c #791E1E",
"w  c #571623",
"e  c #5A1637",
"r  c #691A2B",
"t  c #7B1E2A",
"y  c #7B1E35",
"u  c #7F202B",
"i  c #000044",
"p  c #00014C",
"a  c #050A4D",
"s  c #0F0D4C",
"d  c #110E47",
"f  c #120D4D",
"g  c #010254",
"h  c #0D0E56",
"j  c #01015B",
"k  c #0E0C5C",
"l  c #150F52",
"z  c #110F5F",
"x  c #151056",
"c  c #010263",
"v  c #0C0F63",
"b  c #01016B",
"n  c #120E68",
"m  c #0D1068",
"M  c #000074",
"N  c #01007D",
"B  c #5C174A",
"V  c #4C1350",
"C  c #822020",
"Z  c #8B2323",
"A  c #85212D",
"S  c #952626",
"D  c #9F2929",
"F  c #8B233A",
"G  c #9B2739",
"H  c #A62B2B",
"J  c #B22F2F",
"K  c #B2302F",
"L  c #B33331",
"P  c #B43A34",
"I  c #B64137",
"U  c #B74639",
"Y  c #B7483A",
"T  c #B84C3B",
"R  c #BA533E",
"E  c #82204A",
"W  c #AB2D48",
"Q  c #B22F49",
"!  c #B22F5F",
"~  c #8C236E",
"^  c #87227F",
"/  c #92257D",
"(  c #B22F63",
")  c #B23061",
"_  c #BB5740",
"`  c #BB5B41",
"'  c #BD6244",
"]  c #BF6B48",
"[  c #BF774D",
"{  c #BF7C4E",
"}  c #C06E4A",
"|  c #C0734B",
" . c #BF8452",
".. c #BE8C54",
"X. c #BE9157",
"o. c #BE9658",
"O. c #BE9B5B",
"+. c #BDA35E",
"@. c #BDA660",
"#. c #BDAA62",
"$. c #BCB165",
"%. c #BBB96A",
"&. c #000085",
"*. c #00008B",
"=. c #010096",
"-. c #080297",
";. c #0E0498",
":. c #170699",
">. c #3F109F",
",. c #4511A1",
"<. c #471AA2",
"1. c #5B18A4",
"2. c #771FA8",
"3. c #781EA8",
"4. c #6E24A8",
"5. c #7225A9",
"6. c #7F22AA",
"7. c #7028A9",
"8. c #8F2496",
"9. c #98279D",
"0. c #B22F8C",
"q. c #B53D89",
"w. c #A02991",
"e. c #8425AB",
"r. c #8D27AC",
"t. c #8C2BAD",
"y. c #9826AD",
"u. c #942BAD",
"i. c #9D2CAF",
"p. c #9335AF",
"a. c #9C31AF",
"s. c #9635B0",
"d. c #9C33B0",
"f. c #B22FA3",
"g. c #A72BB0",
"h. c #B22FB2",
"j. c #A333B1",
"k. c #AA35B2",
"l. c #AD37B3",
"z. c #A238B1",
"x. c #AE39B3",
"c. c #B231B2",
"v. c #B334B3",
"b. c #B239B4",
"n. c #B43AB4",
"m. c #B43BB4",
"M. c #AE42B5",
"N. c #B643B6",
"B. c #B748B7",
"V. c #B84CB8",
"C. c #BA52BA",
"Z. c #BA54BA",
"A. c #BB58BB",
"S. c #BB5ABB",
"D. c #BC5CBC",
"F. c #BD62BD",
"G. c #BD64BD",
"H. c #BD6ABD",
"J. c #BD6FBD",
"K. c #BD74BD",
"L. c #BC7BBC",
"P. c #BC84BC",
"I. c #BB8CBB",
"U. c #BB9DBB",
"Y. c #BAA3BA",
"T. c #BAACBA",
/* pixels */
"Z.C.Z.Z.Z.j.A.Z.C.Z.Z.Z.>   > A.A.j.Z.C.Z.Z.C.A.A.A.d.D.D.a     8 4 4 5 c.z.A.A.Z.Z.A.A.>   > Z.Z.k.C.C.C.Z.C.C.C.C.j.Z.Z.>   F.",
"V.i.j.A.j.*.l.b.Z.i.k.Z.Z.  Z.A.l.*.l.k.Z.j.j.j.Z.d.=.a.F.N.  6 5 3 3 4 = $ a.u.D.d.k.Z.A.  A.Z.a.*.k.j.Z.k.l.b.Z.b.=.n.Z.Z.  Y.",
"b.&.*.k.*.N &.*.l.*.=.n.Z.  Z.x.=.=.=.=.j.=.=.=.j.=.=.=.n.C . 4 3 3 3 3 3   =.=.j.=.=.x.A.  Z.k.=.=.=.*.b.&.*.&.j.=.=.=.k.C.  Y.",
"=.=.=.=.&.i =.=.=.=.=.=.s.  s.=.=.=.=.=.=.*.=.=.=.=.=.$   4 3 4 3 3 3 3 3   X =.=.=.=.=.p.  s.=.=.=.=.=.=.*.&.=.=.=.=.=.=.i.  0.",
"=.=.=.=.i N =.=.=.=.=.=.g   g =.=.=.=.=.=.g =.=.=.<   . 5 4 3 3 3 3 3 3 3 %   =.=.=.=.=.j   g =.=.=.=.=.=.i &.=.=.g =.=.M       ",
"  c i g j =.=.g =.=.=.g g   j g =.=.=.=.j c =.=.=.    5 4 3 3 3 3 3 4 4 4 4   : =.=.=.b b   j j =.=.=.=.g p =.=.=.j c N         ",
"    X c c j c c c =.c b       c c =.b b b b M =.    5 4 4 4 3 3 3 3 3 4 4 4 .   i i : j       j j =.j g g j j =.j c 1           ",
"                                                  5 4 4 4 3 3 3 3 3 3 3 4 4 O     .                                             ",
"      . f.J.J.      z z k f   * 4 O   v m m o + * 4 4 4 4 3 3 3 3 3 3 3 4 4 3 & O 5 6 4   , h s s s d f f d l x                 ",
"        Z D.T.J.  n F.F.B.W 0 8 8 5 C h.G.H.C 8 4 4 4 4 3 3 3 3 3 3 3 3 3 4 4 5 4 5 5 5 9 ( B.F.F.n.F.F.F.F.F.n.            . h.",
"          Z D.T.  F.F.n.V 0 6 6 5 5 5 W c.5 3 5 4 4 3 3 3 3 3 3 3 3 3 3 3 4 4 4 4 4 5 5 6 9 - n.n.=.n.F.F.n.c.w             * H.",
".           * D.  G.M.> O 6 6 5 5 5 4 4 5 & 4 4 4 3 3 3 3 3 3 3 3 3 3 3 3 3 4 4 4 4 4 5 5 7 +   =.=.=.N.n.=.                & F.",
"&             4   u.&.  3 6 6 6 5 5 5 = & 4 4 4 3 3 3 3 3 3 3 3 3 3 3 3 3 3 3 3 4 4 4 4 5 5 5 @   *.=.=.=.                    N.",
"1.                  $   8 6 6 5 5 4 4 4 4 3 3 3 3 3 3 3 3 3 3 3 3 3 3 3 3 3 3 3 3 4 4 4 4 4 5 4 . < =.M                       =.",
";.                    . 8 6 6 5 5 4 4 4 4 3 3 3 3 3 3 3 3 3 3 3 3 3 3 3 3 3 3 3 3 3 4 4 4 4 5 5 3   #                       b =.",
"j                     . 8 6 6 5 5 4 4 3 3 3 3 3 3 3 3 3 3 3 3 3 3 3 3 3 3 3 3 3 3 3 3 3 4 4 4 5 5 *                         1 < ",
"                        & 6 6 5 5 4 4 4 3 3 3 3 3 3 3 3 3 3 ; 3 3 3 3 ; 3 3 3 3 3 3 3 3 4 4 4 5 5 6 .                       n   ",
"  o .                     @ 6 5 4 4 4 3 3 3 3 3 3 3 ; 3 ; 3 ; ; 3 3 3 ; 3 3 3 3 3 3 3 3 3 4 4 4 5 5 6                   O N.A.k ",
"  N.+                       = 5 4 4 4 3 3 3 3 3 3 3 3 3 ; 3 ; ; 3 3 3 3 ; 3 3 3 3 3 3 3 3 4 4 4 5 5 6 .                 . n.Z.Z.",
"  D..                       . 5 4 4 3 3 3 3 3 3 3 3 3 3 ; 3 ; ; 3 3 3 3 ; ; ; 3 3 3 3 3 3 3 4 4 4 4 5 *                 M =.t.Z.",
"  d.1                         * 4 4 3 3 3 3 3 3 ; ; 3 3 ; ; 3 ; ; ; ; ; ; 3 3 3 3 3 3 3 3 3 3 4 4 4 5 5                 =.b b t.",
"    =.                        & 4 3 3 3 3 3 ; ; ; ; ; ; ; ; ; ; ; ; ; ; ; ; ; ; 3 3 3 3 3 3 3 3 3 4 4 4 O             > b b c   ",
"                              & 3 3 3 3 ; ; = ; ; = ; ; ; ; ; ; ; ; ; ; ; ; ; ; ; ; ; ; 3 3 3 3 3 3 3 4 4         8             ",
"D.F.G.G.h.                    3 3 = = = = = = = = = = ; = = ; ; ; ; ; = ; = = = ; = = = ; ; ; 3 3 3 3 3 3 O   @ 5 X.n.C.D.A.A.A.",
"Y.Y.P.P.Y.G.Z               5 5 4 * = = = * = = = = = = = ; = ; ; = = = = = = = = = = = = = = = ; ; ; ; = = 5 5 +.%.Y.Y.U.U.U.U.",
"Y.L.V.Z.P.L.G 6           + 4 4 4 4 * * * * * * = = = = = = = = = = = = = = = = = = = = = = = = = = = = = * 3 ..$.#.K.P.U.L.L.L.",
"L.C.u.u.v.B.5 5 5 5 4 4 4 4 3 P 3 3 3 * & * = * = = = = = = = = = = = = = = = = * * * * * * * = * = = = * * 3 L $.#.N.n.L.B.u.B.",
"Z.C.,.2.g.8 4 4 4 4 3 3 3 = L +...= ; 3 * & * * * * = = = = = = = = = * * * * * * * * * * * * * * & * & * * 3 ; $.$.V.n.B.u.=.u.",
"r.t.u.n.F 3 3 4 3 3 3 ; ; ;  .#.#.O.L = 3 3 * * * * = = = = = * * * * * * * * * & & & & & & & & & & * & * & = = $.#.{ h.u.=.=.=.",
"=.=.;.9.3 3 3 3 3 ; ; = * L #.@.@.#.#.| = ; 3 4 * = = = = = = * * * * * * & & & & & & = = = = = & & & & % & = ; #.#.+.i.=.=.=.=.",
"> > r 3 3 ; 3 3 ; = = = * #.#.@.@.@.@.#.+.J 3 3 3 4 = = = = * * * * 3 ; = ; & & & * * * * * * * * * % % % = = L #.$.$.f.c > : : ",
"1 g 3 ; 3 3 = = = * * * O.@.@.@.@.#.@.@.$.#...4 4 4 4 4 4 4 4 3 3 3 ; = = = * * * * * * & * & * * * * * * * = $.#.$.#.L v.      ",
"D.c.3 3 = ; = = * * J X.@.@.@.@.@.@.@.#.#.$.$.O. .K 4 5 4 4 4 3 3 ; = = * * * * & & & & T X. .X.T J * * * L O.#.#.#.$.n.N.b   Z.",
"D.u 3 ; ; = * * * J  .@.@.@.@.+.@.@.@.#.#.#.+.P K L ] I 5 4 4 3 3 = L K J J J & & % U | ..O.+.O.+.X.[ { | O.#.@.$.L 4 9 w.n.  Y.",
"c.; 3 ; = = * * J  .@.@.@.@.+.@.@.O.R 3 3 3 4 5 5 5 5 5 5 4 { { [ ..O.O.o.o...| | ] ..O.O.O.+.+.+.+.+.@.@.@.@.R 3 3 5 O   O   Y.",
"y.3 ; = = = * * | X.@.+.+.@.@.@.J = 3 3 O               & 5 4 3 +.#.@.@.@.+.O.O.O.X.o.O.O.O.O.O.O.+.+.+.@.#.J 3 @             C.",
"2.E ; = = = * * O.@.+.@.@.@.{ ; ; *                           3 3 O.+.@.+.O.O.O.o.o.X.O.o.o.o.o.O.O.+.+.+.= =                 =.",
"=.8.= = = * * R o.@.@.@.@.{ = 3                                 ; J +.+.+.O.O.o.O.X.X.O.X.X.O.o.O.O.+.+.L =                   =.",
"=.y = = = * * O.@.@.@.+.O.J                                       = { +.O.O.O.O.o.o.X.X.X.O.O.X.O.O.O.X.* +                   p ",
"# = ; = = * * @.@.@.@.@.T =                                       ; * +.+.O.O.O.O.o.X.o.X.X.o.o.O.O.+.J =                       ",
"Z.3 ; = * * * @.@.@.@.@.K +                         9 9 8 6 .       = +.O.O.O.o.o.o.X.o.X.X.o.O.O.O.+.* .       5 6 6 8 8 6 J.H.",
"N.3 ; = * * J @.@.@.@.@.;                       9 9 9 9 8 6 5 4     * L ..O.O.o.o.o.o.o.o.o.o.O.O.O.` =       5 5 6 6 8 8 6 n.T.",
"y 3 ; = = * J @.@.@.@.@.=                     = 0 0 9 8 8 6 5 5 4     * [ O.O.O.O.o.X.o.o.o.O.O.O.O.* =     4 5 5 6 6 7 8 8 C P.",
"3 3 ; = = * * @.@.@.@.+.= *                   0 0 9 9 9 8 6 5 5 4 3   * { +.+.O.O.O.O.O.O.o.+.O.O.+.= @     5 5 5 8 8 8 7 8 6 D.",
"3 3 3 = = = * @.@.@.@.@.L 3                   q 9 9 9 8 8 6 6 5 4 3   = ' +.+.+.O.O.P J J _ O.+.@. .3 O     5 6 6 6 8 8 6 6 5 j.",
"3 3 3 ; = * * O.@.@.@.@.T 3                   0 9 8 8 8 6 6 6 5 4 3   % T +.+.+.| J & & & & L @.@...3 O     6 6 6 8 6 8 8 6 6 =.",
"4 3 3 ; = = * | @.@.@.@.{ =                   9 9 9 8 8 8 6 6 5 4 4   O R @.@.X.& *         * ' ....3 O     % 6 6 8 7 6 6 6 Z =.",
"0 4 3 ; = = * K O.#.@.@.@.} O                 9 9 9 8 8 6 6 6 5 5 4   . R ..O.* *             = L ..4 O       O 6 6 6 6 6 6   i ",
"    9 3 = = * &  .@.@.@.@. .;                 . 9 9 8 7 6 6 6 5 5       = = = &                                   * 6 *         ",
"  <.t 3 = = * & T O.@.@.@.@.L ;                 % 8 6 6 6 6 5 5         . +     * * J *                                     2 g ",
"  D.0 3 3 = * * J  .@.@.@.@...; =                 . 6 6 5 5 *               * * J { +.U *           3 4 4                   c.C.",
"  N.A 3 3 = = * * T o.@.+.@.@.T =                                         * * ' +.+.+.+.* * * = ; 3 3 3 4 3           . 4 0 1.C.",
"  7.B 5 ; = = * * K  .@.@.@.@.+.= = =                           3 ; = = * J X.+.O.O.+.+.+.L * * * = ; = 3 3 3 3 3 4 3 3 3 F M 4.",
"    M / 5 = = = * * T O.@.@.@.@.+.Y = = *                 . 3 ; = = * * * ..+.O.O.O.O.O.O.O.O.P * * = = = = J ; ; ; | #.o.h.N   ",
"        ; = = = * * * L O.@.@.+.@.+.o.' = = = = * @ * = = = = = * * * & J ..O.O.O.o.O.O.O.O.O.] & * * * * J #.#.#.#.#.#.{ L     ",
"A.A.A.D.D.n.Q = = = * * T @.@.+.+.+.+.+.+.+.+.T J * J { @.@.P * & & & & J O.O.o.o.o.o.o.O.O.O...& & & & * { @.@.#.@.@.#. .n.Z.Z.",
"U.U.L.L.U.Y.I.K.5 = = * = ] @.@.@.@.+.+.+.+.+.+.+.+.+.+.+.+.+.& & & & % ' O.o.o.X.X.X.o.X.o.O.O.J % & & & @.@.@.@.#.@.#.I.I.U.U.",
"U.L.B.B.L.Y.L.U.P.4 t = = * L o.@.+.+.+.O.+.O.O.O.O.O.O.O.O.+.L % % % % ` X.X.X.X.X.X.X.o.o.o.O.L % & & R @.@.@.@.#.@.#.P.K.K.L.",
"L.B.e.e.e.L.B.B.U.  c.h.~ 9 = J X.@.+.+.+.O.O.O.O.O.O.O.O.O.O.O.% % @ @ _ o.X.............X.o.o.' % % % X.@.@.+.P.D.D.B.G.C.r.B.",
"B.V.>.>.,.V.t.=.B.  5.M :.3.y.^ ( q...+.+.O.O.O.O.O.O.o.O.O.O.O.` @ @ + { X.X.............X.X.o.O.L S ] +.+.O.J n.c.c.n.N.6.=.u.",
"e.r.6.V.V.e.=.=.=.  b b M =.=.&.-.h.h.) ] ..O.O.O.O.O.O.o.o.o.o.o.` H R ....................X.o.O.O.O.+.@.| Q . =.=.=.r.r.=.=.=.",
"&.*.&.u.u.=.=.=.$     b M N b &.&.&.=.h.f.) P [ o. .O.O.O.O.o.o.o.X.X.X........... .....X...X.o.O.O.O.O.T h.e   : =.=.=.=.=.=.=.",
"X X X X X # X #                             3 J J L T [ | ..{ o.........o..... . ....... .` R } | ` ' U ! #       $ $ $ $ $ $ $ ",
"A.Z.A.A.D.A.D.D.D.D.D.D.      Z.V.V.V.B.B.N.N.N.N.x.n.n.n.H S P T Y Y U | X. . . . ... .J D * v.c.n.n.N.N.B.B.V.C.Z.C.Z.D.      "
};
