/* XPM */
static const char *enemy1[] = {
/* columns rows colors chars-per-pixel */
"64 64 160 2 ",
"   c #010000",
".  c #0B0303",
"X  c #00000B",
"o  c #09020C",
"O  c #130505",
"+  c #1A0707",
"@  c #1E0808",
"#  c #000015",
"$  c #01011D",
"%  c #0B031A",
"&  c #1E081D",
"*  c #240909",
"=  c #2C0C0C",
"-  c #330D0D",
";  c #390F0F",
":  c #280B10",
">  c #380F10",
",  c #310D1D",
"<  c #3D1010",
"1  c #000023",
"2  c #080222",
"3  c #00002B",
"4  c #000133",
"5  c #01013C",
"6  c #190732",
"7  c #431212",
"8  c #4C1414",
"9  c #531616",
"0  c #581717",
"q  c #5B1818",
"w  c #631A1A",
"e  c #6C1C1C",
"r  c #731E1E",
"t  c #4C142E",
"y  c #5B1827",
"u  c #511534",
"i  c #671B27",
"p  c #731E28",
"a  c #7B2020",
"s  c #010144",
"d  c #0A0342",
"f  c #01014C",
"g  c #000055",
"h  c #02025C",
"j  c #070B5A",
"k  c #000163",
"l  c #060B61",
"z  c #00006A",
"x  c #130564",
"c  c #000074",
"v  c #00007C",
"b  c #1E0871",
"n  c #6E1D42",
"m  c #53166C",
"M  c #842323",
"N  c #8C2525",
"B  c #8C262A",
"V  c #962828",
"C  c #842332",
"Z  c #A42D2D",
"A  c #A42D32",
"S  c #B13232",
"D  c #B33B36",
"F  c #B43B3B",
"G  c #B6443A",
"H  c #B84C3D",
"J  c #832357",
"K  c #932759",
"L  c #962858",
"P  c #A22C41",
"I  c #AC304E",
"U  c #9B2A69",
"Y  c #912773",
"T  c #A02C6E",
"R  c #B1326C",
"E  c #A72E76",
"W  c #B13278",
"Q  c #BB5943",
"!  c #BD6548",
"~  c #BF6B4B",
"^  c #C27F53",
"/  c #C48D5A",
"(  c #C5925C",
")  c #C89D65",
"_  c #C9A365",
"`  c #CBAB6A",
"'  c #CCB06E",
"]  c #CEB974",
"[  c #D1C47D",
"{  c #000084",
"}  c #00008B",
"|  c #0C038C",
" . c #17068C",
".. c #000094",
"X. c #0E0496",
"o. c #1B0798",
"O. c #3C109D",
"+. c #45129F",
"@. c #4B14A0",
"#. c #5416A1",
"$. c #5D19A3",
"%. c #621AA3",
"&. c #6D1DA5",
"*. c #721EA6",
"=. c #6B24A6",
"-. c #7B21A7",
";. c #7C21A8",
":. c #7E2BAA",
">. c #952880",
",. c #982993",
"<. c #A82E97",
"1. c #B43C9B",
"2. c #8324A9",
"3. c #8C26AA",
"4. c #8A2CAB",
"5. c #9227AB",
"6. c #932CAC",
"7. c #9A2DAE",
"8. c #8C32AD",
"9. c #9432AE",
"0. c #9D32AF",
"q. c #A22EAE",
"w. c #AB2FAF",
"e. c #A131AF",
"r. c #B236A0",
"t. c #A92FB0",
"y. c #A235B0",
"u. c #AF31B1",
"i. c #AD3BB3",
"p. c #B133B1",
"a. c #B33BB4",
"s. c #B544B6",
"d. c #B74AB7",
"f. c #B84DB8",
"g. c #B953B9",
"h. c #BB5CBB",
"j. c #BD63BD",
"k. c #BE6BBE",
"l. c #BF71BF",
"z. c #C075C0",
"x. c #C17BC1",
"c. c #CEB990",
"v. c #C79AA4",
"b. c #C8A0A1",
"n. c #D3CA82",
"m. c #D5D087",
"M. c #D7D78E",
"N. c #D7D7A4",
"B. c #D7D7BB",
"V. c #C283C2",
"C. c #C385C3",
"Z. c #C38AC3",
"A. c #C594C5",
"S. c #C79BC7",
"D. c #C89FC8",
"F. c #C9A3C9",
"G. c #CAA9CA",
"H. c #CDB6CD",
"J. c #CFBCC9",
"K. c #D7D7D7",
/* pixels */
"x.x.x.V.x.9.C.x.x.x.x.x.$   $ x.x.6.z.l.l.k.k.h.h.g.&.d.s.3   g s.N.M.M.h.5.s.d.g.g.h.j.#   $ z.x.0.z.z.z.x.x.x.x.z.6.x.z.1   C.",
"l.4.6.C.6.} 0.y.x.6.0.x.x.  x.x.0.} 7.6.k.2.2.;.h.&...%.s.p.  j.M.M.M.M.b.p.#.#.f.&.-.j.k.  k.z.6.} 0.6.x.0.0.y.V.y...e.x.z.  K.",
"0.{ } 0.} z } } e.} ..i.x.  z.0.........2...} ..*.......*.s.S M.M.M.M.M.M.p.O...$.....-.j.  k.6.......} y.} } } 6.......6.k.  K.",
"........c 4 ............:.  :.............c v ....{ ....p.Z.M.M.M.M.M.M.M.~ p...........$.  =.............v c ....v ......:.  A.",
"c ..{ v 4 z ..v ......{ 5   5 { ........{ 4 c ....s ..p.h.M.M.M.M.M.M.M.M.M.p...........s   s } ........{ 4 z ....5 } .. .7   ..",
"4 } = # 5 { } s } ....s 5   s 5 ....} } 5 f } ....z p.p.M.M.M.M.M.M.M.M.M.M.r.o.......g g   s s } ..{ } s 5 } ....s s 6 w q   ..",
"5 % 9 r 2 s f f f ..f f       s f ..f f f f g ..k p.1.M.M.M.M.M.M.M.M.M.M.M./ p.v #.| c       f s } f s s f f ..s s , 0 q q   $ ",
"    9 q q                       X X X           u G M.M.M.M.M.M.M.M.M.M.M.M.' R I D F W                           O q 9 0 9     ",
"A.x.9 9 q r g.      s s 5 5 s p.F M.^ p.s s s <.G M.M.M.M.M.M.M.M.M.M.M.M.M.M./ _ M.M.M.r.x 5 4 4 4 4 5 5 5 d s   q 0 9 9 9 k.V.",
"K.K.8 9 9 9 P a.  f l.k.h.h.s.H.M.M.M.K.p.a.a.H.M.M.M.M.M.M.M.M.M.M.M.M.M.M.M.M.M.M.M.M.B.z.a.d.g.3.h.k.l.V.k.a 9 9 9 9 9 p.K.K.",
"x.K.B 9 9 9 9 T   z.k.2.2.C.d.M.M.M.M.M.g.q.p.M.M.M.M.M.M.M.M.M.M.M.M.M.M.M.M.M.M.M.M.M.M.F.p.6.*...2.k.l.p.8 9 9 9 9 9 9 Z.K.K.",
"C.V.U 8 8 9 9 8 8 a.%.....s.v.M.M.M.M.M.c.p.M.M.M.M.M.M.M.M.M.M.M.M.M.M.M.M.M.M.M.M.M.M.M.M.p.p.......t.>.8 8 8 8 8 8 8 8 h.K.l.",
"V.C.L 8 8 8 8 8 8 q f ....p.M.M.M.M.M.M.M.] M.M.M.M.M.M.M.M.M.M.M.M.M.M.M.M.M.M.M.M.M.M.M.M.M.p.7.z ..p 7 7 7 8 8 8 8 8 B V.6.6.",
"9.9.p.8 8 8 8 8 8 7 8 c *.J.M.M.M.M.M.M.M.M.M.M.M.M.M.M.M.M.M.M.M.M.M.M.M.M.M.M.M.M.M.M.M.M.M.[ p.m 9 - < < 7 7 8 8 8 8 5 6.....",
"......8 8 8 8 8 7 7 < 9 E M.M.M.M.M.M.M.M.M.M.M.M.M.M.M.M.M.M.M.M.M.M.m.M.M.M.M.M.M.M.M.M.M.M.M.) = = - ; < 7 7 7 8 8 r ........",
"1 3 4 8 8 8 8 8 7 7 < ; - M.M.M.M.M.M.M.M.M.M.M.M.M.M.M.M.M.M.M.m.M.M.m.M.M.M.M.M.M.M.M.M.M.M.M.M.S = = - ; < 7 7 7 8   4 1 O X ",
"    l 9 8 8 8 7 7 7 < - - S M.M.M.M.M.M.M.M.M.M.M.M.M.M.m.M.m.m.m.m.M.m.m.m.M.M.M.M.M.M.M.M.M.M.M.~ * = - - < < 7 7 7 l t 8 8   ",
"  j A.f.8 8 8 7 7 7 < ; - = S M.M.M.M.M.M.M.M.M.M.M.M.M.m.m.m.m.m.m.m.m.m.M.M.M.M.M.M.M.M.M.M.M.M.M.S = = - ; < < 7 p.,.8 8 8 d ",
"8 K j.i.M 8 8 7 7 7 < ; - = = S M.M.M.M.M.M.M.M.M.M.M.M.M.M.m.m.m.m.m.m.m.M.M.m.M.M.M.M.M.M.M.M.M.M.~ * = - - ; < J C 7 8 8 8 Z.",
"8 8 C ..b 8 8 7 7 7 < < - - = * M.M.M.M.M.M.M.M.M.M.M.M.m.M.m.m.m.m.m.M.m.M.m.M.M.M.M.M.M.M.M.M.M.M.M.S = = - ; 7 9 7 7 7 8 e C.",
"8 8 8 w X.e 8 8 7 7 < < ; - = = ) M.M.M.M.M.M.M.M.M.M.M.M.m.m.M.M.m.m.M.m.M.m.m.M.M.M.M.M.M.M.M.M.M.M.~ * = - - < < 7 7 7 8 & =.",
"7 8 8 8 > : 8 8 7 7 7 < ; - = = H M.M.M.M.M.M.M.M.M.M.M.M.M.M.m.M.M.M.M.m.m.M.M.M.M.M.M.M.M.M.M.M.M.M.M.= = - - < < 7 7 7 7 h   ",
"7 8 7 8 8 O 8 8 8 7 7 < < ; - = S M.M.M.M.M.M.M.M.M.M.M.M.M.M.M.M.M.M.M.M.M.M.M.M.M.M.M.M.M.M.M.M.M.M.M.! = = - ; < 7 7 7 7     ",
"w 8 8 8 8 8 r 8 8 8 7 7 7 < - - r M.M.M.M.M.M.M.M.M.M.M.M.M.M.M.M.M.M.M.M.M.M.M.M.M.M.M.M.M.M.M.M.M.M.M.M.= - - - < < 7 7 s.Z.Z.",
"K.8 8 8 8 8 8 p.8 8 8 7 7 < < - - V M.M.M.M.M.M.M.M.M.M.M.M.M.M.M.M.M.M.M.M.M.M.M.M.M.M.M.M.M.M.M.M.M.M.M.S - - ; < 7 7 p.K.K.K.",
"K.8 7 8 8 8 8 8 8 8 8 8 7 7 < < . - = M.M.M.M.M.M.M.M.M.M.M.M.M.M.M.M.M.M.M.M.M.M.M.M.M.M.M.M.M.M.M.M.M.M.M.= - - < 7 e K.K.K.K.",
"K.w 8 8 8 9 9 9 9 9 9 9 8 8 7 @   = - = M.M.M.M.M.M.M.M.M.M.M.M.M.M.M.M.M.M.M.M.M.M.M.M.M.M.M.M.M.M.M.M.M.M.- - < 7 7 p.K.z.6.l.",
"A.p.9 8 9 9 9 9 9 9 . 9 9 8 .   . + ; - = M.M.M.M.M.M.M.M.M.M.M.M.M.M.M.M.M.M.M.M.M.M.M.M.M.M.M.M.M.M.M.M.M.- - < 7 a g.x.6...6.",
"6.p.9 9 9 9 9 9 9 9 +         . * * + ; - S M.M.M.M.M.M.M.M.M.M.M.M.M.M.M.M.M.M.M.M.M.M.M.M.M.M.M.M.M.M.M.M.- < 7 7   3.7.......",
"....n 9 9 q q 0 q q q .     . = * * * + + - - ( M.M.M.M.M.M.M.M.M.M.M.M.M.M.M.M.M.M.M.D S S M.M.M.M.M.M.M.M.< 7 7 =   ..........",
"1 3 3 q 9 q q q q q 8 .   . + = = = * * * + = - S n.M.M.M.M.M.M.M.M.M.n./ M.M.M.M.M.] * * = = ( M.M.M.M.M.M.7 7 * =   3 3 1 $ $ ",
"4 j l y q w w q w w     . + - - - = = = * * * @ < ; S M.M.M.M.M.M.M./ = = S M.M.M.[ =       . - S ' M.M.M.7 8 * = =   o j       ",
"A.A.A.J w w w w w w   . @ ; ; - - - - = = = * * - 7 - < < ; ; - - - - .   - - Z - -     O O O - < < < 7 7 8 * = - - = p.V.j   V.",
"A.i.s.8 O ; e e w * . * < < < < ; ; ; - - - = = O . . @ 7 7 < < < @ . . . + ; ; ; O . + + + + + @ * 7 8 8 = = - +     X p.x.  K.",
"s...#   . . . . . . * < < 7 < < 7 < < < .                   . O . * @ @ @ * @ @ @ @ @ @ * * * * * * * = = = -             V.  K.",
"....      . . . . O 7 7 7 7 7 7 7 = .                           = = = * * * * * * * * * * * * * = = = = - +               -.  F.",
"....#     . . . O + 7 7 7 7 7 8 @ .                               = = = = = = = = = = = = = = = = - - - -                 X   ..",
"z ..z     . . . O = 7 7 7 7 8 @                                     - - - = = - = = = = - - - - - - - ;                   #   ..",
"k k z     . . . O 7 8 8 7 8 =                                       O ; - - - - - - - - - - - ; ; ; < *                       3 ",
"        . . . . + 7 7 8 8 8 .                                         * ; ; ; - - - - - ; ; ; < < < <                           ",
"A.A.p.@   . . O @ 7 8 8 8 8                           a a a r         . < < ; ; < ; < ; < < < < < 7 *         r r r e e e Z.S.Z.",
"K.K.p.e . . . O @ 8 8 8 8 8                       M M a a a r r O       < 7 < < < < < < < < < 7 7 7 .       a r r r e e w Z.K.K.",
"V.K.W - . . . O @ 8 8 8 8 8                     7 M M a a a r r r O     * 7 < < < < < < 7 < 7 7 7 = .       r r e e e e w r K.K.",
"x.C.M O . . . O @ 8 8 8 8 9                     M M a a r r r r r r     O 7 < 7 7 < 7 7 < 7 7 7 8 =         r r e e e e w w K.x.",
"V.f.  . . . . . @ 8 8 8 9 9 .                   M M a r r r r r r r     . 7 7 < 7 7 * + * 7 7 7 7 =       + r r e w e e w w 7.e.",
"a.2.. . . . . . O 8 8 8 8 9 +                   M a a r r r r r r r O   . 7 7 7 7 +       . = 7 7 =         r r r r e e w w ....",
"..h   . . . . . O 8 8 8 8 9 =                   M a r a r r r r e r .   . 7 7 7 *             = 7 =         r r e r r e w A ....",
"$ 3     . . . . O = 8 8 8 8 9                   M a a a r e r e e r       7 7 -                 @ O           r r r e e w X $ 1 ",
"    s X   . . . . @ 8 8 8 8 9 O                 O M a r r e e e e         - *                                   O 9 ;       f   ",
"  f V.g.9 + . . . O 8 8 8 8 8 -                   9 a r r r e e -               e e e e               O                   w.C.4 ",
"  V.C.u.+ . . . . . * 8 8 8 8 9 +                   + a r r w O             w e w w w S e         e w w                   &.Z.V.",
"  x.8...  O . . . . O 7 8 8 8 8 9 .                                       w w w w w w w w w w w q S M.) w                 ..8.x.",
"  4.g h     . . . . . * 8 8 8 9 8 - .                           * w q q q w Q q q w w w w w q q S M.M.M._ .           .   z h :.",
"    g g k     .   . . O = 8 8 8 8 9 8 O                       w q M.M._ 0 9 D q = - - - q S Q 9 H M.M.M./ w     . * - *   g k   ",
"                  . . . O 8 8 8 8 8 8 8 8 .                 - q M.M.M.M.9 9 q q - - - - = 9 9 9 S M.M.M.q 7 - - - ; - O         ",
"x.x.x.V.C.Z.Z.p.    . . . @ 8 8 8 8 8 8 8 8 8 8 7 * O * < ; w q M.M.M.M.9 9 = = = = - = - = = 9 9 M.M.' q - - - - - - 8 q A.Z.Z.",
"K.K.K.K.K.K.K.K.a.  . O . . = 8 8 8 8 8 8 8 8 7 7 7 < < ; - - q S M.M.M.9 = = = = = = = = = = 9 9 M.M.S 9 - - - - - - w p.K.K.K.",
"K.K.j.j.K.K.K.K.K.  p.p O + O * 8 8 8 8 7 8 7 7 7 < < ; ; - - 9 q M.M.M.9 = = = - - - = - = = 7 9 M.M.9 = - - - - - ; N K.K.K.K.",
"K.j.3.3.5.K.j.S.K.  x.2.X :   . O * 8 8 8 7 7 < 7 < < ; - - = = 0 S M.` 9 = = = = = = = = = = = 9 S 9 9 = - -   N a e Y K.x.e.z.",
"h.j.+.+.@.k.q...D.  9.k ....h       . ; 7 7 7 7 < < < ; - - - = = 9 S 9 9 = = = = - - = = - = = q 0 q 9 - * *   p.X 2.d.V.7...e.",
"-.3.2.k.k.3.......  g h h ....c { ..$     = - < < < ; ; ; - - - = 9 9 9 9 = = = - - - = - = = - = = - - = .     ......i.i.......",
"{ } } 6.7.......#     g k z h c v v v k 4       @ + - - - - - - - = = = - = = - - - - - - = = = = = = *         $ ..............",
"X X X X X X X X                       X               . O = O * = = = = - - - - - - - - = * O O . . .             # # # # # # # ",
"V.x.V.V.Z.x.Z.Z.A.A.A.S.      S.S.F.S.F.F.S.S.G.F.F.G.a.i       7 < < < 7 - - - - - - 9       a.g.F.A.S.F.S.A.S.S.S.A.A.S.      "
};
