/* XPM */
static char *_4e900c9ac0a43d4e3e2f445becc7843uWODaLQzdFhRyI55[] = {
/* columns rows colors chars-per-pixel */
"64 64 132 2 ",
"   c None",
".  c #62191D",
"X  c #691A1F",
"o  c #661C20",
"O  c #6D1B20",
"+  c #741B22",
"@  c #7C1C25",
"#  c #6F2225",
"$  c #752124",
"%  c #7C2124",
"&  c #762629",
"*  c #7E2229",
"=  c #7A282C",
"-  c #821F27",
";  c #801F28",
":  c #832225",
">  c #8B2627",
",  c #83222A",
"<  c #8B262A",
"1  c #852A2F",
"2  c #8D282C",
"3  c #912529",
"4  c #932928",
"5  c #9C2B2C",
"6  c #832E31",
"7  c #8D2C32",
"8  c #922E34",
"9  c #8A3134",
"0  c #953436",
"q  c #9D3636",
"w  c #94363A",
"e  c #9A343A",
"r  c #94393B",
"t  c #9B3B3E",
"y  c #A32E2D",
"u  c #A7302F",
"i  c #AB302E",
"p  c #A33635",
"a  c #AC3634",
"s  c #A2393E",
"d  c #B43432",
"f  c #BB3633",
"g  c #BD3834",
"h  c #C13734",
"j  c #C23834",
"k  c #C43E3A",
"l  c #C8423F",
"z  c #A53C41",
"x  c #A93F43",
"c  c #A44143",
"v  c #AB4346",
"b  c #AD4749",
"n  c #B64447",
"m  c #B24549",
"M  c #B64A4D",
"N  c #BA4C4F",
"B  c #BD4F51",
"V  c #BD4E51",
"C  c #BE5052",
"Z  c #BE5253",
"A  c #C84441",
"S  c #C94441",
"D  c #C94542",
"F  c #CA4643",
"G  c #CB4744",
"H  c #CC4845",
"J  c #CB4948",
"K  c #CD4A48",
"L  c #C84C4C",
"P  c #CD4E4C",
"I  c #CF4E4C",
"U  c #CF514E",
"Y  c #D0504D",
"T  c #C05253",
"R  c #C45456",
"E  c #C55556",
"W  c #C55557",
"Q  c #C35355",
"!  c #CA5151",
"~  c #C95759",
"^  c #C95859",
"/  c #CC5A5B",
"(  c #CD5B5C",
")  c #CE5B5C",
"_  c #CA595A",
"`  c #D35453",
"'  c #D35554",
"]  c #D45654",
"[  c #D45756",
"{  c #D45857",
"}  c #D55857",
"|  c #D55958",
" . c #D75C5B",
".. c #D25C5C",
"X. c #D05D5E",
"o. c #D15D5E",
"O. c #D35F5F",
"+. c #D15D5E",
"@. c #D85D5C",
"#. c #D85E5D",
"$. c #D35F60",
"%. c #D45F60",
"&. c #D45F60",
"*. c #D46060",
"=. c #D56061",
"-. c #D66161",
";. c #D66162",
":. c #D76262",
">. c #D66161",
",. c #DB6261",
"<. c #D86263",
"1. c #D96363",
"2. c #DA6262",
"3. c #DB6262",
"4. c #DB6363",
"5. c #DC6363",
"6. c #DC6463",
"7. c #D96364",
"8. c #DA6464",
"9. c #DB6464",
"0. c #DB6565",
"q. c #DC6464",
"w. c #DC6565",
"e. c #DD6565",
"r. c #DE6565",
"t. c #DC6666",
"y. c #DD6666",
"u. c #DD6767",
"i. c #DE6666",
"p. c #DF6666",
"a. c #DE6767",
"s. c #DC6565",
/* pixels */
"                                                                  y.y.y.                                                        ",
"                                                              y.y.y.y.y.y.                                                      ",
"                                                            y.y.y.y.y.y.y.y.                                                    ",
"                                                          y.y.y.y.y.y.y.y.y.                                                    ",
"                                                        y.y.y.y.y.y.y.y.y.y.y.                                                  ",
"                                                      y.y.y.y.y.y.y.y.y.y.y.y.                                            h     ",
"    h                                               y.y.y.y.y.y.y.y.y.y.y.y.y.                                        j j h     ",
"    j j                                           y.y.y.y.y.y.y.y.y.y.y.y.y.y.    y.y.                              j j j j     ",
"    j j j                       y.y.y.          y.y.y.y.y.y.y.y.y.y.y.y.y.y.y.y.y.y.y.y.                          j j j j j     ",
"    h j j j j                 y.y.y.y.y.      y.y.y.y.y.y.y.y.y.y.y.y.y.y.y.y.y.y.y.y.y.y.                      j j j j j       ",
"    j j j h j j             y.y.y.y.y.y.    y.y.y.y.y.y.y.y.y.y.y.y.y.y.y.y.y.y.y.y.y.y.y.y.                j j j j j j j       ",
"      j j j j j j           y.y.y.y.y.y.y.  y.y.y.y.y.y.y.y.y.y.y.y.y.y.y.y.y.y.y.y.y.y.y.y.y.            j j j j j j j h       ",
"      j j j j j j         y.y.y.y.y.y.y.y.y.y.y.y.y.y.y.y.y.y.y.y.y.y.y.y.y.y.y.y.y.y.y.y.y.y.y.        j j j j j j j j         ",
"      j j j j j j j       y.y.y.y.y.y.y.y.y.y.y.y.y.y.y.y.y.y.y.y.y.y.y.y.y.y.y.y.y.y.y.y.y.y.y.      j j j j j j j j j         ",
"      h j j j j j j j     y.y.y.y.y.y.y.y.y.y.y.y.y.y.y.y.y.y.y.y.y.y.y.y.y.y.y.y.y.y.y.y.y.y.y.y.Y j j j j j j j j j           ",
"        j j j j j j j j U 2.y.y.y.y.y.y.y.y.y.y.y.y.y.y.y.y.y.y.y.y.y.y.y.y.y.y.y.y.y.y.y.y.y.y.y.[ j j j j j j j j j           ",
"        j j j j j j j j j ' 2.y.y.y.y.y.y.y.y.y.y.y.y.y.y.y.y.y.y.y.y.y.y.y.y.y.y.y.y.y.y.y.y.y.y.#.H j j j j j j h       j j   ",
"        j j j j j j j j j k ` 2.y.y.y.y.y.y.y.y.y.y.y.y.y.y.y.y.y.y.y.y.y.y.y.y.y.y.y.y.y.y.y.y.y.6.' j j j j j j j     j j h   ",
"j         j j j j j j j j j l { y.y.y.y.y.y.y.y.y.y.y.y.y.y.y.y.y.y.y.y.y.y.y.y.y.y.y.y.y.y.y.y.y.y.#.A j j j j j     j j j j   ",
"j j       j j j j j j j j j j I 2.y.y.y.y.y.y.y.y.y.y.y.y.y.y.y.y.y.y.y.y.y.y.y.y.y.y.y.y.y.y.y.y.y.2.` j j j j j j j h j j     ",
"j j j       h j j j j j j j j G  .y.y.y.y.y.y.y.y.y.y.y.y.y.y.y.y.y.y.y.y.y.y.y.y.y.y.y.y.y.y.y.y.y.y.#.k j f h j j j j j j     ",
"j j j j     j j j j j j j j j A | y.y.y.y.y.y.y.y.y.y.y.y.y.y.y.y.y.y.y.y.y.y.y.y.y.y.y.y.y.y.y.y.y.y.2.I d i f j j j j j h     ",
"j j j j j     j j j j j j j j A { y.y.y.y.y.y.y.y.y.y.y.y.y.y.y.y.y.y.y.y.y.y.y.y.y.y.y.y.y.y.y.y.y.y.y.O.5 d h j j j j h       ",
"  j j j j j   h h j j j j j j k ! 9.y.y.y.y.y.y.y.y.y.y.y.y.y.y.y.y.y.y.y.y.y.y.y.y.y.y.y.y.y.y.y.y.y.y.y.J j j j j j j j       ",
"  j j j j j j   j j j j j j j 5 8 N y.y.y.y.y.y.y.y.y.y.y.y.y.y.y.y.y.y.y.y.y.y.y.y.y.y.y.y.y.y.y.y.y.y.y.[ k j j j j j         ",
"  j j j j j j f 5 5 f j j j d > + 7 M y.y.y.y.y.y.y.y.y.y.y.y.y.y.y.y.y.y.y.y.y.y.y.y.y.y.y.y.y.y.y.y.y.y.5.k j j j j j         ",
"  j j j j j j f d 3 > 5 y y > @ + @ 7 M y.y.y.y.y.y.y.y.y.y.y.y.y.y.y.y.y.y.y.y.y.y.y.y.y.y.y.y.y.y.y.y.y.y.A j j j j           ",
"    j j j j j j f y + @ : : + + @ @ @ 8 V y.y.y.y.y.y.y.y.y.y.y.y.y.y.y.y.y.y.y.y.y.y.y.y.y.y.y.y.y.y.y.y.y.K j h d             ",
"    h j j j j j j f @ + + + + + @ @ @ @ 8 B :.y.y.y.y.y.y.y.y.y.y.y.y.y.y.y.y.y.y.y.y.y.y.y.y.y.y.y.y.y.y.y.L d y 3             ",
"      j j j j j j f : + + + + @ @ @ @ @ @ 7 M ) 9.y.y.y.y.y.y.y.y.y.y.y.y.y.y.y.y.y.y./ T ^ :.y.y.y.y.y.y.y.n 5 - @             ",
"      j j j j j j f @ + + + @ @ @ @ @ @ @ @ @ z E O.7.y.y.y.y.y.y.y.9.:.%.7.y.y.y.y.O.t * 0 N ) 2.y.y.y.y.:.0 ; @ @ @           ",
"        f f j j h d + + + @ @ @ @ @ @ @ @ @ @ @ 1 z E :.2.9.9.9.9.2.) v c E 7.9.9.O.e + + + @ 0 B $.2.2.:.M , @ @ @ @           ",
"        : 5 d h d 3 + + @ @ @ @ @ @ @ @ @ @ @ @ @ @ @ 1 e v v v v 0 * + + 1 c C M 7 + + @ @ @ @ @ 1 8 0 8 ; @ @ @ @ @           ",
"      + + @ % : @ @ + @ @ @ @ @ @ @ @ @ @ @ @ @ + + + @ * * * * * @ @ + + @ , 1 , @ @ @ @ @ @ @ @ @ @ ; @ @ @ @ @ + O           ",
"      + + + + + + + + @ @ @ @ @ @ @ @ @ + O O X X X X X O O + @ @ @ @ @ @ @ @ @ @ @ @ @ @ @ @ @ @ @ @ @ @ @ @ + X X X .         ",
"      + + + + + + + @ @ @ @ @ @ @ @ + O X X . . . . . . . X O + @ @ @ @ @ @ @ @ @ @ @ @ @ @ @ @ @ @ @ @ @ @ O X . . . . .       ",
"      + + + + + + + @ @ @ @ @ @ + O X . . . . . . . . . . . . X + @ @ @ @ @ @ @ @ @ @ @ @ @ @ @ @ @ @ @ @ + X . . . . . .       ",
"        + + + + + @ @ @ @ @ @ + O . . . . . . . . . . . . . . . X + @ @ @ @ @ @ @ @ @ @ @ @ @ @ @ @ @ @ + X . . . . . . .       ",
"        + + + + + @ @ @ @ @ @ O . . . . . . . . . . . . . . . . . X + @ @ @ @ @ @ @ @ @ @ @ @ @ @ @ @ + X . . . . . . . .       ",
"      + + + + + + @ @ @ @ @ + X . . . . . . . . . . . . X X . . . . O @ @ @ @ @ @ @ @ @ @ @ @ @ @ @ @ + . . . . X X X X .       ",
"      + + + + + + @ @ @ @ @ O . . . . . . . . . . . X % 2 2 : X . . X + @ @ @ @ @ @ @ @ @ @ @ @ @ @ + X . . . : y f d y :       ",
"      + + + + + + @ @ @ @ @ O . . . . . . . . . . % y d f f d u + . . + @ @ @ @ @ @ @ @ @ @ @ @ @ @ + . . . : a f d a a d       ",
"    + + + + + + + @ @ @ @ @ O . . . . . . . . . $ y f g d a a d y + . O + @ @ @ @ @ @ @ @ @ @ @ @ @ O . . . u f a q q q a h     ",
"    + + + + + + + @ @ @ @ @ O . . . . . . . . . 4 d g a q 0 0 p d > X X + @ @ @ @ @ @ @ @ @ @ @ @ @ O . . O f g p 0 0 0 p f     ",
"    + + + + + + + @ @ @ @ @ + X . . . . . . . . y f d p 0 0 0 0 a 5 O X + @ @ @ @ @ @ + + @ @ @ @ + O . . + f f q 0 0 0 p f     ",
"    + + + + + + + @ @ @ @ @ + X . . . . . . . . y j d 0 0 0 0 0 q u + . + @ @ @ @ + O O O + @ @ @ + O . . X d g p 0 0 0 p g     ",
"    + + + + + + + @ @ @ @ @ + X . . . . . . . . y h d q 0 0 0 0 p 5 O . + @ @ @ + X . . . X + @ @ + O . . . 4 d d p q p a       ",
"      + + + + + + @ @ @ @ @ @ O . . . . . . . . 4 d f a 0 0 0 0 d > X . + @ @ @ O . . . . . X O @ + O . . . X 5 d f f d 5       ",
"          + + + + + @ @ @ @ @ + X . . . . . . . + y j f a q p d d O . . O @ + O . . . . . . . . . . . . . . . X + % % O X       ",
"        + + + + + + @ @ @ @ @ @ O . . . . . . . . % y f g g f y $ X . . . X X O 6 t w 9 o . . . . . o # . . . . . X X . .       ",
"        + + + + + + + @ @ @ @ @ + X . . . . . . . X + : > > : + X . . . . . & w v N e C = X . . o 1 v c o . . . . . . . .       ",
"        + + + + + + + @ @ @ @ @ @ + X . . . . . . . . . X X . . . o . . o 6 c b e x 2 m 9 9 6 6 r V *.^ t . . . . . . X X       ",
"          + + + + + + + @ @ @ @ @ @ + X . . . . . . . . . . . . $ r w 9 9 b ^ v , 2 ; 7 8 M N b Z 9.y.9.^ O X X X O O + @       ",
"            + + + + + + @ @ @ @ @ @ @ + X X . . . . . . . . o = c O.O.^ M B E s @ @ @ @ , Q ~ N ~ y.y.9./ @ + + + @ @ @ @       ",
"              + + + + + + @ @ @ @ @ @ @ @ + O X X X X X X X $ v 9.y.y.y.m s m e @ @ @ @ @ m x s T y.y.:.m @ @ @ @ @ @ @         ",
"                + + + + + + @ @ @ @ @ @ @ @ @ @ @ + + + @ @ @ 0 2.y.y.y.x @ @ @ @ @ @ @ @ @ @ < M y.y.O.0 @ @ @ @ @ @ @         ",
"                    + + + + + @ @ @ @ @ @ @ @ @ @ @ @ @ @ @ @ , Q 9.y.y.z @ @ @ @ @ @ @ @ @ @ , v y.9.Q @ @ @ @ @ @ @ @         ",
"                        + + + + @ @ @ @ @ @ @ @ @ @ @ @ @ @ @ @ e %.y.O.e @ @ @ @ @ @ @ @ @ @ @ z :.O.z @ @ @ @ @ @ @ @         ",
"                            + + + @ @ @ @ @ @ @ @ @ @ @ @ @ @ @ , B :.^ e @ @ @ @ @ @ @ @ @ @ @ 0 B B < @ @ @ @ @ @ @           ",
"                                    @ @ @ @ @ @ @ @ @ @ @ @ @ @ @ e B m 7 @ @ @ @ @ @ @ @ @ @ @ , 8 8 @ @ @ @                   ",
"                                        @ @ @ @ @ @ @ @ @ @ @ @ @ , e 8 , @ @ @ @ @ @ @ @ @ @ @ @ @ @ @ @ @                     ",
"                                            @ @ @ @ @ @ @ @ @ @ @ @ @ @ @ @ @ @ @ @ @ @ @ @ @ @ @ @ @ @ @                       ",
"                                                  @ @ @ @ @ @ @ @ @ @ @ @ @ @ @ @ @ @ @ @ @ @ @ @ @ @ @                         ",
"                                                            @ @ @ @ @ @ @ @ @ @ @ @ @ @ @                                       "
};
