/* XPM */
static char *_29a3ebb10aa406cb049d38e4fc66910C9jYFqXiNvsEmJId[] = {
/* columns rows colors chars-per-pixel */
"64 64 160 2 ",
"   c None",
".  c #61191E",
"X  c #6A1C1F",
"o  c #661C20",
"O  c #6A1C21",
"+  c #741C22",
"@  c #7C1C25",
"#  c #7F1F28",
"$  c #6E2124",
"%  c #722326",
"&  c #7B2123",
"*  c #752529",
"=  c #78272A",
"-  c #7D2A2D",
";  c #801F28",
":  c #832425",
">  c #8B2627",
",  c #83222A",
"<  c #8A272A",
"1  c #812C2F",
"2  c #8E282A",
"3  c #922929",
"4  c #9C2C2B",
"5  c #832E31",
"6  c #8C2A31",
"7  c #922D34",
"8  c #863033",
"9  c #8B3336",
"0  c #8F3638",
"q  c #953436",
"w  c #9C3636",
"e  c #933439",
"r  c #9A3339",
"t  c #963A3C",
"y  c #9A3B3E",
"u  c #A22E2D",
"i  c #AC312F",
"p  c #A33535",
"a  c #AD3634",
"s  c #A03A3F",
"d  c #B43533",
"f  c #BB3633",
"g  c #BD3834",
"h  c #B33B39",
"j  c #BD3C39",
"k  c #C03733",
"l  c #C23834",
"z  c #C53D39",
"x  c #B0403F",
"c  c #C7413E",
"v  c #C8433F",
"b  c #9C3E40",
"n  c #A23D41",
"m  c #9F4042",
"M  c #A44244",
"N  c #AA4446",
"B  c #AC4648",
"V  c #AD494A",
"C  c #B24B4D",
"Z  c #B14B4C",
"A  c #B7494D",
"S  c #B54A4D",
"D  c #B74B4D",
"F  c #B34C4D",
"G  c #B34D4D",
"H  c #B34D4E",
"J  c #B54C4E",
"K  c #B44D4E",
"L  c #B54D4E",
"P  c #B54D4F",
"I  c #B64D4F",
"U  c #B54E4F",
"Y  c #B54E4E",
"T  c #B64E4F",
"R  c #B74E4F",
"E  c #B44D4E",
"W  c #B84A4D",
"Q  c #B84D4F",
"!  c #B64E50",
"~  c #B74F50",
"^  c #B74F50",
"/  c #B84F50",
"(  c #BB4F51",
")  c #BC4D50",
"_  c #B84F51",
"`  c #B75050",
"'  c #B95051",
"]  c #BB5051",
"[  c #BB5152",
"{  c #BC5152",
"}  c #BD5253",
"|  c #BF5455",
" . c #BB5152",
".. c #CA4643",
"X. c #CC4946",
"o. c #CC4C4A",
"O. c #C15053",
"+. c #C05455",
"@. c #C15455",
"#. c #C35556",
"$. c #C45456",
"%. c #C45657",
"&. c #C55757",
"*. c #C25556",
"=. c #CD5251",
"-. c #C55758",
";. c #C45758",
":. c #C65758",
">. c #C45758",
",. c #C65858",
"<. c #C75859",
"1. c #C65859",
"2. c #C65859",
"3. c #C85959",
"4. c #CA595A",
"5. c #CB595A",
"6. c #C95A5B",
"7. c #CB5B5B",
"8. c #CD5A5C",
"9. c #CE5A5C",
"0. c #CD5C5D",
"q. c #CD5D5D",
"w. c #CE5D5D",
"e. c #CF5D5D",
"r. c #CF5E5E",
"t. c #CC5B5C",
"y. c #D35553",
"u. c #D15E5F",
"i. c #D25F5F",
"p. c #D35E5D",
"a. c #D85E5D",
"s. c #D9605F",
"d. c #D35F60",
"f. c #D36060",
"g. c #D46060",
"h. c #D46061",
"j. c #D46161",
"k. c #D56161",
"l. c #D66161",
"z. c #D66162",
"x. c #D76162",
"c. c #D66262",
"v. c #D76262",
"b. c #D76363",
"n. c #D56161",
"m. c #D96263",
"M. c #D86363",
"N. c #D96363",
"B. c #D96464",
"V. c #DA6464",
"C. c #DB6464",
"Z. c #DB6465",
"A. c #DB6565",
"S. c #DC6465",
"D. c #DC6565",
"F. c #DD6565",
"G. c #DC6666",
"H. c #DD6666",
"J. c #DD6767",
"K. c #DD6666",
/* pixels */
"                                                                @ @ @ @                                                         ",
"                                                              @ @ @ @ @ @                                                       ",
"                                                          @ @ @ @ @ @ @ @                                                       ",
"                                                        @ @ @ @ @ @ @ @ @ @                                                     ",
"                                                      @ @ @ @ @ @ @ @ @ @ +                                                 . . ",
"                                                    @ @ @ @ @ @ @ @ @ @ @ @ @                                             . . . ",
".                                                 @ @ @ @ @ @ @ @ @ @ @ @ @ @                                           . . . . ",
". . .                                           @ @ @ @ @ @ @ @ @ @ @ @ @ @ @     @ @                                 . . . . . ",
". . . .                       @ @ @           @ @ @ @ @ @ @ @ @ @ @ @ @ @ @ @ @ @ @ @ @                             . . . . . . ",
". . . . .                   @ @ @ @ @       @ @ @ @ @ @ @ @ @ @ @ @ @ @ @ @ @ @ @ @ @ @ @                         . . . . . .   ",
". . . . . .               @ @ @ @ @ @     @ @ @ @ @ @ @ @ @ @ @ @ @ @ @ @ @ @ @ @ @ @ @ @ @                     . . . . . . .   ",
". . . . . . .           @ @ @ @ @ @ @ @ @ @ @ @ @ @ @ @ @ @ @ @ @ @ @ @ @ @ @ @ @ @ @ @ @ @ @                 . . . . . . . .   ",
". . . . . . . .         @ @ @ @ @ @ @ @ @ @ @ @ @ @ @ @ @ @ @ @ @ @ @ @ @ @ @ @ @ @ @ @ @ @ @ @             . . . . . . . . .   ",
"  . . . . . . . .       @ @ @ @ @ @ @ @ @ @ @ @ @ @ @ @ @ @ @ @ @ @ @ @ @ @ @ @ @ @ @ @ @ @ @ @ @         . . . . . . . . .     ",
"  . . . . . . . . .   @ @ @ @ @ @ @ @ @ @ @ @ @ @ @ @ @ @ @ @ @ @ @ @ @ @ @ @ @ @ @ @ @ @ @ @ @ @ @     . . . . . . . . . .     ",
"  . . . . . . . . . o + @ @ @ @ @ @ @ @ @ @ @ @ @ @ @ @ @ @ @ @ @ @ @ @ @ @ @ @ @ @ @ @ @ @ @ @ @ @ o . . . . . . . . . . .     ",
"    . . . . . . . . . o + @ @ @ @ @ @ @ @ @ @ @ @ @ @ @ @ @ @ @ @ @ @ @ @ @ @ @ @ @ @ @ @ @ @ @ @ @ + X . . . . . . . . .       ",
"    . . . . . . . . . . o + @ @ @ @ @ @ @ @ @ @ @ @ @ @ @ @ @ @ @ @ @ @ @ @ @ @ @ @ @ @ @ @ @ @ @ @ @ o . . . . . . . . .       ",
"    . . . . . . . . . . . o @ @ @ @ @ @ @ @ @ @ @ @ @ @ @ @ @ @ @ @ @ @ @ @ @ @ @ @ @ @ @ @ @ @ @ @ @ O X . . . . . . .         ",
"      . . . . . . . . . . . + @ @ @ @ @ @ @ @ @ @ @ @ @ @ @ @ @ @ @ @ @ @ @ @ @ @ @ @ @ @ @ @ @ @ @ @ + o . . . . . . .         ",
"      . . . . . . . . . . . o @ @ @ @ @ @ @ @ @ @ @ @ @ @ @ @ @ @ @ @ @ @ @ @ @ @ @ @ @ @ @ @ @ @ @ @ @ O X . . . . .           ",
"        . . . . . . . . . . X + @ @ @ @ @ @ @ @ @ @ @ @ @ @ @ @ @ @ @ @ @ @ @ @ @ @ @ @ @ @ @ @ @ @ @ @ + o . . . o             ",
"          . . . . . . . . . X @ @ @ @ @ @ @ @ @ @ @ @ @ @ @ @ @ @ @ @ @ @ @ @ @ @ @ @ @ @ @ @ @ @ @ @ @ @ O . . O 8             ",
"          . . . . . . . . . O @ @ @ @ @ @ @ @ @ @ @ @ @ @ @ @ @ @ @ @ @ @ @ @ @ @ @ @ @ @ @ @ @ @ @ @ @ @ + o % y v.            ",
"            . . . . . . . o 5 e , @ @ @ @ @ @ @ @ @ @ @ @ @ @ @ @ @ @ @ @ @ @ @ @ @ @ @ @ @ @ @ @ @ @ @ @ @ 6 | m.H.            ",
"            M - o . . . . $ b B y < @ @ @ @ @ @ @ @ @ @ @ @ @ @ @ @ @ @ @ @ @ @ @ @ @ @ @ @ @ @ @ @ @ @ @ @ r v.H.H.            ",
"            F M t 5 * * 5 M F 4.{ n 6 @ @ @ @ @ @ @ @ @ @ @ @ @ @ @ @ @ @ @ @ @ @ @ @ @ @ @ @ @ @ @ @ @ @ @ q 8.H.H.            ",
"          U U U Z M b b M U ;.v.f.$.N 6 @ @ @ @ @ @ @ @ @ @ @ @ @ @ @ @ @ @ @ @ @ @ @ @ @ @ @ @ @ @ @ @ @ @ 7 O.H.H.H.          ",
"        ! U U U U U U U U [ f.B.H.B.4.B 6 @ @ @ @ @ @ @ @ @ @ @ @ @ @ @ @ @ @ @ @ @ @ @ @ @ @ @ @ @ @ @ @ @ 6 W H.H.H.          ",
"        U U U U U U U U [ 4.H.H.H.H.H.u.S 7 , @ @ @ @ @ @ @ @ @ @ @ @ @ @ @ @ @ @ @ @ , 6 < , @ @ @ @ @ @ @ 6 ) H.H.H.          ",
"      U U U U U U U U / $.H.H.H.H.H.H.H.m.$.s 6 , @ @ @ @ @ @ @ @ @ @ , , @ @ @ @ @ , y B M q , , @ @ @ @ @ r 8.H.H.H.          ",
"    U U U U U U U U U $.v.H.H.H.H.H.H.H.H.H.f.Q s 6 # @ @ @ @ @ @ , < n q , @ @ @ , n Z U [ / N q , ; @ ; 7 S H.H.H.H.H.        ",
"    U U U U U U U U ;.v.H.H.H.H.H.H.H.H.H.H.H.B.u.+.Z n q q q q y N Z F Z M q 6 e M F { w.m.B.v.w.$.Z N S 4.B.H.H.H.H.H.        ",
"  ! U U U U U U U ,.v.H.H.H.H.H.H.H.H.H.H.H.m.4.+.,.w.4.[ U Z Z U { ;.;.;.,.+./ U +.w.v.B.H.H.H.B.B.v.v.v.B.H.H.H.,.Z M         ",
"  U F U U U U U +.f.H.H.H.H.H.H.H.B.w.U m 8 8 1 - 5 8 9 y / 4.u.u.v.v.v.v.m.m.v.v.v.B.H.H.H.H.H.H.H.H.H.H.H.B.w.M 5 * $ o       ",
"  U U U U U U ! w.B.H.H.H.H.H.H.;.M 0 - % . . . . . . o % 8 m $.B.H.H.H.H.H.H.H.H.H.H.H.H.H.H.H.H.H.H.H.H.B.,.t % . . . . .     ",
"  ! U U U U U +.v.H.H.H.H.H.f.U e % . . . . . . . . . . . . $ e +.B.H.H.H.H.H.H.H.H.H.H.H.H.H.H.H.H.H.H.B.$.t O . . . . . .     ",
"    U U U U U w.B.H.H.H.H.v.B - o . . . . . . . . . . . . . . O e $.H.H.H.H.H.H.H.H.H.H.H.H.H.H.H.H.H.H.4.y O . . . . . . .     ",
"    U U U U / v.H.H.H.H.m.+.O . . . . . . . . . . . . . . . . . $ t v.H.H.H.H.H.H.H.H.H.H.H.H.H.H.H.H.m.M % . . . . . . . .     ",
"  U U U U U [ B.H.H.H.H.w.b . . . . . . . . . . . . . X X X . . . * Z H.H.H.H.H.H.H.H.H.H.H.H.H.H.H.H.+.5 . . . X X X X X .     ",
"  U U U U U +.B.H.H.H.H.+.% . . . . . . . . . . . X & 2 2 > + . . o 5 H.H.H.H.H.H.H.H.H.H.H.H.H.H.H.H.y $ . . X 3 i f d u >     ",
"  U U U U U +.B.H.H.H.H.+.. . . . . . . . . . . & 4 d f f f a 2 O . * 4.B.H.H.H.H.H.H.H.H.H.H.H.H.H.u.1 . . O 3 f f d a d f     ",
"[ U U U U U +.B.H.H.H.H.+.. . . . . . . . . . % 4 f g d a a d a 2 X $ B v.H.H.H.H.H.H.H.H.H.H.H.H.H.[ * . . & d g p w w w a l   ",
"U U U U U U | B.H.H.H.H.$.* . . . . . . . . . 2 d g d p w w w a u & O e f.H.H.H.H.H.H.H.H.H.H.H.H.B.B % . X > f f w q q q p f   ",
"U U U U U U [ B.H.H.H.H.4.8 . . . . . . . . . u g f p q q q q p p > o - u.H.H.H.H.B.w.+.$.u.B.H.H.B.M % . X 2 l d w q q q p f   ",
"U U U U U U ! m.H.H.H.H.w.y . . . . . . . . . u l d w q q q q w p 3 . % w.H.H.H.v.+.M 9 e N 4.B.H.B.M % . X : f f w q q w p f   ",
"U U U U U U U w.B.H.H.H.v.U o . . . . . . . . u k d p q q q q w p > . % w.H.H.v.[ 8 . . . $ y 4.B.B.M % . . + u g a p w p a     ",
"/ U U U U U U ;.m.H.H.H.H.u.$ . . . . . . . . 3 d g a q q q q p 4 & . $ 8.B.m.U - . . . . . O e 4.f.b $ . . . + u f g g i 4     ",
"      ! U U U [ v.H.H.H.H.v.t O . . . . . . . + u l g d w w a d 2 . . o V [ t % . . . . . . . X O O . . . . . . X % & % O X     ",
"    U U U U U U w.B.H.H.H.B.4.= . . . . . . . . + 4 f g g g i > X . . . $ % O $ 8 Z $.9 O . . . . . . X X . . . . X X X . .     ",
"    U U U U U U +.v.H.H.H.H.B.M % . . . . . . . X O & > 3 : & X . . . . . X 5 N ,.v.H.,.8 o . . . O 3 4 & . . . . . . . . .     ",
"    / U U U U U ! w.B.H.H.H.H.w.t $ . . . . . . . . . X O X . . . X . . O 9 U u.H.H.H.H.{ y 8 1 < 4 d f u & X . . . . $ 5 e     ",
"      ! U U U U U +.f.H.H.H.H.H.| y * . . . . . . . . . . . . X & > : : q +.m.H.H.H.H.H.H.4.{ A h g l l g p 8 - - 5 e M [ 8.    ",
"        ! U U U U ! ,.m.H.H.H.H.H.8.N 5 % O . . . . . . . $ * < u f d d =.m.H.H.H.H.H.H.H.H.H.a...l l l l o.+.Z F { u.B.H.      ",
"          / U U U U [ 4.B.H.H.H.H.H.B.4.M 9 - * * % * = - y x j l l l l y.m.H.H.H.H.H.H.H.H.H.a.o.l l l v y.H.H.H.H.H.H.H.      ",
"              U U U U { 8.H.H.H.H.H.H.H.H.H.H.d.,.+.,.v.H.H.a...l l l l a.H.H.H.H.H.H.H.H.H.H.m.y.l l l o.a.H.H.H.H.H.H.H.      ",
"                ` U U U [ w.H.H.H.H.H.H.H.H.H.H.B.B.B.H.H.H.H.y.z l l l s.H.H.H.H.H.H.H.H.H.H.H.a.l l z y.H.H.H.H.H.H.H.H.      ",
"                    / U U [ 4.B.H.H.H.H.H.H.H.H.H.H.H.H.H.H.H.a.X.l l z m.H.H.H.H.H.H.H.H.H.H.H.a.z l ..a.H.H.H.H.H.H.H.H.      ",
"                          [ { ,.v.B.H.H.H.H.H.H.H.H.H.H.H.H.H.H.y.c l ..m.H.H.H.H.H.H.H.H.H.H.H.m.o.c y.m.H.H.H.H.H.H.H.        ",
"                                  H.H.H.H.H.H.H.H.H.H.H.H.H.H.H.s.y...y.m.H.H.H.H.H.H.H.H.H.H.H.H.a.y.m.H.H.H.H.                ",
"                                    H.H.H.H.H.H.H.H.H.H.H.H.H.H.H.m.y.a.H.H.H.H.H.H.H.H.H.H.H.H.H.H.H.H.H.H.H.                  ",
"                                          H.H.H.H.H.H.H.H.H.H.H.H.H.H.H.H.H.H.H.H.H.H.H.H.H.H.H.H.H.H.H.H.                      ",
"                                                H.H.H.H.H.H.H.H.H.H.H.H.H.H.H.H.H.H.H.H.H.H.H.H.H.H.H.H.                        ",
"                                                            H.H.H.H.H.H.H.H.H.H.H.H.H.H.H.                                      "
};
