/* XPM */
static char *_b4f4410d1c14ae5917e2980e1ce623ectoad5r0OBxnIJ0X[] = {
/* columns rows colors chars-per-pixel */
"246 205 112 2 ",
"   c white",
".  c #FFCFAA",
"X  c #47202E",
"o  c #7F534E",
"O  c #B5775F",
"+  c #611436",
"@  c #DA9273",
"#  c #DDE5E5",
"$  c #A82E3B",
"%  c #563140",
"&  c #8C514A",
"*  c #321E32",
"=  c #ACACB9",
"-  c #430D25",
";  c #FFF5DE",
":  c #FFFDFA",
">  c #777777",
",  c #AF6A4E",
"<  c #946154",
"1  c #B16F55",
"2  c #E3D0C9",
"3  c #A06A5B",
"4  c #D98F71",
"5  c #EDB391",
"6  c #411526",
"7  c #79666C",
"8  c #A2A2A2",
"9  c #FFD8B0",
"0  c #CCC9C8",
"q  c #87453C",
"w  c gray46",
"e  c #FFF2E8",
"r  c #370014",
"t  c #FFCCA5",
"y  c #58002F",
"u  c #54112F",
"i  c #7B4C47",
"p  c #A51E2E",
"a  c #A31327",
"s  c #C1A8A5",
"d  c #AF9896",
"f  c #BA8873",
"g  c #C8CCD2",
"h  c #D2A3A7",
"j  c #B25E65",
"k  c #E0EDEC",
"l  c #C2989B",
"z  c #E9D5D6",
"x  c #432738",
"c  c #550020",
"v  c #30001E",
"b  c #795550",
"n  c #8B2439",
"m  c #972F3C",
"M  c #503140",
"N  c #49192E",
"B  c #C4BDBF",
"V  c #2E0000",
"C  c #B2B2B2",
"Z  c #590028",
"A  c #8A5A51",
"S  c #C88569",
"D  c #C78F76",
"F  c #3C0022",
"G  c #724145",
"H  c #C7B8B6",
"J  c #C69A8A",
"K  c #9A8C91",
"L  c #D2B0A4",
"P  c #F5E2DC",
"I  c #AE8774",
"U  c #FFD6B8",
"Y  c #FFE2CD",
"T  c #A19AA8",
"R  c #DAB5B7",
"E  c #896170",
"W  c #CD7E6F",
"Q  c #88635A",
"!  c #1B001B",
"~  c #613742",
"^  c #813B32",
"/  c #C78459",
"(  c #886F7F",
")  c #5A3C48",
"_  c #EAD4C6",
"`  c #FFF9EC",
"'  c #733F38",
"]  c #939393",
"[  c #A27468",
"{  c #685058",
"}  c #AB8C87",
"|  c #BE7E63",
" . c #684444",
".. c #210014",
"X. c #190000",
"o. c #A95C3A",
"O. c #2B000D",
"+. c #9C97A8",
"@. c #9E000C",
"#. c #9A7F88",
"$. c #914352",
"%. c #BF868C",
"&. c #500015",
"*. c #4A001F",
"=. c #911529",
"-. c #5E2B2B",
";. c #16001B",
":. c #642D33",
">. c #7A291C",
",. c #857675",
"<. c #7F6562",
"1. c #656565",
/* pixels */
"                                                                                                                                                                                                                                                                                                                                                                                                                                                                                                            ",
"                                                                                                                                                                                                                                                                                                                                                                                                                                                                                                            ",
"                                                                                                                                                                                                                                                                                                                                                                                                                                                                                                            ",
"                                                                                                                                                                                                                                                                                                                                                                                                                                                                                                            ",
"                                                                                                                                                                                                                                                                                                                                                                                                                                                                                                            ",
"                                                                                                                                                                                                                                                                                                                                                                                                                                                                                                            ",
"                                                                                                                                                                                                                                                                                                                                                                                                                                                                                                            ",
"                                                                                                                                                                                                                                                                                                                                                                                                                                                                                                            ",
"                                                                                                                                                                                                                                                                                                                                                                                                                                                                                                            ",
"                                                                                                                                                                                                                                                                                                                                                                                                                                                                                                            ",
"                                                                                                                                                                                                                                                                                                                                                                                                                                                                                                            ",
"                                                                                                                                                                                                                                                                                                                                                                                                                                                                                                            ",
"                                                                                                                                                                                                                                                                                                                                                                                                                                                                                                            ",
"                                                                                                                                                                                                                                                                                                                                                                                                                                                                                                            ",
"                                                                                                                                                                                                                                                                                                                                                                                                                                                                                                            ",
"                                                                                                                                                                                                                                                                                                                                                                                                                                                                                                            ",
"                                                                                                                                                                                                                                                                                                                                                                                                                                                                                                            ",
"                                                                                                                                                                                                                                                                                                                                                                                                                                                                                                            ",
"                                                                                                                                                                                                                                                                                                                                                                                                                                                                                                            ",
"                                                                                                                                                                                                                                                                                                                                                                                                                                                                                                            ",
"                                                                                                                                                                                                                                                                                                                                                                                                                                                                                                            ",
"                                                                                                                                                                                                                                                                                                                                                                                                                                                                                                            ",
"                                                                                                                                                                                                                                                                                                                                                                                                                                                                                                            ",
"                                                                                                                                                                                                                                                                                                                                                                                                                                                                                                            ",
"                                                                                                                                                                                                                                                                                                                                                                                                                                                                                                            ",
"                                                                                                                                                                                                                                                                                                                                                                                                                                                                                                            ",
"                                                                                                                                                                                                                                                                                                                                                                                                                                                                                                            ",
"                                                                                                                                                                                                                                                                                                                                                                                                                                                                                                            ",
"                                                                                                                                                                                                                                                                                                                                                                                                                                                                                                            ",
"                                                                                                                                                                                                                                                                                                                                                                                                                                                                                                            ",
"                                                                                                                                                                                                                                                                                                                                                                                                                                                                                                            ",
"                                                                                                                                                                                                                                                                                                                                                                                                                                                                                                            ",
"                                                                                                                                                                                                                                                                                                                                                                                                                                                                                                            ",
"                                                                                                                                                                                                                                                                                                                                                                                                                                                                                                            ",
"                                                                                                                                                                                                                                                                                                                                                                                                                                                                                                            ",
"                                                                                                                                                                                                                                                                                                                                                                                                                                                                                                            ",
"                                                                                                                                                                                                                                                                                                                                                                                                                                                                                                            ",
"                                                                                                                                                                                                                                                                                                                                                                                                                                                                                                            ",
"                                                                                                                                                                                                                                                                                                                                                                                                                                                                                                            ",
"                                                                                                                                                                            H ' ' ' ' ' ' ' ' ' , , , , , , , , , , , , , , , , , , , , , , , , , , , , , , , , , , , , , , , , , , , , , , , , , , , , , , , , , J                                                                                                                                                                                         ",
"                                                                                                                                                                            H i o o o o o o o o O O O O O O O O O O O O O O O O O O O O O O O O O O O O O O O O O O O O O O O O O O O O O O O O O O O O O O O O O J                                                                                                                                                                                         ",
"                                                                                                                                                                            H i o o o o o o o o O O O O O O O O O O O O O O O O O O O O O O O O O O O O O O O O O O O O O O O O O O O O O O O O O O O O O O O O O J                                                                                                                                                                                         ",
"                                                                                                                                                                            H i o o o o o o o o O O O O O O O O O O O O O O O O O O O O O O O O O O O O O O O O O O O O O O O O O O O O O O O O O O O O O O O O O J                                                                                                                                                                                         ",
"                                                                                                                                                                            H i o o o o o o o o O O O O O O O O O O O O O O O O O O O O O O O O O O O O O O O O O O O O O O O O O O O O O O O O O O O O O O O O O J                                                                                                                                                                                         ",
"                                                                                                                                                                            H i o o o o o o o o O O O O O O O O O O O O O O O O O O O O O O O O O O O O O O O O O O O O O O O O O O O O O O O O O O O O O O O O O J                                                                                                                                                                                         ",
"                                                                                                                                                                            H i o o o o o o o o O O O O O O O O O O O O O O O O O O O O O O O O O O O O O O O O O O O O O O O O O O O O O O O O O O O O O O O O O J                                                                                                                                                                                         ",
"                                                                                                                                                                            H i o o o o o o o o O O O O O O O O O O O O O O O O O O O O O O O O O O O O O O O O O O O O O O O O O O O O O O O O O O O O O O O O O J                                                                                                                                                                                         ",
"                                                                                                                                                                            H i o o o o o o o o | O O O O O O O O O O O O O O O O O O O O O O O O O O O O O O O O O O O O O O O O O O O O O O O O O O O O O O O O J                                                                                                                                                                                         ",
"                                                                                                                                                        # K K K K K K K K K 7 ~ ~ ~ ~ ~ ~ ~ ~ ~ < < < < < < < < < < < < < < < < < < < < < < < < < < < < < < < < < < < < < < < < < < < < < < < < < < < < < < < < < [ L L L L L L L L L 2                                                                                                                                                                     ",
"                                                                                                                                                        0 V - - - - - - - - 6 X X X X X X X X X o o o o o o o o o o o o o o o o o o o o o o o o o o o o o o o o o o o o o o o o o o o o o o o o o o o o o o o o o A 1 1 1 1 1 1 1 1 , L                                                                                                                                                                     ",
"                                                                                                                                                        0 r X X X X X X X X X X X X X X X X X X o o o o o o o o o o o o o o o o o o o o o o o o o o o o o o o o o o o o o o o o o o o o o o o o o o o o o o o o o A O O O O O O O O 1 L                                                                                                                                                                     ",
"                                                                                                                                                        0 r X X X X X X X X X X X X X X X X X X o o o o o o o o o o o o o o o o o o o o o o o o o o o o o o o o o o o o o o o o o o o o o o o o o o o o o o o o o A O O O O O O O O 1 L                                                                                                                                                                     ",
"                                                                                                                                                        0 r X X X X X X X X X X X X X X X X X X o o o o o o o o o o o o o o o o o o o o o o o o o o o o o o o o o o o o o o o o o o o o o o o o o o o o o o o o o A O O O O O O O O 1 L                                                                                                                                                                     ",
"                                                                                                                                                        0 r X X X X X X X X X X X X X X X X X X o o o o o o o o o o o o o o o o o o o o o o o o o o o o o o o o o o o o o o o o o o o o o o o o o o o o o o o o o A O O O O O O O O 1 L                                                                                                                                                                     ",
"                                                                                                                                                        0 r X X X X X X X X X X X X X X X X X X o o o o o o o o o o o o o o o o o o o o o o o o o o o o o o o o o o o o o o o o o o o o o o o o o o o o o o o o o A O O O O O O O O 1 L                                                                                                                                                                     ",
"                                                                                                                                                        0 r X X X X X X X X X X X X X X X X X X o o o o o o o o o o o o o o o o o o o o o o o o o o o o o o o o o o o o o o o o o o o o o o o o o o o o o o o o o A O O O O O O O O 1 L                                                                                                                                                                     ",
"                                                                                                                                                        0 r X X X X X X X X X X X X X X X X X X o o o o o o o o o o o o o o o o o o o o o o o o o o o o o o o o o o o o o o o o o o o o o o o o o o o o o o o o o A O O O O O O O O 1 L                                                                                                                                                                     ",
"                                                                                                                                                        0 r X X X X X X X X X X X X X X X X X X o o o o o o o o o o o o o o o o o o o o o o o o o o o o o o o o o o o o o o o o o o o o o o o o o o o o o o o o o A | O O O O O O O 1 L                                                                                                                                                                     ",
"                                                                                                                                      K 7 7 7 7 7 7 7 7 { 6 X X X X X X X X X X X X X X X X X X o o o o o o o o o o o o o o o o o o o o o o o o o o o o o o o o o o o o o o o o o o o o o o o o o o o o o o o o o o A A A A A A A A A s                                                                                                                                                                     ",
"                                                                                                                                      7 - 6 6 6 6 6 6 6 6 X X X X X X X X X X X X X X X X X X X o o o o o o o o o o o o o o o o o o o o o o o o o o o o o o o o o o o o o o o o o o o o o o o o o o o o o o o o o o o o o o o o o o i s                                                                                                                                                                     ",
"                                                                                                                                      7 6 X X X X X X X X X X X X X X X X X X X X X X X X X X X o o o o o o o o o o o o o o o o o o o o o o o o o o o o o o o o o o o o o o o o o o o o o o o o o o o o o o o o o o o o o o o o o o i s                                                                                                                                                                     ",
"                                                                                                                                      7 6 X X X X X X X X X X X X X X X X X X X X X X X X X X X o o o o o o o o o o o o o o o o o o o o o o o o o o o o o o o o o o o o o o o o o o o o o o o o o o o o o o o o o o o o o o o o o o i s                                                                                                                                                                     ",
"                                                                                                                                      7 6 X X X X X X X X X X X X X X X X X X X X X X X X X X X o o o o o o o o o o o o o o o o o o o o o o o o o o o o o o o o o o o o o o o o o o o o o o o o o o o o o o o o o o o o o o o o o o i s                                                                                                                                                                     ",
"                                                                                                                                      7 6 X X X X X X X X X X X X X X X X X X X X X X X X X X X o o o o o o o o o o o o o o o o o o o o o o o o o o o o o o o o o o o o o o o o o o o o o o o o o o o o o o o o o o o o o o o o o o i s                                                                                                                                                                     ",
"                                                                                                                                      7 6 X X X X X X X X X X X X X X X X X X X X X X X X X X X o o o o o o o o o o o o o o o o o o o o o o o o o o o o o o o o o o o o o o o o o o o o o o o o o o o o o o o o o o o o o o o o o o i s                                                                                                                                                                     ",
"                                                                                                                                      7 6 X X X X X X X X X X X X X X X X X X X X X X X X X X X o o o o o o o o o o o o o o o o o o o o o o o o o o o o o o o o o o o o o o o o o o o o o o o o o o o o o o o o o o o o o o o o o o i s                                                                                                                                                                     ",
"                                                                                                                                      7 6 X X X X X X X X X X X X X X X X X X X X X X X X X X X o o o o o o o o o o o o o o o o o o o o o o o o o o o o o o o o o o o o o o o o o o o o o o o o i i i i i i i i i i i i i i i i i i ' s                                                                                                                                                                     ",
"                                                                                                                                      7 6 X X X X X X X X X X X X X X X X X X X X X X X X X X X 3 3 3 3 3 3 3 3 3 3 3 3 3 3 3 3 3 3 3 3 3 3 3 3 3 3 3 3 3 3 3 3 3 3 3 3 3 3 3 3 3 3 3 3 3 3 3 3 } d d d d d d d d d d d d d d d d d d 0                                                                                                                                                                     ",
"                                                                                                                                      7 6 X X X X X X X X X X X X X X X X X X X X X X X X X X X @ @ @ @ @ @ @ @ @ @ @ @ @ @ @ @ @ @ @ @ @ @ @ @ @ @ @ @ @ @ @ @ @ @ @ @ @ @ @ @ @ @ @ @ @ @ @ 4 P                                                                                                                                                                                                           ",
"                                                                                                                                      7 6 X X X X X X X X X X X X X X X X X X X X X X X X X X X @ @ @ @ @ @ @ @ @ @ @ @ @ @ @ @ @ @ @ @ @ @ @ @ @ @ @ @ @ @ @ @ @ @ @ @ @ @ @ @ @ @ @ @ @ @ @ 4 P                                                                                                                                                                                                           ",
"                                                                                                                                      7 6 X X X X X X X X X X X X X X X X X X X X X X X X X X X @ @ @ @ @ @ @ @ @ @ @ @ @ @ @ @ @ @ @ @ @ @ @ @ @ @ @ @ @ @ @ @ @ @ @ @ @ @ @ @ @ @ @ @ @ @ @ 4 P                                                                                                                                                                                                           ",
"                                                                                                                                      7 6 X X X X X X X X X X X X X X X X X X X X X X X X X X X @ @ @ @ @ @ @ @ @ @ @ @ @ @ @ @ @ @ @ @ @ @ @ @ @ @ @ @ @ @ @ @ @ @ @ @ @ @ @ @ @ @ @ @ @ @ @ 4 P                                                                                                                                                                                                           ",
"                                                                                                                                      7 6 X X X X X X X X X X X X X X X X X X X X X X X X X X X @ @ @ @ @ @ @ @ @ @ @ @ @ @ @ @ @ @ @ @ @ @ @ @ @ @ @ @ @ @ @ @ @ @ @ @ @ @ @ @ @ @ @ @ @ @ @ 4 P                                                                                                                                                                                                           ",
"                                                                                                                                      7 6 X X X X X X X X X X X X X X X X X X X X X X X X X X X @ @ @ @ @ @ @ @ @ @ @ @ @ @ @ @ @ @ @ @ @ @ @ @ @ @ @ @ @ @ @ @ @ @ @ @ @ @ @ @ @ @ @ @ @ @ @ 4 P                                                                                                                                                                                                           ",
"                                                                                                                                      7 6 X X X X X X X X X X X X X X X X X X X X X X X X X X X @ @ @ @ @ @ @ @ @ @ @ @ @ @ @ @ @ @ @ @ @ @ @ @ @ @ @ @ @ @ @ @ @ @ @ @ @ @ @ @ @ @ @ @ @ @ @ 4 P                                                                                                                                                                                                           ",
"                                                                                                                                      7 6 X X X X X X X X X X X X X X X X X X X X X X X X X X X @ @ @ @ @ @ @ @ @ @ @ @ @ @ @ @ @ @ @ @ @ @ @ @ @ @ @ @ @ @ @ @ @ @ @ @ @ @ @ @ @ @ @ @ @ @ @ 4 P                                                                                                                                                                                                           ",
"                                                                                                                                      7 6 X X X X X X X X X X X X X X X X X X X X X X X X X X X @ 4 4 4 4 4 4 4 4 4 4 4 4 4 4 4 4 4 4 4 4 4 4 4 4 4 4 4 4 4 4 4 4 4 4 4 4 4 4 4 4 4 4 4 4 4 4 4 P                                                                                                                                                                                                           ",
"                                                                                                                                      7 6 X X X X X X X X X X X X X X X X X X X X X X X X X X X 5 5 5 5 5 5 5 5 5 5 5 5 5 5 5 5 5 5 5 5 5 5 5 5 5 5 5 5 5 5 5 5 5 5 5 5 5 5 5 5 5 5 5 5 5 5 5 5 e                                                                                                                                                                                                           ",
"                                                                                                                                      7 6 X X X X X X X X X X X X X X X X X X X X X X X X X X X 9 . . . . . . . . . . . . . . . . . . . . . . . . . . . . . . . . . . . . . . . . . . . . . . t e                                                                                                                                                                                                           ",
"                                                                                                                                      7 6 X X X X X X X X X X X X X X X X X X X X X X X X X X X 9 . . . . . . . . . . . . . . . . . . . . . . . . . . . . . . . . . . . . . . . . . . . . . . t e                                                                                                                                                                                                           ",
"                                                                                                                                      7 6 X X X X X X X X X X X X X X X X X X X X X X X X X X X 9 . . . . . . . . . . . . . . . . . . . . . . . . . . . . . . . . . . . . . . . . . . . . . . t e                                                                                                                                                                                                           ",
"                                                                                                                                      7 6 X X X X X X X X X X X X X X X X X X X X X X X X X X X 9 . . . . . . . . . . . . . . . . . . . . . . . . . . . . . . . . . . . . . . . . . . . . . . t e                                                                                                                                                                                                           ",
"                                                                                                                                      7 6 X X X X X X X X X X X X X X X X X X X X X X X X X X X 9 . . . . . . . . . . . . . . . . . . . . . . . . . . . . . . . . . . . . . . . . . . . . . . t e                                                                                                                                                                                                           ",
"                                                                                                                                      7 6 X X X X X X X X X X X X X X X X X X X X X X X X X X X 9 . . . . . . . . . . . . . . . . . . . . . . . . . . . . . . . . . . . . . . . . . . . . . . t e                                                                                                                                                                                                           ",
"                                                                                                                                      7 6 X X X X X X X X X X X X X X X X X X X X X X X X X X X 9 . . . . . . . . . . . . . . . . . . . . . . . . . . . . . . . . . . . . . . . . . . . . . . t e                                                                                                                                                                                                           ",
"                                                                                                                                      7 6 X X X X X X X X X X X X X X X X X X X X X X X X X X X 9 . . . . . . . . . . . . . . . . . . . . . . . . . . . . . . . . . . . . . . . . . . . . . . t e                                                                                                                                                                                                           ",
"                                                                                                                                      7 6 X X X X X X X X X X X X X X X X X X X X X X X X X X X 9 . . . . . . . . . . . . . . . . . . . . . . . . . . . . . . . . . . . . . . . . . . . . . . t e                                                                                                                                                                                                           ",
"                                                                                                                                      7 6 X X X X X X X X X X X X X X X X 6 A | | | | | | | | | ..v v v v v v v v  .9 . . . . . . . . . . . . . . . . . . . . . . . . . . 9 I ..v v v v v v v X.0                                     2 o., , , , , , , o.                                                                                                                                                  ",
"                                                                                                                                      7 6 X X X X X X X X X X X X X X X X 6 A O O O O O O O O O 6 X X X X X X X 6 b 9 . . . . . . . . . . . . . . . . . . . . . . . . . . 9 I 6 X X X X X X X r 0                                     2 1 O O O O O O O ,                                                                                                                                                   ",
"                                                                                                                                      7 6 X X X X X X X X X X X X X X X X 6 A O O O O O O O O O 6 X X X X X X X 6 b 9 . . . . . . . . . . . . . . . . . . . . . . . . . . 9 I 6 X X X X X X X r 0                                     2 1 O O O O O O O ,                                                                                                                                                   ",
"                                                                                                                                      7 6 X X X X X X X X X X X X X X X X 6 A O O O O O O O O O 6 X X X X X X X 6 b 9 . . . . . . . . . . . . . . . . . . . . . . . . . . 9 I 6 X X X X X X X r 0                                     2 1 O O O O O O O ,                                                                                                                                                   ",
"                                                                                                                                      7 6 X X X X X X X X X X X X X X X X 6 A O O O O O O O O O 6 X X X X X X X 6 b 9 . . . . . . . . . . . . . . . . . . . . . . . . . . 9 I 6 X X X X X X X r 0                                     2 1 O O O O O O O ,                                                                                                                                                   ",
"                                                                                                                                      7 6 X X X X X X X X X X X X X X X X 6 A O O O O O O O O O 6 X X X X X X X 6 b 9 . . . . . . . . . . . . . . . . . . . . . . . . . . 9 I 6 X X X X X X X r 0                                     2 1 O O O O O O O ,                                                                                                                                                   ",
"                                                                                                                                      7 6 X X X X X X X X X X X X X X X X 6 A O O O O O O O O O 6 X X X X X X X 6 b 9 . . . . . . . . . . . . . . . . . . . . . . . . . . 9 I 6 X X X X X X X r 0                                     2 1 O O O O O O O ,                                                                                                                                                   ",
"                                                                                                                                      7 6 X X X X X X X X X X X X X X X X 6 A O O O O O O O O O 6 X X X X X X X 6 b 9 . . . . . . . . . . . . . . . . . . . . . . . . . . 9 I 6 X X X X X X X r 0                                     2 1 O O O O O O O ,                                                                                                                                                   ",
"                                                                                                                                      7 - 6 6 6 6 6 6 6 6 X X X X X X X X 6 A O O O O O O O O O v 6 6 6 6 6 6 6 6 b 9 . . . . . . . . . . . . . . . . . . . . . . . . . . 9 I v 6 6 6 6 6 6 6 O.0                                     2 1 O O O O O O O ,                                                                                                                                                   ",
"                                                                                                                                      K 7 7 7 7 7 7 7 7 { 6 X X X X X X X 6 A | | | | | | | | | b b b b b b b b b [ 9 . . . . . . . . . . . . . . . . . . . . . . . . . . . J b b b b b b b b i z                                     2 1 O O O O O O O ,                                                                                                                                                   ",
"                                                                                                                                                        0 r X X X X X X X 6 3 @ @ @ @ @ @ @ @ @ 9 9 9 9 9 9 9 9 9 9 . . . . . . . . . . . . . . . . . . . . . . . . . . . . . 9 9 9 9 9 9 9 9 9 e                                     2 1 O O O O O O O ,                                                                                                                                                   ",
"                                                                                                                                                        0 r X X X X X X X 6 < @ @ @ @ @ @ @ @ @ . . . . . . . . . . . . . . . . . . . . . . . . . . . . . . . . . . . . . . . . . . . . . . . t e                                     2 1 O O O O O O O ,                                                                                                                                                   ",
"                                                                                                                                                        0 r X X X X X X X 6 < @ @ @ @ @ @ @ @ @ . . . . . . . . . . . . . . . . . . . . . . . . . . . . . . . . . . . . . . . . . . . . . . . t e                                     2 1 O O O O O O O ,                                                                                                                                                   ",
"                                                                                                                                                        0 r X X X X X X X 6 < @ @ @ @ @ @ @ @ @ . . . . . . . . . . . . . . . . . . . . . . . . . . . . . . . . . . . . . . . . . . . . . . . t e                                     2 1 O O O O O O O ,                                                                                                                                                   ",
"                                                                                                                                                        0 r X X X X X X X 6 < @ @ @ @ @ @ @ @ @ . . . . . . . . . . . . . . . . . . . . . . . . . . . . . . . . . . . . . . . . . . . . . . . t e                                     2 1 O O O O O O O ,                           : : : : : : : : : :                                                                                                     ",
"                                                                                                                                                        0 r X X X X X X X 6 < @ @ @ @ @ @ @ @ @ . . . . . . . . . . . . . . . . . . . . . . . . . . . . . . . . . . . . . . . . . . . . . . . t e                                     2 1 O O O O O O O ,                           : : : : : : : : : :                                                                                                     ",
"                                                                                                                                                        0 r X X X X X X X 6 < @ @ @ @ @ @ @ @ @ . . . . . . . . . . . . . . . . . . . . . . . . . . . . . . . . . . . . . . . . . . . . . . . t e                                     2 1 O O O O O O O ,                           : : : : : : : : : :                                                                                                     ",
"                                                                                                                                                        0 r X X X X X X X 6 < @ @ @ @ @ @ @ @ @ . . . . . . . . . . . . . . . . . . . . . . . . . . . . . . . . . . . . . . . . . . . . . . . t e                                     2 1 O O O O O O O ,                           : : : : : : : : : :                                                                                                     ",
"                                                                                                                                                        0 O.6 6 6 6 6 6 6 v < @ @ @ @ @ @ @ @ @ . . . . . . . . . . . . . . . . . . . . . . . . . . . . . . . . . . . . . . . . . . . . . . . t e                                     2 1 O O O O O O O ,                           : : : : :                                                                                                               ",
"                                                                                                                  Y U U U U U U U U U :                 z , 3 3 3 3 3 3 3 3 | @ @ @ @ @ @ @ @ @ . . . . . . . . . . . . . . . . . . . . . . . . . . . . . . . . . . . . . . . . . . . . . . . t e                                     2 1 O O O O O O O ,                           : : : :   _ _ _ _ _ _ 2 2 2 2 2 2 2 2 2 2 2 2 2 2 2 2 2 2 2 2 2 P P P P P :                                             ",
"                                                                                                                  Y t . . . . . . . t e                 P 1 O O O O O O O O S @ @ @ @ @ @ @ @ @ . . . . . . . . . . . . . . . . . . . . . . . . . . . . . . . . . . . . . . . . . . . . . . . t e                                     2 1 O O O O O O O ,                                     / / / / / / / / / / S f f f f f f f f f f D D D D D D J J J J f P                                             ",
"                                                                                                                  Y t . . . . . . . t e                 P 1 O O O O O O O O S @ @ @ @ @ @ @ @ @ . . . . . . . . . . . . . . . . . . . . . . . . . . . . . . . . . . . . . . . . . . . . . . . t e                                     2 1 O O O O O O O ,                                     / / / / / / S S S S S f f f f f f f f f f D D D D D D J J J J J e                                             ",
"                                                                                                                  Y t . . . . . . . t e                 P 1 O O O O O O O O S @ @ @ @ @ @ @ @ @ . . . . . . . . . . . . . . . . . . . . . . . . . . . . . . . . . . . . . . . . . . . . . . . t e                                     2 1 O O O O O O O ,                                     / / / / / / S S S S S f f f f f f f f f f D D D D D D J J J J J e                                             ",
"                                                                                                                  Y t . . . . . . . t e                 P 1 O O O O O O O O S @ @ @ @ @ @ @ @ @ . . . . . . . . . . . . . . . . . . . . . . . . . . . . . . . . . . . . . . . . . . . . . . . t e                                     2 1 O O O O O O O ,                                     / / / / / / S S S S S f f f f f f f f f f D D D D D D J J J J J e                                             ",
"                                                                                                                  Y t . . . . . . . t e                 P 1 O O O O O O O O S @ @ @ @ @ @ @ @ @ . . . . . . . . . . . . . . . . . . . . . . . . . . . . . . . . . . . . . . . . . . . . . . . t e                                     2 1 O O O O O O O ,                                     / / / / / / S S S S S f f f f f f f f f f D D D D D D J J J J J e                                             ",
"                                                                                                                  Y t . . . . . . . t e                 P 1 O O O O O O O O S @ @ @ @ @ @ @ @ @ . . . . . . . . . . . . . . . . . . . . . . . . . . . . . . . . . . . . . . . . . . . . . . . t e                                     2 1 O O O O O O O ,                           : : : : :                                                                                                               ",
"                                                                                                                  Y t . . . . . . . t e                 P 1 O O O O O O O O S @ @ @ @ @ @ @ @ @ . . . . . . . . . . . . . . . . . . . . . . . . . . . . . . . . . . . . . . . . . . . . . . . t e                                     2 1 O O O O O O O ,                           : : : : : : : : : :                                                                                                     ",
"                                                                                                                  Y t . . . . . . . t e                 P 1 O O O O O O O O S @ @ @ @ @ @ @ @ @ . . . . . . . . . . . . . . . . . . . . . . . . . . . . . . . . . . . . . . . . . . . . . . . t e                                     2 1 O O O O O O O ,                           : : : : : : : : : :                                                                                                     ",
"                                                                                                                  Y 9 9 9 9 9 9 9 9 9 `                 P 1 | | | | | | | | S @ @ @ @ @ @ @ @ @ 9 9 9 9 9 9 9 9 9 9 9 9 9 9 9 9 9 9 9 9 . . . . . . . . . . . . . . . . . . 9 9 9 9 9 9 9 9 9 9 e                                     2 1 | | | | | | | ,                           : : : : : : : : : :                                                                                                     ",
"                                                                                                                  %.a p p p p p p p a z                 0 V F F F F F F F F F F F F F F F F F F y y y y y y y y y y y y y y y y y y c +.= = = = = = = = = = = = = = = = = = ( Z y y y y y y y &.0                                     B r 6 6 6 6 6 6 6 V                           : : : : : : : : : :                                                                                                     ",
"                                                                                                                  l p $ $ $ $ $ $ $ a z                 0 V - - - - - - - - - - - - - - - - - - + + + + + + + + + + + + + + + + + + Z T = = = = = = = = = = = = = = = = = = ( y + + + + + + + c 0                                     B r X X X X X X X V                                                                                                                                                   ",
"                                                                                                                  l p $ $ $ $ $ $ $ a z                 0 V - - - - - - - - - - - - - - - - - - + + + + + + + + + + + + + + + + + + Z T = = = = = = = = = = = = = = = = = = ( Z + + + + + + + c 0                                     B r X X X X X X X V                                                                                                                                                   ",
"                                                                                                                  l p $ $ $ $ $ $ $ a z                 0 V - - - - - - - - - - - - - - - - - - + + + + + + + + + + + + + + + + + + Z T = = = = = = = = = = = = = = = = = = ( Z + + + + + + + c 0                                     B r X X X X X X X V                                                                                                                                                   ",
"                                                                                                                  l p $ $ $ $ $ $ $ a z                 0 V - - - - - - - - - - - - - - - - - - + + + + + + + + + + + + + + + + + + Z T = = = = = = = = = = = = = = = = = = ( Z + + + + + + + c 0                                     B r X X X X X X X V                                                                                                                                                   ",
"                                                                                                                  l p $ $ $ $ $ $ $ a z                 0 V - - - - - - - - - - - - - - - - - - + + + + + + + + + + + + + + + + + + Z T = = = = = = = = = = = = = = = = = = ( Z + + + + + + + c 0                                     B r X X X X X X X V                                                                                                                                                   ",
"                                                                                                                  l p $ $ $ $ $ $ $ a z                 0 V - - - - - - - - - - - - - - - - - - + + + + + + + + + + + + + + + + + + Z T = = = = = = = = = = = = = = = = = = ( Z + + + + + + + c 0                                     B r X X X X X X X V                                                                                                                                                   ",
"                                                                                                                  l p $ $ $ $ $ $ $ a z                 0 V - - - - - - - - - - - - - - - - - - + + + + + + + + + + + + + + + + + + Z T = = = = = = = = = = = = = = = = = = ( Z + + + + + + + c 0                                     B r X X X X X X X V                                                                                                                                                   ",
"                                                                                                                  %.a p p p p p p p @.P                 0 V - - - - - - - - - - - - - - - - - - + + + + + + + + + + Z Z Z Z Z Z Z Z &.T = = = = = = = = = = = = = = = = = = ( y + + + + + + + c 0                                     B O.- - - - - - - X.                                                                                                                                                  ",
"                                                                                                                  z R R R R R R R R R s d d d d d d d d #.*.u u u u u u u u u u u u u u u u u u n n n n n n n n n $.8 T T T T T T T T g g g g g g g g g g g g g g g g g g g #.n n n n n n n n n %.h h h h h h h h h h h h h h h h h h l I I I I I I I I f                                                                                                                                                   ",
"                                                                                                                                      E c Z Z Z Z Z Z Z Z + + + + + + + + + + + + + + + + + + + $ $ $ $ $ $ $ $ $ j k k k k k k k k k # # # # # # # # # # # # # # # # # # k l p $ $ $ $ $ $ $ $ p p p p p p p p p p p p p p p p p p a W 9 . . . . . . . t                                                                                                                                                   ",
"                                                                                                                                      E y + + + + + + + + + + + + + + + + + + + + + + + + + + + $ $ $ $ $ $ $ $ $ j k # # # # # # # # # # # # # # # # # # # # # # # # # # k l p $ $ $ $ $ $ $ $ $ $ $ $ $ $ $ $ $ $ $ $ $ $ $ $ $ $ $ W 9 . . . . . . . t                                                                                                                                                   ",
"                                                                                                                                      E y + + + + + + + + + + + + + + + + + + + + + + + + + + + $ $ $ $ $ $ $ $ $ j k # # # # # # # # # # # # # # # # # # # # # # # # # # k l p $ $ $ $ $ $ $ $ $ $ $ $ $ $ $ $ $ $ $ $ $ $ $ $ $ $ $ W 9 . . . . . . . t                                                                                                                                                   ",
"                                                                                                                                      E y + + + + + + + + + + + + + + + + + + + + + + + + + + + $ $ $ $ $ $ $ $ $ j k # # # # # # # # # # # # # # # # # # # # # # # # # # k l p $ $ $ $ $ $ $ $ $ $ $ $ $ $ $ $ $ $ $ $ $ $ $ $ $ $ $ W 9 . . . . . . . t                                                                                                                                                   ",
"                                                                                                                                      E y + + + + + + + + + + + + + + + + + + + + + + + + + + + $ $ $ $ $ $ $ $ $ j k # # # # # # # # # # # # # # # # # # # # # # # # # # k l p $ $ $ $ $ $ $ $ $ $ $ $ $ $ $ $ $ $ $ $ $ $ $ $ $ $ $ W 9 . . . . . . . t                                                                                                                                                   ",
"                                                                                                                                      E y + + + + + + + + + + + + + + + + + + + + + + + + + + + $ $ $ $ $ $ $ $ $ j k # # # # # # # # # # # # # # # # # # # # # # # # # # k l p $ $ $ $ $ $ $ $ $ $ $ $ $ $ $ $ $ $ $ $ $ $ $ $ $ $ $ W 9 . . . . . . . t                                                                                                                                                   ",
"                                                                                                                                      E y + + + + + + + + + + + + + + + + + + + + + + + + + + + $ $ $ $ $ $ $ $ $ j k # # # # # # # # # # # # # # # # # # # # # # # # # # k l p $ $ $ $ $ $ $ $ $ $ $ $ $ $ $ $ $ $ $ $ $ $ $ $ $ $ $ W 9 . . . . . . . t                                                                                                                                                   ",
"                                                                                                                                      E y + + + + + + + + + + + + + + + + + + + + + + + + + + + $ $ $ $ $ $ $ $ $ j k # # # # # # # # # # # # # # # # # # # # # # # # # # k l p $ $ $ $ $ $ $ $ $ $ $ $ $ $ $ $ $ $ $ $ $ $ $ $ $ $ $ W 9 . . . . . . . t                                                                                                                                                   ",
"                                                                                                                                      E &.c c c c c c c Z + + + + + + + + + + + + + + + + + + + $ $ $ $ $ $ $ $ $ j k # # # # # # # # # # # # # # # # # # # # # # # # # # k l p $ $ $ $ $ $ $ $ p a a a a a a a a a a a a a a a a a a W 9 9 9 9 9 9 9 9 .                                                                                                                                                   ",
"                                                                                                                                      z z z z z z z z z s Z + + + + + + + + + + + + + + + + + + $ $ $ $ $ $ $ $ $ j k # # # # # # # # # # # # # # # # # # # # # # # # # # k l p $ $ $ $ $ $ $ p R z z z z z z z z z z z z z z z z z z s Q Q Q Q Q Q Q Q o                                                                                                                                                   ",
"                                                                                                                                                        0 c + + + + + + + + + + + + + + + + + + $ $ $ $ $ $ $ $ $ j k # # # # # # # # # # # # # # # # # # # # # # # # # # k l p $ $ $ $ $ $ $ a z                                     B r 6 6 6 6 6 6 6 O.                                                                                                                                                  ",
"                                                                                                                                                        0 c + + + + + + + + + + + + + + + + + + $ $ $ $ $ $ $ $ $ j k # # # # # # # # # # # # # # # # # # # # # # # # # # k l p $ $ $ $ $ $ $ a z                                     B r X X X X X X X V                                                                                                                                                   ",
"                                                                                                                                                        0 c + + + + + + + + + + + + + + + + + + $ $ $ $ $ $ $ $ $ j k # # # # # # # # # # # # # # # # # # # # # # # # # # k l p $ $ $ $ $ $ $ a z                                     B r X X X X X X X V                                                                                                                                                   ",
"                                                                                                                                                        0 c + + + + + + + + + + + + + + + + + + $ $ $ $ $ $ $ $ $ j k # # # # # # # # # # # # # # # # # # # # # # # # # # k l p $ $ $ $ $ $ $ a z                                     B r X X X X X X X V                                                                                                                                                   ",
"                                                                        ` ; ; ; ;                                                                       0 c + + + + + + + + + + + + + + + + + + $ $ $ $ $ $ $ $ $ j k # # # # # # # # # # # # # # # # # # # # # # # # # # k l p $ $ $ $ $ $ $ a z                                     B r X X X X X X X V                                                                                                                                                   ",
"                                                                        ; ; ; ; ;                                                                       0 c + + + + + + + + + + + + + + + + + + $ $ $ $ $ $ $ $ $ j k # # # # # # # # # # # # # # # # # # # # # # # # # # k l p $ $ $ $ $ $ $ a z                                     B r X X X X X X X V                                                                                                                                                   ",
"                                                                    : : ; ; ; ; ; : : :                                                                 0 c + + + + + + + + + + + + + + + + + + $ $ $ $ $ $ $ $ $ j k # # # # # # # # # # # # # # # # # # # # # # # # # # k l p $ $ $ $ $ $ $ a z                                     B r X X X X X X X V                                                                                                                                                   ",
"                                                                  : ; ; ; ; ; ; ; ; ; `                                                                 0 c + + + + + + + + + + + + + + + + + + $ $ $ $ $ $ $ $ $ j k # # # # # # # # # # # # # # # # # # # # # # # # # # k l p $ $ $ $ $ $ $ a z                                     B r X X X X X X X V                                                                                                                                                   ",
"                                                                  : ; ; ; ; ; ; ; ; ; `                                                                 0 *.u u u u u u u u u u u u u u u u u u m m m m m m m m m j 0 0 0 0 0 0 0 0 0 0 0 0 0 0 0 0 0 0 0 0 0 0 0 0 0 0 0 0 } m m m m m m m m =.z                                     B -.G G G G G G G -.                                                                                                                                                  ",
"                                                                  : ; ; ; ; ; ; ; ; ; `                                                                 0 ;.* * * * * * * * * * * * * * * * * * M M M M M M M M M ~ q q q q q q q q q q q q q q q q q q q q q q q q q q q q G M M M M M M M M N 0                                     2 1 | | | | | | | ,                                                                                                                                                   ",
"                                                                  : ; ; ; ; ; ; ; ; ; `                                                                 0 ! * * * * * * * * * * * * * * * * * * % % % % % % % % % ~ & & & & & & & & & & & & & & & & & & & & & & & & & & & & G % % % % % % % % N 0                                     2 1 O O O O O O O ,                                                                                                                                                   ",
"                                                                  : ` ` ; ; ; ; ; ` ` `                                                                 0 ! * * * * * * * * * * * * * * * * * * % % % % % % % % % ~ & & & & & & & & & & & & & & & & & & & & & & & & & & & & G % % % % % % % % N 0                                     2 1 O O O O O O O ,                                                                                                                                                   ",
"                                                                        ; ; ; ; ;                                     : ; ; ; ; ;                       0 ! * * * * * * * * * * * * * * * * * * % % % % % % % % % ~ & & & & & & & & & & & & & & & & & & & & & & & & & & & & G % % % % % % % % N 0                                     2 1 O O O O O O O ,                                                                                                                                                   ",
"                                                                        ; ; ; ; ;                                       ; ; ; ; ;                       0 ! * * * * * * * * * * * * * * * * * * % % % % % % % % % ~ & & & & & & & & & & & & & & & & & & & & & & & & & & & & G % % % % % % % % N 0                                     2 1 O O O O O O O ,                                                                                                                                                   ",
"                                                                                                                  : ` ` ; ; ; ; ; ` ` :                 0 ! * * * * * * * * * * * * * * * * * * % % % % % % % % % ~ & & & & & & & & & & & & & & & & & & & & & & & & & & & & G % % % % % % % % N 0                                     2 1 O O O O O O O ,                                                                                                                                                   ",
"                                                                                                                  ` ; ; ; ; ; ; ; ; ; `                 0 ! * * * * * * * * * * * * * * * * * * % % % % % % % % % ~ & & & & & & & & & & & & & & & & & & & & & & & & & & & & G % % % % % % % % N 0                                     2 1 O O O O O O O ,                                                                                                                                                   ",
"                                                                                                                  : ; ; ; ; ; ; ; ; ; `                 0 ! * * * * * * * * * * * * * * * * * * % % % % % % % % % ~ & & & & & & & & & & & & & & & & & & & & & & & & & & & & G % % % % % % % % N 0                                     2 1 O O O O O O O ,                                                                                                                                                   ",
"                                                                                                                  : ; ; ; ; ; ; ; ; ; `                 0 ! * * * * * * * * * * * * * * * * * * X X X X X X X X X ~ q q q q q q q q q q q q q q q q q q q & & & & & & & & & G % % % % % % % % N 0                                     2 1 O O O O O O O ,                                                                                                                                                   ",
"                                                                                                                  ` ; ; ; ; ; ; ; ; ; `                 0 v x x x x x x x x x x x x x x x x x x 8 T T T T T T T 8 d s s s s s s s s s s s s s s s s s s s G G G G G G G G G G G G G G G G G G :.0                                     2 1 O O O O O O O ,                                                                                                                                                   ",
"                                                                                                                  : : ` ; ; ; ; ; : ` :                 0 N % % % % % % % % % % % % % % % % % %                                                           % % % % % % % % M G & & & & & & & & q z                                     2 1 O O O O O O O ,                                                                                                                                                   ",
"                                                                                                                        ; ; ; ; ;                       0 N % % % % % % % % % % % % % % % % % %                                                           % % % % % % % % % G & & & & & & & & q z                                     2 1 O O O O O O O ,                                                                                                                                                   ",
"                                                                                                                      : ; ; ; ; `                       0 N % % % % % % % % % % % % % % % % % %                                                           % % % % % % % % % G & & & & & & & & q z                                     2 1 O O O O O O O ,                                                                                                                                                   ",
"                                                                                                                                                        0 N % % % % % % % % % % % % % % % % % %                                                           % % % % % % % % % G & & & & & & & & q z                                     2 1 O O O O O O O ,                                                                                                                                                   ",
"                                                                                            ` ` ` ` `                                                   0 N % % % % % % % % % % % % % % % % % %                                                           % % % % % % % % % G & & & & & & & & q z                                     2 1 O O O O O O O ,                                                                                                                                                   ",
"                                                                                            ; ; ; ; ;                                                   0 N % % % % % % % % % % % % % % % % % %                                                           % % % % % % % % % G & & & & & & & & q z                                     2 1 O O O O O O O ,                                                                                                                                                   ",
"                                                                                            ; ; ; ; ;                                                   0 N % % % % % % % % % % % % % % % % % %                                                           % % % % % % % % % G & & & & & & & & q z                                     2 1 O O O O O O O ,                                                                                                                                                   ",
"                                                                                      : ; ; ; ; ; ; ; ; ; `                                             0 N % % % % % % % % % % % % % % % % % %                                                           % % % % % % % % % G & & & & & & & & q z                                     2 1 O O O O O O O ,                                                                                                                                                   ",
"                                                                                      : ; ; ; ; ; ; ; ; ; `                                             0 N M M M M M M M M N F F F F F F F F F                                                           % % % % % % % % % :.^ ^ ^ ^ ^ ^ ^ ^ >.z                                     2 1 O O O O O O O ,                                                                                                                                                   ",
"                                                                                      : ; ; ; ; ; ; ; ; ; `                                             z q & & & & & & & q H                                                                             % % % % % % % % N B                                                         2 1 O O O O O O O ,                                                                                                                                                   ",
"                                                                                      : ; ; ; ; ; ; ; ; ; `                                             z q & & & & & & & q H                                                                             % % % % % % % % N C                                                         2 1 O O O O O O O ,                                                                                                                                                   ",
"                                                                                      : ; ; ; ; ; ; ; ; ; `                                             z q & & & & & & & q H                                                                             % % % % % % % % N C                                                         2 1 O O O O O O O ,                                                                                                                                                   ",
"                                                                                            ; ; ; ; ;                                                   z q & & & & & & & q H                                                                             % % % % % % % % N C                                                         2 1 O O O O O O O ,                                                                                                                                                   ",
"                                                                                            ; ; ; ; ;                                                   z q & & & & & & & q H                                                                             % % % % % % % % N C                                                         2 1 O O O O O O O ,                                                                                                                                                   ",
"                                                                                            : : : : :                                                   z q & & & & & & & q H                                                                             % % % % % % % % N C                                                         2 1 O O O O O O O ,                                                                                                                                                   ",
"                                                                                                                                                        z q & & & & & & & q H                                                                             % % % % % % % % N C                                                         2 1 O O O O O O O ,                                                                                                                                                   ",
"                                                                                                                                                        z q & & & & & & & q H                                                                             % % % % % % % % N B                                                         2 1 O O O O O O O ,                                                                                                                                                   ",
"                                                                                                                                                        z q & & & & & & & q s # 0 0 0 0 0 0 0 B C C C C C C 8 8 8 8 8 8 8 8 8 8 8 8 8 8 8 8 8 8 8 8 8 8 8 % % % % % % % % % ,.8 8 8 8 8 8 8 8 8 8 8 8 8 8 8 C C C C C C C 0 0 0 0 0 g s 1 O O O O O O O ,                                                                                                                                                   ",
"                                                                                                                                  : # 0 0 B C C 8 ] ] > ,.& A A A A A A A & <.w w w w w w w w w > > > > > > > > > > > > > > > > > > > > > > > > > > > > > ) ) ) ) ) ) ) ) ) 7 > > > > > > > > > > > > > > > > > > > > > > w w w w w w ,.O O O O O O O O O w w > > ] ] 8 8 C C 0 0 # #                                                                                                                       ",
"                                                                                                                              : 8 w 1.1.1.w w w w w > > > > > > > > > > > > > > > > > > > > > > > > > > > > > > > > > > > > > > > > > > > > > > > > > > > > > > > > > > > > > > > > > > > > > > > > > > > > > > > > > > > > > > > > > > > > > > > > > > > > > > > > > w w w w w 1.1.1.] 0                                                                                                                   ",
"                                                                                                                                    : # 0 0 C C 8 8 ] ] > > > > > > > > > > w w w w w w w w w w w w w w w w > > > > > > > > > > > > > > > > > > > > > > > > > > > > > > > > > > > > > > > > > > > > > > > > w w w w w w w w w w w w w w w w > > > w > > > > > > > ] ] 8 C C B 0 0 #                                                                                                                         ",
"                                                                                                                                                              : : : # # # # # # # 0 0 0 0 0 0 B B B B B B B C C C C C C 8 8 8 8 8 8 8 8 8 8 8 8 8 8 8 8 8 8 8 8 8 8 8 8 8 8 8 8 8 8 8 8 8 8 8 8 8 C C C C C B B B B B B B B 0 0 0 0 0 # # # # # # # k : :                                                                                                                                                   ",
"                                                                                                                                                                                                                                                                                                                                                                                                                                                                                                            ",
"                                                                                                                                                                                                                                                                                                                                                                                                                                                                                                            ",
"                                                                                                                                                                                                                                                                                                                                                                                                                                                                                                            ",
"                                                                                                                                                                                                                                                                                                                                                                                                                                                                                                            ",
"                                                                                                                                                                                                                                                                                                                                                                                                                                                                                                            ",
"                                                                                                                                                                                                                                                                                                                                                                                                                                                                                                            ",
"                                                                                                                                                                                                                                                                                                                                                                                                                                                                                                            ",
"                                                                                                                                                                                                                                                                                                                                                                                                                                                                                                            ",
"                                                                                                                                                                                                                                                                                                                                                                                                                                                                                                            ",
"                                                                                                                                                                                                                                                                                                                                                                                                                                                                                                            ",
"                                                                                                                                                                                                                                                                                                                                                                                                                                                                                                            ",
"                                                                                                                                                                                                                                                                                                                                                                                                                                                                                                            ",
"                                                                                                                                                                                                                                                                                                                                                                                                                                                                                                            ",
"                                                                                                                                                                                                                                                                                                                                                                                                                                                                                                            ",
"                                                                                                                                                                                                                                                                                                                                                                                                                                                                                                            ",
"                                                                                                                                                                                                                                                                                                                                                                                                                                                                                                            ",
"                                                                                                                                                                                                                                                                                                                                                                                                                                                                                                            ",
"                                                                                                                                                                                                                                                                                                                                                                                                                                                                                                            ",
"                                                                                                                                                                                                                                                                                                                                                                                                                                                                                                            ",
"                                                                                                                                                                                                                                                                                                                                                                                                                                                                                                            ",
"                                                                                                                                                                                                                                                                                                                                                                                                                                                                                                            ",
"                                                                                                                                                                                                                                                                                                                                                                                                                                                                                                            ",
"                                                                                                                                                                                                                                                                                                                                                                                                                                                                                                            ",
"                                                                                                                                                                                                                                                                                                                                                                                                                                                                                                            ",
"                                                                                                                                                                                                                                                                                                                                                                                                                                                                                                            ",
"                                                                                                                                                                                                                                                                                                                                                                                                                                                                                                            ",
"                                                                                                                                                                                                                                                                                                                                                                                                                                                                                                            ",
"                                                                                                                                                                                                                                                                                                                                                                                                                                                                                                            "
};
