/* XPM */
static char *a184a480571e4935cbfac1ecf83f6b79ca4VddoNkKWY5ApN[] = {
/* columns rows colors chars-per-pixel */
"64 64 154 2 ",
"   c None",
".  c #6F5951",
"X  c #745D55",
"o  c #766057",
"O  c #776159",
"+  c #7C655C",
"@  c #7E685F",
"#  c #7F6860",
"$  c #81675C",
"%  c #83695D",
"&  c #826B62",
"*  c #886F63",
"=  c #877067",
"-  c #897066",
";  c #897166",
":  c #887067",
">  c #887167",
",  c #8A7166",
"<  c #8B7266",
"1  c #8B7267",
"2  c #8A7165",
"3  c #8C7266",
"4  c #8C7267",
"5  c #8C7367",
"6  c #8D7367",
"7  c #897166",
"8  c #877168",
"9  c #877068",
"0  c #887168",
"q  c #897268",
"w  c #897269",
"e  c #8A7268",
"r  c #8A7369",
"t  c #8A736A",
"y  c #8B736A",
"u  c #8C736A",
"i  c #8B7469",
"p  c #8A746A",
"a  c #8B746A",
"s  c #8B746B",
"d  c #8D7468",
"f  c #8D7469",
"g  c #8E7468",
"h  c #8E7469",
"j  c #8E7569",
"k  c #8D746A",
"l  c #8C756A",
"z  c #8D756A",
"x  c #8C746B",
"c  c #8C756B",
"v  c #8D756B",
"b  c #8F756A",
"n  c #8F766A",
"m  c #8F766B",
"M  c #8D756C",
"N  c #8D766C",
"B  c #8E766C",
"V  c #8E776C",
"C  c #8E776D",
"Z  c #8F776D",
"A  c #8F776E",
"S  c #8B746A",
"D  c #8F786D",
"F  c #8F786E",
"G  c #90766A",
"H  c #91776A",
"J  c #90766B",
"K  c #90776B",
"L  c #91776B",
"P  c #90776C",
"I  c #91776C",
"U  c #91776B",
"Y  c #91786C",
"T  c #91786D",
"R  c #92786C",
"E  c #92786D",
"W  c #92796D",
"Q  c #93796D",
"!  c #90796E",
"~  c #90796F",
"^  c #91796F",
"/  c #92796E",
"(  c #93796E",
")  c #917A6F",
"_  c #937A6E",
"`  c #937B6E",
"'  c #927A6F",
"]  c #937A6F",
"[  c #927B6F",
"{  c #92796D",
"}  c #917A70",
"|  c #927A70",
" . c #927B70",
".. c #937B70",
"X. c #927B71",
"o. c #937B71",
"O. c #937B72",
"+. c #947B70",
"@. c #957B70",
"#. c #947B71",
"$. c #937C71",
"%. c #947C71",
"&. c #957C71",
"*. c #957D71",
"=. c #947C72",
"-. c #957C72",
";. c #957D72",
":. c #967C72",
">. c #967D72",
",. c #967E72",
"<. c #967E73",
"1. c #977E73",
"2. c #977F73",
"3. c #967E74",
"4. c #977F74",
"5. c #957D71",
"6. c #987F73",
"7. c #987F74",
"8. c #987F73",
"9. c #978074",
"0. c #978077",
"q. c #988074",
"w. c #998074",
"e. c #988075",
"r. c #998075",
"t. c #998175",
"y. c #9A8175",
"u. c #998176",
"i. c #9A8176",
"p. c #9A8276",
"a. c #9B8276",
"s. c #9A8277",
"d. c #9B8277",
"f. c #9B8377",
"g. c #9C8377",
"h. c #9A8176",
"j. c #9A8278",
"k. c #9B8378",
"l. c #9C8378",
"z. c #9C8478",
"x. c #9D8478",
"c. c #9C8479",
"v. c #9D8479",
"b. c #9D8579",
"n. c #9D857A",
"m. c #9E857B",
"M. c #9E867A",
"N. c #9E867B",
"B. c #9F877B",
"V. c #9E867A",
"C. c #9F887D",
"Z. c #A0877D",
"A. c #A0887D",
"S. c #A48D83",
/* pixels */
"                                                                                * & # + + + + + + + & & &                       ",
"                                                                          & # @ & & & = r r r ; ; & & # # # &                   ",
"                                                                        & & & = p ( ..=.2.+.2.2.2.( D p & & & &                 ",
"                                                                    & & & & B 2.t.N.N.g.l.g.l.N.N.t.g.t...p & & & &             ",
"                                                                  & # & p k.t.l.N.t.t.t.7.t.t.t.t.t.t.t.N.t.2.r # # &           ",
"                                                                & # & ..t.t.N.t.7...k = & & & & = k 2.t.t.N.t.7...& # &         ",
"                                                              & & & ..t.t.N.3.B 8 & & & & & & & & & & r ( 0.k.l.t.( & # &       ",
"                                                            & & & ( t.t.t.3.p & & & @             # # & & k 2.k.g.t.B & &       ",
"                                                            & & k t.t.t.2.r & # &                     & + & p 2.l.t.2.B # &     ",
"                                                          & @ r 2.t.N.2.r + &                             # & r 7.k.t.2.& & &   ",
"                                                          @ + k 2.t.2.; @ @                                 + # f +.t.2.r @ +   ",
"                                                          o + ; ( H & + X                                   + + + ; ( P k + X + ",
"                                                        X X + ; k 4 + X X                                     X . % ; f k + X + ",
"                                                        X X & 4 k ; X X O                                       X + * k k + X X ",
"                                                        X X * 4 ; * X X                                         X o & k k % o X ",
"                                                      + X X ; k ; & X X                                         X o & k k & + . ",
"                                                      + + + P ( k & O O                                         + + & ( ( ; + X ",
"                                                        + + ( 2.2.k + +                                         + & p 6.t.k & + ",
"                                                        & & ( t.t...& &                                         & & B t.g.B & & ",
"                                                        & & ( 6.t.t.& & &                                       & # p g.t.k & & ",
"                                                          # r 2.g.t.r & #                                       & @ r 3.t.r & & ",
"                                                          & & ..t.t...& # &                                       # & B 2.& #   ",
"                                                          & & B t.t.t.k & &                                       & & & r & #   ",
"                                                          & # r ..t.l.2.r & & &                                     & + # # &   ",
"                                                            & * B k.t.g.3.r & & &                                   & # + &     ",
"                                                          H k 2.t.t.N.t.t.t.B & # + & & *                             & &       ",
"                                                        H ( t.k.N.N.N.N.l.t.t...k r & & # # # % # # # &                         ",
"                                                      P ( 2.N.N.N.N.N.N.g.t.t.t.t...D k r r = & = & * & & &                     ",
"                                                    k P 2.t.k.N.N.t.N.3.+.3.2.t.t.6.t.t.6.2.+.( ..( k & & + % &                 ",
"                                                  % * H ( ( 2.+.+.2.H & + % 4 k k ( H ( ( H ( ( H ( ( k * $ + +                 ",
"                                              $ % * k P ( ( ( ( ( k @ X X $ % * * * ; 4 4 k 4 4 4 ; * * % $ $                   ",
"                                            $ % * 4 ( ( ( ( ( P ; + X X X   % $ % % % * * * * * * % % % $                       ",
"                                          % % ; k ( ( ( ( ( ( ; + X X X           $ % % % % % % % % %                           ",
"                                        & * ; 2.k.k.+.2.2.+.k % o X O                                                           ",
"                                      H ( ] t.A.S.S.S.A.N.t.= # # *                                                             ",
"                                    H ( 2.k.S.N.A.S.S.S.0.= # &                                                                 ",
"                                  ( ( 2.l.B.N.C.B.C.S.0.p & &                                                                   ",
"                                H ( 2.N.C.A.N.C.B.N.3.r & &                                                                     ",
"                              H ( 2.N.A.A.B.A.N.N.3.& # &                                                                       ",
"                            H P 2.N.A.N.B.A.t.B...& + &                                                                         ",
"                          H ( t.N.B.A.B.N.N.B.D & # &                                                                           ",
"                        H ` t.N.B.A.A.C.N.t.D & & &                                                                             ",
"                      H 2.t.N.B.B.B.C.B.t.D & & &                                                                               ",
"                  B ( ( t.N.N.A.B.N.N.z.B & @ &                                                                                 ",
"                H H ] N.N.N.S.N.B.N.t.r & # &                                                                                   ",
"              H P 2.N.N.A.B.N.A.N.3.r & & &                                                                                     ",
"            H ( 2.t.N.A.Z.B.N.N.2.r & & &                                                                                       ",
"          H ( 2.t.N.N.A.B.B.N.=.r & & &                                                                                         ",
"        H ( 2.N.N.N.A.N.B.N.2.& & * k                                                                                           ",
"      H ( 2.N.N.A.B.N.A.N...& # = ( t.] (                                                                                       ",
"    ( ( 2.t.N.A.N.B.N.z.D & & ; ..t.t.t.2.(                                                                                     ",
"  H ( 2.N.N.N.B.N.N.k.D & & & ( t.g.t.t.t.2.(                                                                                   ",
"H k ( k.N.B.B.N.N.t.D & & & f 2.t.t.t.l.t.t.2.(                                                                                 ",
"H ; k A.N.N.B.B.t.D & # ; k P ( 2.t.l.t.l.l.t.+.                                                                                ",
"H & r N.B.N.N.B.B & & r 2.2.` H ( ` t.l.t.t.N.6.2.                                                                              ",
"k & = t.t.t.2.p & & k 2.t.t.t.+.( ( +.t.t.g.t.6.6.                                                                              ",
"; & & r r r 8 & & r 2.t.t.t.t.6.2.] ( +.2.t.t.2.2.                                                                              ",
"  & # # # # # @ & D 2.t.t.t.t.t.7.2.( H ] +.2.]                                                                                 ",
"    * & & & &       ( 2.t.t.t.t.t.7.+.                                                                                          ",
"                      H 2.t.t.t.t.t.2.                                                                                          ",
"                        ( 2.t.t.t.t.2.                                                                                          ",
"                          ` 2.2.2.2.]                                                                                           ",
"                              P ( ( H                                                                                           ",
"                                                                                                                                "
};
