/* XPM */
static char *_33bdca503e04313dcbde504ec15468dS1IeOFld6RMjkXyo[] = {
/* columns rows colors chars-per-pixel */
"64 64 61 1 ",
"  c #0E091B",
". c #0E0A1C",
"X c #100B1C",
"o c #120D1D",
"O c #14101F",
"+ c #120E20",
"@ c #131022",
"# c #151120",
"$ c #171422",
"% c #161326",
"& c #171526",
"* c #181321",
"= c #1A1623",
"- c #1A1625",
"; c #1C1725",
": c #1B1827",
"> c #1C1825",
", c #181528",
"< c #1A182B",
"1 c #1E1A2A",
"2 c #1B1A2D",
"3 c #1C1B2E",
"4 c #1D1C2E",
"5 c #1E1D30",
"6 c #201E2D",
"7 c #201F33",
"8 c #212031",
"9 c #232337",
"0 c #232338",
"q c #242438",
"w c #27273C",
"e c #2A2A3F",
"r c #2A2941",
"t c #2C2C43",
"y c #2D2B45",
"u c #2D2C44",
"i c #2F2D48",
"p c #302F47",
"a c #302F48",
"s c #312E4B",
"d c #303047",
"f c #32314B",
"g c #33324C",
"h c #34314F",
"j c #34344F",
"k c #343250",
"l c #363552",
"z c #373453",
"x c #3A3756",
"c c #383852",
"v c #3A3956",
"b c #3C3B58",
"n c #3D3D59",
"m c #3F3E5D",
"M c #40405E",
"N c #434362",
"B c #444463",
"V c #464665",
"C c #484767",
"Z c #484867",
"A c #4A4A6A",
/* pixels */
"AAAAAAANlgggggaaaggggggaaakkkgkNAAAAAAAAAAAAAAAAAAAAAAAAAAAAAZVM",
"AAAAAAAAAmkgggaagggggggaaakgkklAAAAAAAAAAAAAAAAAAAAAAAAAAAAAAAAA",
"AAAAAAAAAACxgggagggkggggagggggbAAAAAAAAAAAAAAAAAAAAAAAAAAAAAAAAA",
"AAAAAAAAAAAAmgaaggkkggggaaggghVAAAAAAAAAAAAAAAAAAAAAAAAAAAAAAAAA",
"AAAAAAAAAAAACgggaaggkgaggggggxAAAAAAAZMMllcvMVAAAAAAAAAAAAAAAAAA",
"AAAAAAAAAAAAAxggaaggggaagggauflllfurqqqq000qqqqrucvMNAAAAAAAAAAA",
"AAAAAAAAAAAAANggaggggaayrw099000099999999999999990qqqqeujcMVAAAA",
"AAAAAAAAAAAAAAkgaiyrw0009999909999999999999999999999999900qcAAAA",
"AAAAAAAAAAAAAAlq0999999999999999979999999999999999999999990uAAAA",
"AAAAAAAAAAAACg09999999990999993->>*%-3799999999999999999999tAAAA",
"AAAAAAAAAAAMw99999999999009<+.  .o*>>*oX+-34889999999999999qAAAA",
"AAAAAAAAAVaq9999999999993%.        .o*>;*oX.o#=111355999999qVAAA",
"AAAAAAAAbw9999999999993#o              o#->=OX .o#=>>*$<999qMAAA",
"AAAAAABaq99999999993&#==>>=##o.           o#->=OX  Xo#=>999qvAAA",
"AAAAAvq9999999997,.     .o#*=>>=*#o.         o#=>=OX   o999qcAAA",
"AAANuq999999994->>*o.        .o#*=>>=*#o.       o#=>=OX.5990uAAA",
"AAvq99999995%.  .o*>;*o.          .o##=>>=*#oX     o#=>=5999eAAA",
"AAa999999<o        .o*>;*o.             oO#=>>-=#oo   o#8999qAAA",
"AAu99991#oX           .o*>;*o.               oo#=>>>=##o5999qNAA",
"AAu9999-=>>=#oo          .o*>;*oX                 Xo#*=>8999qMAA",
"AA99999#  oO*->-*Oo          o#->=OX                   .5999qcAA",
"AA999991=O.   oO*->-*Oo         o#->=OX                .5999qjAA",
"AA99999%#-;*o.    oO#=>-*Oo        o#=>=#o             .59990uAA",
"AV99999@  o#-;*o.     Xo*->-*Oo       o#=>=#o          .59999eAA",
"AN99999+    .o*>;*o.      oO*->-*Oo      o#=>=#o       .59999qAA",
"AN99999        .o*>;*o.       oO*->-*Oo     o#=>=#o    .59999qNA",
"AN99999           .o#-;*oX        oO*->-*Oo    o#=>=#X .59999qnA",
"Av99999=#o            o#->=OX         oO*->-*Oo   o#=>=#59999qcA",
"Av99999#=>-=#o           o#->=OX          oO*=>-=#o  o#-89999qgA",
"Av99999  .o#=>-=#o          o#->=OX           Xo#=>-=#oo399990uA",
"Aj99999=OX   .o#=>-=#o         o#=>=#o            .o#=>>499999wA",
"Ap99999#->=OX    .o#=>-*Oo        o#=>=#o              o299999qA",
"Au99999  o#->=OX     Xo#=>-*oX       o#=>=#o           .,99999qd",
"Au99995Oo   o#->=OX      oO*->=#oX      o#=>=#o         #999990t",
"A999997=>=#o   o#->=OX       o#=>>=#o.     o#=>=#o      +999990t",
"A999995ooO=>-*o.  o#->=OX        o#=>>=#o     o#=>=#X   .999990t",
"A999998>=#o.o*>>=OX  o#->=OX        .o#=>-=#o    o#=>=OX.599990t",
"V999994o#=>=#o o#->=#o  o#->=OX         .o#=>-=#o   o#->=499990t",
"N999994   o#=>=#o o#=>=#o  o#=>=#o          Xo#=>-=#o  o$699990t",
"N999994      o#=>=#o o#=>-#o  o#=>=#o           Xo#=>>=#o%99990t",
"N999992         o#=>=#o oO=>-*o. o#=>=#o            .o#=>199990t",
"v99999,            o#=>=#o .o*>;*o. o#=>=#o              o99990t",
"v999996-*Oo           o#=>=#o .o*->=OX oO=>=#o           .59990t",
"v99999<o#=>-*Oo          oO=>-#o  o#->=#o oO=>=#o        .29990t",
"j99999<   Xo#=>-*Oo         oO=>-#o  o#=>=#o oO=>=#o     .,9990t",
"p999996-#o    Xo#=>-*Oo        oO*>-*o. o#=>-#o o#=>=#X   #9990t",
"u99999,o=>-#o     oO*->=#oX       .o*>;*o. oO=>-*o.o#=>=O.#9990t",
"u99999,  oO=>-#o      oO*>>=#o.      .o*>;*o. .o*>>=Ooo#->,9990t",
"999999%     oO=>-#o       o#=>>=#o.     .o*>;*o.  o#=>=#oO-9990t",
"999999@        oO=>-#o        o#=>;=#o     .o*>;*o.  oO=>>=9990t",
"999999@           oO=>-#o        .o#=>-=#o    .o*>;*o   .o#9990t",
"999999-o.            oO=>-#o         Xo#=>-*Oo   .o*>-#o  .9990t",
"999999:>>=#oX           .o*>-*o.         Xo#=>-*Oo  .o=>=#o9990t",
"999999@ o#=>>=#oX          .o*>;*o.          Xo#=>-=#o o#=>9990t",
"999999-o    o#=>>=#oX         .o*>;*o.           Xo#=>>=#o#7990t",
"999999->-#o     o#=>>=#o.        .o*-;*o.            .o#=->8990t",
"999999+.o=>-#o      o#=>>=#o.        o#-;*OX              o5990t",
"999999>=#ooO=>-#o       o#=>>=#o        o#->=OX           .5990t",
"999999oO=>-#ooO=>-#o       .o#=>-=#o       o#->=o.        .5990t",
"999999>*ooO*>;*ooO*>-#o.       .o#=>-*Oo      o#-;*o.     .299qf",
"999999o*>;*o.o*>;*oXo*>;*o.        Xo#=>-*Oo     o#-;*o.  .,99qn",
"999994  .o*>-#o.o*>;*oXo*>;*o.         Xo#->-*Oo   .o*>-#o.,99qM",
"999994     .o*>-#oXo*>;*oXo*>;*o.          oO*->-*Oo  .o=>=399qM",
"99999,        .o*>;*oXo#-;*oXo#->=OX           oO#=>-=#o.o#499qc"
};
