/* XPM */
static const char *player[] = {
/* columns rows colors chars-per-pixel */
"64 64 134 2 ",
"   c #000001",
".  c #080202",
"X  c #00000A",
"o  c #120505",
"O  c #000013",
"+  c #00001C",
"@  c #000023",
"#  c #00002D",
"$  c #000034",
"%  c #00003B",
"&  c #1F2E2D",
"*  c #4F1414",
"=  c #224D25",
"-  c #000044",
";  c #00004B",
":  c #000053",
">  c #00005E",
",  c #000063",
"<  c #00006B",
"1  c #0F046F",
"2  c #000073",
"3  c #0F0477",
"4  c #00007B",
"5  c #110476",
"6  c #20087C",
"7  c #9A2727",
"8  c #A72B2B",
"9  c #B12F2F",
"0  c #B43130",
"q  c #B63B35",
"w  c #B74137",
"e  c #B84338",
"r  c #BA4A3B",
"t  c #BB533F",
"y  c #B22F4B",
"u  c #BD5A42",
"i  c #BF6345",
"p  c #C16C49",
"a  c #C2724C",
"s  c #C37A4F",
"d  c #55B355",
"f  c #64C764",
"g  c #69CB69",
"h  c #71CC6A",
"j  c #C48252",
"k  c #C58955",
"l  c #C7935A",
"z  c #C99C5E",
"x  c #CAA462",
"c  c #CBAA66",
"v  c #CCAE69",
"b  c #CDB46D",
"n  c #CFBB72",
"m  c #97CF72",
"M  c #9CCF74",
"N  c #B3D27B",
"B  c #BFD37F",
"V  c #D0C176",
"C  c #D2C67A",
"Z  c #000084",
"A  c #00008D",
"S  c #1A078D",
"D  c #000093",
"F  c #020198",
"G  c #0B039A",
"H  c #14059B",
"J  c #1B079C",
"K  c #1F089D",
"L  c #210886",
"P  c #270A8B",
"I  c #250990",
"U  c #2B0B95",
"Y  c #23099D",
"T  c #2C0B9E",
"R  c #310C9F",
"E  c #350DA0",
"W  c #3B0EA0",
"Q  c #3F10A1",
"!  c #4311A2",
"~  c #4D13A4",
"^  c #5615A5",
"/  c #6418A7",
"(  c #761EA9",
")  c #7B1FAA",
"_  c #5C31AB",
"`  c #8321AB",
"'  c #8D23AD",
"]  c #9225AE",
"[  c #9A27AF",
"{  c #9E28B0",
"}  c #A42AB1",
"|  c #AD2DB2",
" . c #B12FB3",
".. c #B432B4",
"X. c #B63BB6",
"o. c #B740B7",
"O. c #B844B8",
"+. c #B04EB9",
"@. c #BA4BBA",
"#. c #BB54BB",
"$. c #BD5BBD",
"%. c #BF64BF",
"&. c #C06CC0",
"*. c #C174C1",
"=. c #C27BC2",
"-. c #CDD584",
";. c #D6D689",
":. c #9E87C0",
">. c #B3A5C7",
",. c #C485C4",
"<. c #C58CC5",
"1. c #C694C6",
"2. c #C695C6",
"3. c #C79BC7",
"4. c #C89DC8",
"5. c #CAA6CA",
"6. c #CAACCA",
"7. c #CCB1CC",
"8. c #C7BECE",
"9. c #CEBBCE",
"0. c #CEBCCE",
"q. c #BAD0C3",
"w. c #CFC0CF",
"e. c #D6D6CC",
"r. c #C5CCD1",
"t. c #D0C2D0",
"y. c #D0C5D0",
"u. c #D2C9D2",
"i. c #D3CCD3",
"p. c #C0D2D0",
"a. c #CED4D4",
"s. c #D4D1D4",
"d. c #D5D5D4",
"f. c #D5D5D5",
/* pixels */
"..........J ............      X.X.T o.O.O.o.o.X.X.X.6 X.X.      ........X.! X.X.X.X.X.X.      O.O.Q O.O.O.O.o.X.X.X.I X.X.    o.",
"..G u.f.X.; K Y ..T E ..X.  X.X.T < E E X.T I P X.! < W ....  ....E E ..E , R R X.L R X.O.  o.O.E < W E o.R U U X.~ 2 ~ X.X.  <.",
"H X.f.f.f.f., : Y > , Q ..  X.~ 2 2 2 4 T < < 2 ! < < < W  .  ..R , , E , @ < < ! 2 2 R X.  o.Q 4 2 4 2 R , < , Q < < 2 W ..  =.",
"; f.f.f.f.f.f.4 > > , < J   Y 4 4 2 4 4 2 # # 2 < # 2 < , H   H O.f.f.W @   , 2 2 2 4 4 S   Y 4 4 4 2 2 2 $ # < 2 # 2 2 4 Y   ..",
"+.f.f.f.f.f.f.f.2 , , @ X   X $ 4 4 4 4 $ X @ 2 2   # < #     f.f.f.f.f.< + < # 2 4 4 % X   X % 4 Z 4 4 $ X @ 2 2 X # 2 $ X   4 ",
"f.f.f.f.f.f.f.f.f., @       X X $ 4 $ $ X X # < $ X X @   R f.f.f.f.f.f.f.@ @ X $ 4 $ X X   X X % 4 $ % X X # < #   X $ X X   4 ",
"f.f.f.f.f.f.f.f.f.f.          X X $ X X X X X $ X X X   0.f.f.f.f.f.f.f.f.2 X X X $ X X       X X $ X X X X X #     X A f.f.f.  ",
"f.f.f.f.f.f.f.f.f.f.a.                                f.f.f.f.f.f.f.f.f.f.f.                                    X >.f.f.f.f.f.  ",
"f.f.f.f.f.f.f.f.f.f.f.w.                            f.f.f.f.f.f.f.f.f.f.f.f.                                5.f.f.f.f.f.f.f.f...",
"f.f.f.f.f.f.f.f.f.f.f.f.X.........,.X...........O f.f.f.f.f.f.f.f.f.f.f.f.f...      ..............W ....&.f.f.f.f.f.f.f.f.f.f.@.",
"f.f.f.f.f.f.f.f.f.f.f.f.f...J X.f.f.f.&...Y K X.f.f.f.f.f.f.f.f.f.f.f.f.f.f.u...e.f.X.T R ..E R R < J f.f.f.f.f.f.f.f.f.f.f.f.X.",
"f.f.f.f.f.f.f.f.f.f.f.f.f.f.F f.f.f.f.f.J > ~ f.f.f.f.f.f.f.f.f.f.f.f.f.f.f.f.f.f.f.f.< , T , < , G f.f.f.f.f.f.f.f.f.f.f.f.f...",
"f.f.f.f.f.f.2.f.f.f.f.f.f.f.f.f.f.f.f.f.=.! f.f.f.f.f.f.f.f.f.f.f.f.f.f.f.f.f.f.f.f.f.@., , , , S f.f.f.f.f.f.f.f.X...f.f.f.f.K ",
"f.f.f.f.f.9.) ] 4.f.f.f.f.f.f.f.f.f.f.f.f.f.f.f.f.f.f.f.f.f.f.f.f.f.f.f.f.f.f.f.f.f.f.f.# > @ 2 f.f.f.f.f.f.f.O.] ] s.f.f.f.u., ",
"f.f.f.f.f.) ) ) ) &.f.f.f.f.f.f.f.f.f.f.f.f.f.f.f.f.f.f.f.f.f.f.f.f.f.f.f.f.f.f.f.f.f.f.f.+   f.f.f.f.f.f.<.' ] ] } f.f.f.f.2., ",
"f.f.f.f.f.( ) ) ) ) *.f.f.f.f.f.f.f.f.f.f.f.f.f.f.f.f.f.f.f.f.f.f.f.f.f.f.f.f.f.f.f.f.f.f.:.X f.f.f.f.f.X.] ] ] ' ..f.f.f.f.    ",
"f.f.f.f.f.) ) ) ) ) ) O.f.f.f.f.f.f.f.f.f.f.f.f.f.f.f.f.f.f.f.f.f.f.f.f.f.f.f.f.f.f.f.f.f.f.f.f.f.f.f.] ' ` ' ' ] f.f.f.f.f.    ",
"f.f.f.f.f.) ) ) ( ) ( ) f.f.f.f.f.f.f.f.f.f.f.f.f.f.f.f.f.f.f.f.f.f.f.f.f.f.f.f.f.f.f.f.f.f.f.f.f.f.` ` ` ' ` ' ..f.f.f.f.f...  ",
"f.f.f.f.f.) ) ) ) ( ( ( f.f.f.f.f.f.f.f.f.f.f.f.f.f.f.f.f.f.f.f.f.f.f.f.f.f.f.f.f.f.f.f.f.f.f.f.f.` ` ` ' ' ' ' f.f.f.f.f.%.....",
"f.f.f.f.f.) ) ) ) ( ) | f.f.f.f.f.f.f.f.f.f.f.f.f.f.f.f.f.f.f.f.f.f.f.f.f.f.f.f.f.f.f.f.f.f.f.f.) ` ) ) ` ` ` ..f.f.f.f.f.@ G ..",
"q.f.f.f.f.` ) ) ) ) (  .f.f.f.f.f.f.f.f.f.f.f.f.f.f.f.f.f.f.f.f.f.f.f.f.f.f.f.f.f.f.f.f.f.f.f.f.9...) ) ( ` ` f.f.f.f.f.f.    G ",
"  f.f.f.f.) ` ) ) ) ( } f.f.f.f.f.f.f.f.f.f.f.f.f.f.f.f.f.f.f.f.f.f.f.f.f.f.f.f.f.f.f.f.f.f.f.f.f.f.) ) ` ` ..f.f.f.f.f.F       ",
"  f.f.f.f.` ` ) ) ( ..f.f.f.f.f.f.f.f.f.f.f.f.f.f.f.f.f.f.f.f.f.f.f.f.f.f.f.f.f.f.f.f.f.f.f.f.f.f.f.f.i.` ` 6.f.f.f.f.f.        ",
"| } f.f.f.O.` ) ) X.f.f.f.f.f.f.f.f.f.f.f.f.f.f.f.f.f.f.f.f.f.f.f.f.f.f.f.f.f.f.f.f.f.f.f.f.f.f.f.f.f.f.` ..f.f.f.f.f... .......",
"@.O.t.f.f.f.` ` ..f.f.f.f.f.f.f.f.f.f.f.f.f.f.f.f.f.f.f.f.f.f.f.f.f.f.f.f.f.f.f.f.f.f.f.f.f.f.f.f.f.f.f.f.f.f.f.f.f.6.#.$.%.&.*.",
"@.X.| u.f.f.X...f.f.f.f.f.f.f.f.f.f.f.f.f.f.f.f.f.f.f.f.f.f.f.f.f.f.f.f.f.f.f.f.f.f.f.f.f.f.f.f.f.f.f.f.f.f.f.f.f.t.X.X.$.O.O.@.",
"X...H G w.f.f.f.f.f.f.f.f.f.f.f.f.f.f.f.f.f.f.f.f.f.f.f.f.f.f.f.f.f.f.f.f.f.f.f.f.f.f.f.f.f.f.f.f.f.f.f.f.f.f.f.9.......o...R ..",
"....F F F f.f.f.f.f.f.f.f.f.f.f.f.f.f.f.f.f.f.f.f.f.f.f.f.f.f.f.f.f.f.f.f.f.f.f.f.f.f.f.f.f.f.f.f.f.f.f.f.f.f.& .., Y ....E 2 W ",
"J J J ..../ f.f.f.f.f.f.f.f.f.f.f.f.f.f.f.f.f.f.f.f.f.f.f.f.f.f.f.f.f.f.f.f.f.f.f.f.f.f.f.f.f.f.f.f.f.f.f.f.    < , < T E 2 2 4 ",
"> : : J G f.f.f.f.f.f.f.f.f.f.f.f.f.f.f.f.f.f.f.f.f.f.f.f.f.f.f.f.f.f.f.f.f.f.f.f.f.f.f.f.f.f.f.f.f.f.f.f.f.8.    < 2 2 4 4 2 Z ",
"        3.f.f.f.f.f.f.f.f.f.f.f.f.f.f.f.f.f.f.f.f.f.f.f.f.f.f.f.f.f.f.f.f.f.f.f.f.f.f.f.f.f.f.f.f.f.f.f.f.f.f.                  ",
"      X f.f.f.f.f.f.f.f.f.f.f.f.f.f.f.f.f.f.f.f.f.f.f.f.f.f.f.f.f.f.f.f.f.f.f.f.f.f.f.f.f.f.f.f.f.f.f.f.f.f.f.                  ",
"......f.f.f.f.f.f.f.f.f.f.f.f.f.f.f.f.f.f.f.f.f.f.f.f.f.f.f.f.f.f.f.f.f.f.f.f.f.f.f.f.f.f.f.f.f.f.f.f.f.f.f.f.......W ..X.    @.",
"..Y ~ f.f.f.f.f.f.f.f.f.f.f.f.f.f.f.f.f.f.f.f.f.f.f.f.f.f.f.f.f.f.f.f.f.f.f.f.f.f.f.f.f.f.f.f.f.f.f.f.f.f.f.f.Y ..E 4 ! X.X.  3.",
"T > u.f.f.f.f.f.f.f.f.f.f.f.f.,.%...( | X.&.i.f.f.f.f.f.f.f.f.f.f.f.f.f.f.f.f.f.f.f.f.f.f.f.f.f.f.f.f.f.f.f.f.< T 2 4 Z ~ X.  4.",
", > ,.f.f.f.f.f.f.f.f.f.f.X.( ( ( ( ( ( ( ( ( ..f.f.f.f.f.f.f.f.f.f.f.f.f.f.f.f.f.f.f.f.f.f.f.f.f.f.f.f.f.f.2.2 $ $ 4 Z Z 5   X.",
"@ > O 9.f.f.f.f.f.f.f.%.( ) ( ( ( ( X.y.9.X.) ) ' ,.f.f.f.f.f.f.f.f.f.f.f.f.f.f.f.f.f.f.f.f.f.f.f.f.f.f...} | ..F X % 4 % X   D ",
"  @   f.f.f.f.f.f.f...) ( ) ( ..f.f.f.f.f.f.f.u.) ' f.f.f.f.f.f.f.f.f.f.f.f.f.f.f.f.f.f.f.f.f.f.f.f.f.' [ } | ..J X X % X X   D ",
"    X f.f.f.f.f.f.X.( ( ) ( X.f.f.f.f.f.f.f.f.f.f.....f.f.f.f.f.f.f.f.f.f.f.f.f.f.f.f.f.f.f.f.f.f.f.[ <.f.f.f.#.D X X X X       ",
"    7.f.f.f.f.f.f.) ) ( ) ..f.f.f.f.f.f.f.f.f.f.f.f...%.f.f.f.f.f.f.f.f.f.f.f.f.f.f.f.f.f.f.f.f.f...f.f.f.f.f.f.,.              ",
"..' f.f.f.f.f.f.f.) ) ) ] f.f.f.f.f.f.f.f.f.f.f.f.f.f...f.f.f.f.f.f.f.f.f.f.f.f.f.f.f.f.f.f.f.f...f.f.f.f.f.f.f.f.    ..X.X.X.o.",
"..$.f.f.f.f.f.f.f.) ) ( ..f.f.f.f.f.f.f.N g g g g f.f...f.f.f.f.f.f.f.f.f.f.f.f.f.f.f.f.f.f.f.f...f.f.f.f.f.f.f.f.f...%.&.=.,.<.",
"..y.f.f.f.f.f.f.f.) ) ( s.f.f.f.f.f.f.;.g g d X g g f.f.9.f.f.f.f.f.f.f.f.f.f.f.f.f.f.f.f.f.f...f.f.f.;.g g g h f.f.$.%.O.@.,.$.",
"..f.f.f.f.f.f.f.f.@.) ( f.f.f.f.f.f.f.g g +       g e.f...f.f.f.f.f.f.f.f.f.f.f.f.f.f.f.f.f.f. .f.f.f.g g X   g M f.2. .....#.X.",
"..f.f.f.f.f.f.f.f.f.) ) f.f.f.f.f.f.f.g g           ;.f...f.f.f.f.f.f.f.f.f.f.f.f.f.f.f.f.f.f...f.f.;.g f       g f.t.Z W ..Q ! ",
"J f.f.f.f.f.f.f.f.f.` ) f.f.f.f.f.f.f.g g         O ;.f...f.f.f.f.f.f.f.f.f.f.f.f.f.f.f.f.f.f...f.f.;.g =       g f.O.Z Z ! 4 4 ",
"2 4 f.f.f.f.f.f.f.f...) X.f.f.f.f.f.f.g g g       g f.X.X.f.f.f.f.f.f.f.f.f.f.f.f.f.f.f.f.f.f...f.f.f.g g       M f.  Z Z Z 4 4 ",
"        w.f.f.f.f.f.f.) ..f.f.f.f.f.f.f.g g g g g ;.f.` f.f.f.f.f.f.f.f.f.f.f.f.f.f.f.f.f.f.f.` f.f.f.;.g g g g f.f.            ",
"      s.f.f.f.f.f.f.f...) %.f.f.f.f.f.f.f.B m N f.f.#...f.f.f.f.f.f.y.$...) ) ) ..$.2.f.f.f.f.` O.f.f.f.f.-.;.f.f.X             ",
"    ..f.f.f.f.f.f.f.f.f.) ] f.f.f.f.f.f.f.f.f.f.f.2.` f.f.f.f.f.f.f.~   $ T ) ) ` F   ..f.f.f...{ f.f.f.f.f.f.f.f.........X.X.  ",
"  ....*.f.f.f.f.f.f.f.f.f.) ] *.f.f.f.f.f.f.f.f.$.` $.f.f.f.f.f.f.f.~       % G       X.f.f.f.f.` ..f.f.f.f.f.<.Z R ..! ! ! X.X.",
"  ..H @ 6.f.f.f.f.f.f.f.f.f...) ..2.f.f.f.f.*...] &.f.f.f.f.f.f.f.f.) ) ~ G F 4 G G ^ f.f.f.f.f.X.` ' } X.X.| ..@ 4 W Z 4 % 1 X.",
"  H X X @ 6.f.f.f.f.f.f.f.f.f.u.X.) ( ) ) ) | *.f.f.f.f.f.f.f.f.f.f.f.f.f.7.,.#.7.f.f.f.f.f.f.f.f.X.' ] ..0.f.f.X % $ $ $ X X 3 ",
"    X X X   7.f.f.f.f.f.f.f.f.f.f.f.f.f.f.f.f.f.f.f.f.f.f.f.f.f.f.f.f.f.f.f.f.f.f.f.f.f.f.f.f.f.f.f.f.f.f.f.f.f.X X X X X X X   ",
"              _ f.f.f.f.f.f.f.f.f.f.f.f.f.f.f.f.f.f.f.f.f.f.f.f.f.f.f.f.f.f.2.2.f.f.f.f.f.f.f.f.f.f.f.f.f.f.f.f.                ",
"X.X.......]  .|   r.f.f.f.f.f.f.f.f.f.f.f.f.f.f.f.f.f.f.f.f.f.f.$.*.%.s.s.f.f.f.f.s.7.f.f.f.f.f.f.f.f.f.f.f.f.f.  ....X.X.X.o.O.",
",.=.O.O.%.$.#.@.}   @ f.f.f.f.f.f.f.f.f.f.f.f.f.f.f.f.f.f.f.f.f.f.f.f.f.f.f.f.f.f.f.f.f.f.f.f.f.f.f.f.f.f.f.f.p...%.&.=.,.<.3.3.",
",.#.....o.$.X.O.o.  ....G $.f.f.f.f.f.f.f.f.f.f.f.f.f.f.f.f.f.f.f.f.f.f.f.f.f.f.f.f.f.f.f.f.f.f.f.f.f.f.f.f.f.  $.%.@.@.,.%.%.&.",
"#...K J H X.0 0 e 8 9 y : G Z F f.f.f.f.f.f.f.f.f.f.f.f.f.f.f.f.f.f.f.f.f.f.f.f.f.f.f.f.f.f.f.f.f.f.f.5.G f.9.  $.....X.$.X.Y X.",
"X...F F F 0 u u t i e 0 7 o ; # f.f.f.f.f.f.f.f.f.f.f.f.f.f.f.f.f.f.f.f.f.f.f.f.f.f.f.f.f.f.f.f.f.f.*.A - X G   ..A E X.X.W 4 T ",
"Y Y H ..0 a n V n b x p q 0 7   f.f.f.f.f.f.f.f.f.f.f.f.f.f.f.f.f.f.f.f.f.f.f.f.f.f.f.f.f.f.f.f.f.V q 0   O O   D D D ! ! Z Z Z ",
"Z D D G e l V V n b v x x p w 0 ;.f.f.f.f.f.f.f.f.f.f.f.f.f.f.f.f.f.f.f.f.f.f.f.f.f.f.f.f.f.f.;.b j k j q .       D D D D A D A ",
"        w j C V n b v x z l l i 0 k f.f.f.f.f.f.f.f.f.f.f.f.f.f.f.f.f.f.f.f.f.f.f.f.f.f.f.f.;.p s j l x z q *                   ",
"o.X.| / r p C V j e b c x z l k a r q <.f.f.f.f.f.f.f.f.f.f.f.f.f.f.f.f.f.f.f.f.f.f.f.f.f.f.;.a s k l z v c t 0 X.X.X.X.O.      "
};
