/* XPM */
static char *_4cc440931574a38c1b07eb6d5df30e0ZGtYjc3c7TCprc8g[] = {
/* columns rows colors chars-per-pixel */
"64 64 16 1 ",
"  c #2F2E2F",
". c #35303F",
"X c #372F47",
"o c #39314B",
"O c #3E2F5A",
"+ c #3B3052",
"@ c #3C3053",
"# c #403646",
"$ c #48365E",
"% c #493959",
"& c #4B3960",
"* c #554059",
"= c #564064",
"- c #664577",
"; c #704D7C",
": c #85578E",
/* pixels */
"=====&======# #==&========&==# #=====&======# #==&========&==# *",
"=&&=&O&&=&&== ==&O&&=&&&=&O&== ==&&=&O&&=&&== ==&O&&=&&&=&O&== :",
"&OO&O@OO&OO&= =&OOOO&OOO&OOO&= =&OO&O@OO&OO&= =&OOOO&OOO&OOO&= :",
"OOOO@oOOOOOO% %OOOOOO@@OO@OOO% %OOOO@oOOOOOO% %OOOOOO@@OO@OOO% -",
"@O@@o+O@OOO@o o@OOOO@o+OOo@O@o o@O@@o+O@OOO@o o@OOOO@o+OOo@O@o O",
"o@ooo@@o@O@oo oo@O@@oo@O@oo@oo oo@ooo@@o@O@oo oo@O@@oo@O@oo@oo O",
"ooooooooo@oo. .oo@ooooo@ooooo. .ooooooooo@oo. .oo@ooooo@ooooo. X",
"............   ..............   ............   ..............   ",
"*******   ##############   ############   ##############   *****",
";:::;::* #=======&======# #=====&===&==# #=======&======# *:::::",
"=;:;=;:: ==&&=&&&O&==&&== ==&&=&O&=&O&== ==&&=&&&O&==&&== ::;;:;",
"==-===-: =%OO&OOO@O&&OO%= =%OO&OOO&OOO%= =%OO&OOO@O&&OO%= :-==;=",
"==$==&O- %o@OOOO@oOOOO@o% %o@O@@OOOOO@o% %o@OOOO@oOOOO@o% -O&=&&",
"&&&=&OOO ooo@O@@oo@@O@ooo ooo@oo@@@O@ooo ooo@O@@oo@@O@ooo OOO&OO",
"OOO&OOOX .ooo@oooooo@ooo. .oooooooo@ooo. .ooo@oooooo@ooo. XOOOOO",
"XXXXXXX   ..............   ............   ..............   XXXXX",
"  ##############   ############   ##############   ############ ",
" #=====&===&====# #=====&======# #=====&===&====# #=====&======#",
" ==&&=&O&=&O&&&&= =&&=&&O&=&&&== ==&&=&O&=&O&&&&= =&&=&&O&=&&&==",
" =%@O&OOO&OOOO@O& &OO&OO@O&OO@%= =%@O&OOO&OOOO@O& &OO&OO@O&OO@%=",
" %oo@@@OO@@@@@o@@ @@@@@@o@@@@oo% %oo@@@OO@@@@@o@@ @@@@@@o@@@@oo%",
" .ooooo@@ooooooo. .oooooooooooo. .ooooo@@ooooooo. .oooooooooooo.",
"  ..............   ............   ..............   ............ ",
"********   ###########   ###############   ###########   *******",
"::;;::::* #=====&&====# #=========&&====# #=====&&====# *:::::::",
":;==;:;:: ==&=&&OO&=&== ==&&=&&&=&OO&=&== ==&=&&OO&=&== ::;;:;;;",
";=&&&;=-: =%O&OO@@O&O%= =%OO&O@O&O@@@&O%= =%O&OO@@O&O%= :-==;=&=",
"==$$$=&O- %o@OO@o+OO@o% %o@OO@o@OO+++O@o% %o@OO@o+OO@o% -O&==&O&",
"&&&==&OOO ooo@@oo@@@ooo ooo@@ooo@@@OO@ooo ooo@@oo@@@ooo OOO&&OOO",
"OOO&&OOOX .ooooooooooo. .oooooooooo@@ooo. .ooooooooooo. XOOOOOOO",
"XXXXXXXX   ...........   ...............   ...........   XXXXXXX",
"############   ##############   ############   ##############   ",
"=====&======# #==&========&==# #=====&======# #==&========&==# *",
"=&&=&O&&=&&== ==&O&&=&&&=&O&== ==&&=&O&&=&&== ==&O&&=&&&=&O&== :",
"&OO&O@OO&OO&= =&OOOO&OOO%OOO&= =&OO&O@OO%OO&= =&O@OO&OOO&OOO&= :",
"OOOO@oOOOOOO% %OOOOOO@@O+@OOO% %OOOO@oOO+@OO% %OO+@OO@@OO@OOO% -",
"@O@@o+O@OOO@o o@OOOO@o+OOo@O@o o@O@@o+O@O+O@o o@OO+O@o+OOo@O@o O",
"o@ooo@@o@O@oo oo@O@@oo@O@oo@oo oo@ooo@@o@O@oo oo@O@@oo@O@oo@oo O",
"ooooooooo@oo. .oo@ooooo@ooooo. .ooooooooo@oo. .oo@ooooo@ooooo. X",
"............   ..............   ............   ..............   ",
"*******   ##############   ############   ##############   *****",
";:::;::* #=======&======# #=====&===&==# #=======&======# *:::::",
"=;:;=;:: ==&&=&&&O&&=&&== ==&&=&O&=&O&== ==&&=&&&O&==&&== ::;;:;",
"==-===-: =%OO&OOO@O@&OO%= =%OO&OOO%OOO%= =%OO&OOO@O&&OO%= :-==;=",
"==$==&O- %o@OOOO@oO+OO@o% %o@O@@OO+OO@o% %o@OOOO@oOOOO@o% -O&=&&",
"&&&=&OOO ooo@O@@oo@@O@ooo ooo@oo@@@O@ooo ooo@O@@oo@@O@ooo OOO&OO",
"OOO&OOOX .ooo@oooooo@ooo. .oooooooo@ooo. .ooo@oooooo@ooo. XOOOOO",
"XXXXXXX   ..............   ............   ..............   XXXXX",
"  ##############   ############   ##############   ############ ",
" #=====&===&====# #=====&======# #=====&===&====# #=====&======#",
" ==&&=&O&=&O&&&&= =&&=&&O&=&&&== ==&&=&O&=&O&&&&= =&&=&&O&=&&&==",
" =%@O&OOO&OOOO@O& &OO&OO@O&OO@%= =%@O&OOO&OOOO@O& &OO&OO@O&OO@%=",
" %oo@@@OO@@@@@o@@ @@@@@@o@@@@oo% %oo@@@OO@@@@@o@@ @@@@@@o@@@@oo%",
" .ooooo@@ooooooo. .oooooooooooo. .ooooo@@ooooooo. .oooooooooooo.",
"  ..............   ............   ..............   ............ ",
"********   ###########   ###############   ###########   *******",
"::;;::::* #=====&&====# #=========&&====# #=====&&====# *:::::::",
":;==;:;:: ==&=&&OO&=&== ==&&=&&&=&OO&=&== ==&=&&OO&=&== ::;;:;;;",
";=&&&;=-: =%O&OO@@O&O%= =%OO&O@O&OOOO&O%= =%O&OO@@O&O%= :-==;=&=",
"==$$$=&O- %o@OO@o+OO@o% %o@OO@o@OOOOOO@o% %o@OO@o+OO@o% -O&==&O&",
"&&&==&OOO ooo@@oo@@@ooo ooo@@ooo@@@OO@ooo ooo@@oo@@@ooo OOO&&OOO",
"OOO&&OOOX .ooooooooooo. .oooooooooo@@ooo. .ooooooooooo. XOOOOOOO",
"XXXXXXXX   ...........   ...............   ...........   XXXXXXX",
"************   **************   ************   **************   "
};
