/* XPM */
static char *_885dd34ab3c42a2b1686d9f094f21b1Y5NgyQ7YmiUnFq6l[] = {
/* columns rows colors chars-per-pixel */
"64 64 34 1 ",
"  c #2F2E2F",
". c #312E36",
"X c #322E38",
"o c #333033",
"O c #363139",
"+ c #3E353F",
"@ c #382F4A",
"# c #3D3540",
"$ c #3B2F51",
"% c #3E2F5A",
"& c #403642",
"* c #4F3D53",
"= c #42325C",
"- c #47355E",
"; c #4A3958",
": c #493562",
"> c #4D3A60",
", c #513C62",
"< c #553F64",
"1 c #564064",
"2 c #584069",
"3 c #5C436A",
"4 c #5D446B",
"5 c #674872",
"6 c #6B4B74",
"7 c #6A487B",
"8 c #6F4B7D",
"9 c #744F7B",
"0 c #734E7E",
"q c #77507F",
"w c #795085",
"e c #7D5387",
"r c #83568C",
"t c #85578E",
/* pixels */
"  +&&&&&&&&&&&&&o  +&&&&&&&&&&&o  +&&&&&&&&&&&&&o  +&&&&&&&&&&&&",
"o+qtttttterttttt*o+qtttterttert*o+qtttttterttttt*o+qtttterttertt",
"&9tewreww40wrewrt&9tewre40re40rt&9tewreww40wrewrt&9tewre40re40rt",
"&9w310411,<,0418r&9w31041183118r&9w310411,<,0418r&9w31041183110r",
"#5:><111,=,-,1,=7#5:><,,<1-,1,=7#5:><111,=,-,1,=7#5:><,,<1-,1,<0",
"X$%%><,,=%>,<,=%%X$%%>=%>,,<,=%%X$%%><,,=%>,<,=%%X$%%>=%>,,<,=>,",
".@%%%>=%%%%%>=%%$.@%%%%%%%%>=%%$.@%%%>=%%%%%>=%%$.@%%%%%%%%>=%%%",
"  @$$$$$$$$$$$$$.  @$$$$$$$$$$$.  @$$$$$$$$$$$$$.  @$$$$$$$$$$$$",
"&&&&&&&&o  +&&&&&&&&&&&o  +&&&&&&&&&&&&&o  +&&&&&&&&&&&o  +&&&&&",
"rtterttt*o+qtttterttttt*o+qttttertterttt*o+qtttterttttt*o+qtttte",
"0re40wwwr&9ewrew40rewwrt&9tewre40re40wwwr&9ewrew40rewwrt&9tewre4",
"104111,<0#641041,<041,8r&9w2<041104111,<0#641041,<041,8r&9w2<041",
"1,,,,,=>,O;,,,,,=>,,,=%7#5:%>,,<1,,,,,=>,O;,,,,,=>,,,=%7#5:%>,,<",
",=%%%%%%$.@%%%%%%%%%%%%$.@%%%%%>,=%%%%%%$.@%%%%%%%%%%%%$.@%%%%%>",
"$$$$$$$$.  @$$$$$$$$$$$.  @$$$$$$$$$$$$$.  @$$$$$$$$$$$.  @$$$$$",
"o  +&&&&&&&&&&o  +&&&&&&&&&&&&&&o  +&&&&&&&&&&o  +&&&&&&&&&&&&&&",
"*o+qttttewrttt*o+qttttttttewrttt*o+qttttewrttt*o+qttttttttewrttt",
"t&9terew410rert&9tewrewwre410rert&9terew410rert&9tewrewwre410rer",
"r&9w3041,,<048r&9w3104,<04,,,048r&9w3041,,<048r&9w3104,<04,,,040",
"7#5:><1,==,1,=7#5:><1,=><1-==,,=7#5:><1,==,1,=7#5:><1,=><1-==,,,",
"%X$%%>,=%>,,=%%X$%%>,=%%>,,<1,=%%X$%%>,=%>,,=%%X$%%>,=%%>,,<1,=%",
"$.@%%%%%%%%%%%$.@%%%%%%%%%%>,=%%$.@%%%%%%%%%%%$.@%%%%%%%%%%>,=%%",
".  @$$$$$$$$$$.  @$$$$$$$$$$$$$$.  @$$$$$$$$$$.  @$$$$$$$$$$$$$$",
"&&&&o  +&&&&&&&&&&&&&o  +&&&&&&&&&&&o  +&&&&&&&&&&&&&o  +&&&&&&&",
"tttt*o+qtertttttttert*o+qtttterttttt*o+qtertttttttert*o+qttttert",
"rewrt&9te40wrewwre40rt&9tewre40wrewrt&9te40wrewwre40rt&9tewre40w",
"8310r&9e4,<1041183110r&9e4104,<18310r&9e4,<1041183110r&9e4104,<1",
"-><18#531-><1,,<-><118#53111,=,1-><18#531-><1,,<-><118#53111,=,1",
"<-,,=X$><1-,,==,1=><,=X$><,,==,,<-,,=X$><1-,,==,1=><,=X$><,,==,,",
"><,=%X$%><,,=%><,=%>=%X$%>=%%>,=><,=%X$%><,,=%><,=%>=%X$%>=%%>,=",
"%>=%$.@%%>=%%%%>=%%%%$.@%%%%%%%%%>=%$.@%%>=%%%%>=%%%%$.@%%%%%%%%",
"$$$$.  @$$$$$$$$$$$$$.  @$$$$$$$$$$$.  @$$$$$$$$$$$$$.  @$$$$$$$",
"  +&&&&&&&&&&&&&o  +&&&&&&&&&&&o  +&&&&&&&&&&&&&o  +&&&&&&&&&&&&",
"o+qtttttterttttt*o+qtttterttert*o+qtttttterttttt*o+qtttterttertt",
"&9tewreww40wrewrt&9tewre40re40rt&9tewreww40wrewrt&9tewre40re40rt",
"&9w310411,<,0418r&9w31041183118r&9w310411,<,0418r&9w31041183110r",
"#5:><111,=,-,1,=7#5:><,,<1-,1,=7#5:><111,=,-,1,=7#5:><,,<1-,1,<0",
"X$%%><,,=%>,<,=%%X$%%>=%>,,<,=%%X$%%><,,=%>,<,=%%X$%%>=%>,,<,=>,",
".@%%%>=%%%%%>=%%$.@%%%%%%%%>=%%$.@%%%>=%%%%%>=%%$.@%%%%%%%%>=%%%",
"  @$$$$$$$$$$$$$.  @$$$$$$$$$$$.  @$$$$$$$$$$$$$.  @$$$$$$$$$$$$",
"&&&&&&&&o  +&&&&&&&&&&&o  +&&&&&&&&&&&&&o  +&&&&&&&&&&&o  +&&&&&",
"rtterttt*o+qtttterttttt*o+qttttertterttt*o+qtttterttttt*o+qtttte",
"0re40wwwr&9ewrew40rewwrt&9tewre40re40wwwr&9ewrew40rewwrt&9tewre4",
"104111,<0#641041,<041,8r&9w2<041104111,<0#641041,<041,8r&9w2<041",
"1,,,,,=>,O;,,,,,=>,,,=%7#5:%>,,<1,,,,,=>,O;,,,,,=>,,,=%7#5:%>,,<",
",=%%%%%%$.@%%%%%%%%%%%%$.@%%%%%>,=%%%%%%$.@%%%%%%%%%%%%$.@%%%%%>",
"$$$$$$$$.  @$$$$$$$$$$$.  @$$$$$$$$$$$$$.  @$$$$$$$$$$$.  @$$$$$",
"o  +&&&&&&&&&&o  +&&&&&&&&&&&&&&o  +&&&&&&&&&&o  +&&&&&&&&&&&&&&",
"*o+qttttewrttt*o+qttttttttewrttt*o+qttttewrttt*o+qttttttttewrttt",
"t&9terew410rert&9tewrewwre410rert&9terew410rert&9tewrewwre410rer",
"r&9w3041,,<048r&9w3104,<04,,,048r&9w3041,,<048r&9w3104,<04,,<040",
"7#5:><1,==,1,=7#5:><1,=><1-==,,=7#5:><1,==,1,=7#5:><1,=><1-=,1,<",
"%X$%%>,=%>,,=%%X$%%>,=%%>,,<1,=%%X$%%>,=%>,,=%%X$%%>,=%%>,,<1,=>",
"$.@%%%%%%%%%%%$.@%%%%%%%%%%>,=%%$.@%%%%%%%%%%%$.@%%%%%%%%%%>,=%%",
".  @$$$$$$$$$$.  @$$$$$$$$$$$$$$.  @$$$$$$$$$$.  @$$$$$$$$$$$$$$",
"&&&&o  +&&&&&&&&&&&&&o  +&&&&&&&&&&&o  +&&&&&&&&&&&&&o  +&&&&&&&",
"tttt*o+qtertttttttert*o+qtttterttttt*o+qtertttttttert*o+qttttert",
"rewrt&9te40wrewwre40rt&9tewre40wrewrt&9te40wrewwre40rt&9tewre40w",
"8310r&9e4,<1041183110r&9e4104,<18310r&9e4,<1041183110r&9e4104,<1",
"-><18#531-><1,,<-><118#53111,=,1-><18#531-><1,,<-><118#53111,=,1",
"<-,,=X$><1-,,==,1=><,=X$><,,==,,<-,,=X$><1-,,==,1=><,=X$><,,==,,",
"><,=%X$%><,,=%><,=%>=%X$%>=%%>,=><,=%X$%><,,=%><,=%>=%X$%>=%%>,=",
"%>=%$.@%%>=%%%%>=%%%%$.@%%%%%%%%%>=%$.@%%>=%%%%>=%%%%$.@%%%%%%%%",
"$$$$.  @$$$$$$$$$$$$$.  @$$$$$$$$$$$.  @$$$$$$$$$$$$$.  @$$$$$$$"
};
