/* XPM */
static const char *wall1[] = {
/* columns rows colors chars-per-pixel */
"64 64 83 1 ",
"  c #000001",
". c #00000A",
"X c #0B040C",
"o c #000014",
"O c #00001C",
"+ c #010023",
"@ c #06022D",
"# c #08022F",
"$ c #070230",
"% c #0A0333",
"& c #0E043B",
"* c #10053E",
"= c #0F0441",
"- c #130644",
"; c #170846",
": c #180845",
"> c #160749",
", c #1A084D",
"< c #1C0951",
"1 c #1F0A58",
"2 c #200B4E",
"3 c #220B55",
"4 c #240C59",
"5 c #290E5E",
"6 c #2C0E65",
"7 c #2D0F69",
"8 c #2F1068",
"9 c #32116C",
"0 c #39146E",
"q c #351272",
"w c #3B1474",
"e c #3D1579",
"r c #411676",
"t c #41177B",
"y c #45187C",
"u c #48197F",
"i c #431780",
"p c #491A81",
"a c #491795",
"s c #4B1895",
"d c #7B289F",
"f c #7E2AA0",
"g c #852CA1",
"h c #8A2FA2",
"j c #8E30A3",
"k c #9332A4",
"l c #9935A6",
"z c #9D37A7",
"x c #9F38A7",
"c c #9F39A8",
"v c #A039A8",
"b c #A33BA9",
"n c #AB42AB",
"m c #AC43AC",
"M c #AD47AD",
"N c #AD49AD",
"B c #AF4FAF",
"V c #AF51AF",
"C c #B053B0",
"Z c #B054B0",
"A c #B25AB2",
"S c #B35CB3",
"D c #B461B4",
"F c #B567B5",
"G c #B669B6",
"H c #B76EB7",
"J c #B76FB7",
"K c #B770B7",
"L c #B872B8",
"P c #B874B8",
"I c #B979B9",
"U c #BA7CBA",
"Y c #BB82BB",
"T c #BB84BB",
"R c #BC86BC",
"E c #BC88BC",
"W c #BD8BBD",
"Q c #BE8FBE",
"! c #BE93BE",
"~ c #BF95BF",
"^ c #BF97BF",
"/ c #C097C0",
"( c #C098C0",
/* pixels */
"                                                                ",
"  P!!Q!!QUQQQ!Q!X  L!!!!YQ~!UQ!X  K!Q!!~QYWQQ!Q!X  KQQ!!UQQQIRWR",
" I~YYQYIUkGUWUIQ! P!UI!YkFQYkGQ! P!UIQYIUhFUQYIQ! P!UIQUjFQIfDTW",
" IHdqGj99-6-Kl9BY PHg9Gk99Bd9qVT PGgqGk99-6-HkqBY LHg9Gj66Bd66FW",
" M+$7qq9>.-o>q>.n M+@7>-69o>q>.m MO@7q9q-.-o>q>.n M+@6>&69o-6*1F",
"    $7,-. @-6,.      @. @-&6>.      @7>-. @-9>.      @. @&*6- +&",
"     @.     @.             @.        @.     @.             +.   ",
"                                                                ",
"                                                                ",
"~~~Y~~~(X  P~~/~R~~~~~~X  P/~~~T!~/W~/(/X  P/~~/R!~~~~~X  P!~~~Y",
"H!RxKYYY! ITY!RYlH!TYY!~ I~TU~RxH!RlHYYY~ IRY!WYzH!TUU~~ I~TY!Tl",
"eHxwtw<9H AxeHzw<qHlw,ZW IHa7HzqqHzwwq,qK SzwHve,qHzw,ZW PKs6Hl9",
"9<>>--.@- o>----.$==-. M M+ @--9w,-->-.$- o-->>-.@-==. M MO @*-8",
"-.                             @>.                             +",
"                                                                ",
"                                                                ",
"X  P~/~/RY~~~~X  P~~~~~~/~TU!~~~X  P~~~~RY~~~(.  P~~~~~~~~TY!~~~",
"( I(R~WYvwH~R!~ I~WY!TYY~TlwH!T!~ I~Y~RTveH!R!~ I/RY!TYY!Tl9G!Y!",
"W IKjHve,-qKxZW IHgwHl>7Hl>--PzCW IHgHlq<-qHkZT PKhwHl>6Hl-&*LkG",
"M M+$qt<..,e<.M MO@9w,.@9qo..,>.M M+@9w,..<w,.m M+@9w>.@7wo..--*",
"     $>. $--.      @-.  #--9w,.      $-. $>-.      @-.  @**90-. ",
"                           @-.                             @&   ",
"                                                                ",
"                                                                ",
"!~~/X  P~T~~~~//~~Y!/X  P~~~~T!~~~~~X  P~R!/~~~~~~T!~X  P~~~~Y!~",
"!YY~/ I/WxHY~RYY~RvH~/ I~WY!TlHY!TU!~ I~RlHT!RYT~RlH~~ I~YY!RlHY",
"CgeH~ IRl,9wHlw0ZgwwH~ IRl0Hl,9wCjqH! IRz,79HlwwZg9wH~ ITlwHl-60",
"o%qwZ Mhwo@90--9o$9wwC Mgqww,.-wo%9wZ Mhwo$60,-9o$9qwC Mgw09:.-0",
"qo,,.  @9wo>,..,w.#9,.  @9,-..,,7o,,.  @9qo,,..,q.#9,.  @9,&. -:",
"$q<.    @9,-. @9,. @.    #.  #-.#7<.    @9,*. @6,. @.    @.  @%.",
" $.      @.    @.                #.      @.    @.               ",
"                                                                ",
"                                                                ",
"  I//~((~R~/~/(~X  I///(R~(/R~(X  P~~~~//R!//~//X  P/~~(R!~~Y!!~",
" U(RY~WYYxHT~RY!~ I~RY~RzH!RvH!/ I/RY!TYYxHY!WT~( I/TY!TlH!RkGQ!",
" ILjeKlww,9,PztZW IKjwHxwwZjwwCR IKjwHzww-6,PzwCW IKhwHzw9Cg90GQ",
" N+$qtww,.>o,w,.M N+@9,-9wo,w,.M MO$7www,.>o,w,.M N+@9,-7wo-9-6H",
"    $9<>. $-q,.      $. $--9<.      @q,-. @>q,.      $. #*-6-.@&",
"     $.     $.             @.        @.     @.             @.   ",
"                                                                ",
"                                                                ",
"!/~R!(~(X  P/((/R~/~/~(X  P/~/~R~~~R~~(~X  P(~~~R~~////X  P~~~~T",
"H~RvHYYY~ IRY~RYxH!RYY~( I~RU!YvH!RvHYTY~ IRT~RYlH~RYY~~ I~RY!Yk",
"eHxwet,qK SleHve<9Hle,ZW IKs9HlwwHzqwe<9H SvtHve>qHlw,ZW PKs7Hkw",
"t,>>>>.%> o>->--.@-=-. m M+ @--9q<----.%- .>>---.$---. m N+ @*&6",
">.                             @-.                             +",
"                                                                ",
"                                                                ",
"X  I/(//RY~~~/X  I~/~~~~~~TY!~~~X  P/(((RY~~~/X  P~(/~~~~~TYQ~!!",
"( I/R~RYceH~R~~ P(TY~YYY~Rl9H!R!/ P~R!RYveH~T!( I~RY!TYY!TlwHQYQ",
"W ILjKlw<-qKlCW IHgwHl,7Gz,--PkCW IKgHzw,-9HzCW IKhwHl,6Hz-*6GjG",
"m N+$qt<..>w>.M M+@9w,.@9qo..,>.M N+@7w,..,w,.M N+@7w-.@60o.-0-5",
"     $-. $--.      @-.  @--7r,.      $>. @--.      @-.  @--60- +",
"                           @-.                             +*   ",
"                                                                ",
"                                                                ",
"~~((X  P(R~((~(/(/T~(X  I/(~~R!/~~//X  I/W~/~((///R~~X  P/~~~T~~",
"!RT~~ I(WvHT~RTT~RxK!( I(TT!WxKY~RT~( I~RcHY~RYY~WxH~( I(RY~TvHY",
"ZjtH~ IWv<9wKcwtZjtrK~ IWvtHv<qwZhtK~ IWx<9tKxytZhwtK( IWxwKz,9w",
"O&wtZ Nlyo%9t,;wo%qytZ Nkttr,.,to%9yZ Nkyo%wy<-qo%qytZ Nktyr:.;r",
"wo<<.  %wuO<<..3y.%e3.  %e3,..33eo43.  %epo33..3p.$w3.  %w3,..23",
"&w4.   .%t4,. %t4..&..   %...&,.%i4..  .&t3,. %t4. &..  .%.  %,.",
" %o.    .&.. . *.....    .... ...*..    .*.. . *...      ... . .",
"                                                                "
};
