/* XPM */
static const char *wall0[] = {
/* columns rows colors chars-per-pixel */
"64 64 87 1 ",
"  c #000000",
". c #05020A",
"X c #0D060E",
"o c #10070F",
"O c #000016",
"+ c #0F0710",
"@ c #01011D",
"# c #100710",
"$ c #100811",
"% c #020120",
"& c #010036",
"* c #02013C",
"= c #030145",
"- c #05024D",
"; c #060253",
": c #080457",
"> c #05035B",
", c #09045D",
"< c #36184F",
"1 c #210F55",
"2 c #221056",
"3 c #2F1655",
"4 c #251058",
"5 c #2D155B",
"6 c #331755",
"7 c #361955",
"8 c #3B1B55",
"9 c #32175C",
"0 c #36195C",
"q c #3E1C58",
"w c #3F1C5A",
"e c #3C1B5C",
"r c #070361",
"t c #070365",
"y c #0A0563",
"u c #0A0568",
"i c #2E1560",
"p c #361962",
"a c #3A1A62",
"s c #411D59",
"d c #441E5E",
"f c #48215F",
"g c #451F61",
"h c #472061",
"j c #492163",
"k c #95477E",
"l c #9A4C83",
"z c #9B4D87",
"x c #9D4F86",
"c c #9A4D88",
"v c #9D4F8B",
"b c #9B4C8E",
"n c #9D4F8E",
"m c #9F528A",
"M c #9E518C",
"N c #9D4E92",
"B c #9E4F98",
"V c #9E5090",
"C c #9F5294",
"Z c #9F5199",
"A c #A0538E",
"S c #A1548D",
"D c #A05392",
"F c #A25690",
"G c #A15395",
"H c #A25694",
"J c #A45796",
"K c #A55996",
"L c #A25598",
"P c #A2549B",
"I c #A1539C",
"U c #A2559C",
"Y c #A3579D",
"T c #A4579D",
"R c #A55998",
"E c #A6599E",
"W c #A75B9F",
"Q c #A356A0",
"! c #A457A3",
"~ c #A659A4",
"^ c #A659A5",
"/ c #A85CA1",
"( c #A85CA6",
") c #A95DA9",
"_ c #AE64AE",
"` c #B067B0",
"' c #B068B0",
/* pixels */
"xlmSm8FMmHHL. .EH8FvvAzKRF8EL. .GVHVF8nFMGRE. .LD8VczAxmMn8GL. Q",
"k<<F7-88M78HH LE8;88J888H8>8EH ERq8R7;77R8eLR /H8;88A888Kq:eUU Q",
"8=-8-&-;8;:sE Eq>:::8;;,8:>>sT Eq>>8:*::8::qE E8:::;8-;-7:::eI I",
"----*O::::>>9 9>>::,:**,:=,,>9 0>>>>=O:,>>,>9 9>>>:::=*:>=>,>9 Q",
"&-** &:*:,,=@ @=>>:,=O*,>O=,=@ @=,==O*>=>,,=@ @=>,:,=O*>,O=,=@ r",
" * OO*=O=>=@O @@=,==@@=>=@@=@@ @@=@@@==@=,=@@ @@=>==@O=>=O@=@@ t",
"   OOOOOO=@@   @@=@@@@@=@@@@@   @@@@@@@@@=@@   @@=@@@@@=O@@@@   ",
"                                                                ",
"VCGGLEE   XXXXXXXXXooXXX   ++++oooXXXXo   +XoooXXXXXXXXX   ~Q~QI",
"NVNLLLT~ X_______j_`____X +`____j'''h`'+ #'_`__`_d______X ~Q~UQZ",
"VbVGUUT~ ))dd_dddrd__hd__ __hj_jrh_fyj__ __hd_jjfrd__dd_) ~Q~QQQ",
"bNCCLUT~ )0rrdrr,-rddrua_ _auujrurjrrua' _aurjrr,-rddrr0) (~QQUU",
"BC2LLe>~ 9@-rrrr-@uurr-@a a%;u-;uuyrr-@a a@-urrr-@rrrr-@0 ~>eUee",
"000Le>>> @@@-r--@@--r;@@% @@@;@@;;-u-@@% @@@-r--@@--r-@@@ r>>e>>",
">>>e>>>   @@@-@@@@@@;@@%   %%%%%%%@-@@@   %@@;@@@@@@-@@@  .r>>>>",
"                                                                ",
"  ..XXXXXXXXXX++   $++++#++++++   ++++++++++##X#   ++XXXXXXXXX. ",
" .~~~((d))_d___'+ $'__'`j_''___+ +_____j'`_j___'# +_____d)((~~~.",
" ~~eq~q>d_grhhjj_ 'jj_hjuh_ggg__ __hg_huj_jugjhj_ `hg_gdrq(qqeTQ",
" !9=>qr>>drruu-uj juujuu;uhuu;a_ _a;uhuuujuruu;uj huugrr=>d>>=5T",
" i@@===>r==--;@;; ;;;;;;%;;;;@@a a@%;--uu;;-;;@;; ;;----@====@O5",
"  @@@@@==@@@@@@%   @%%%%%%@@@%%   %@@@@;;@@@@@%%   @@@@@@@@O OO ",
"                                                                ",
"ZZUIUQ~~   XX+++++++++   +++++++XX++X+++   ++X+#X+++XX   ~Q~~LUL",
"BZZIZUQ~~ X_____jh_'_`+ +_________jd__`_+ +'''__jh____X ~~~ULLZC",
"BBBLLUT~( )_g_hguuj_j__ __gg_hdd_drrg_j__ __g`jjuug_g)( ~~~UULUL",
"NN00eUT~~ _0rdrr--uhua' _auuhu-rhu-=-jua_ 'aujuu;-rgr0) ~~~~UUeL",
"GV244Le>( 9@-ru-@=uu;@a a@-ur-@-rr===r-@a a@;uu-@=rr-@0 (>eUEe>e",
"777HLe>>> @@@--@@-;-@%% @@@;-@@@---rr-@@@ @%@;;@@;--@@@ r>>eq>>>",
":::ee>>>   @@@@@@@@@@@   %@@@@@@@@@--@@@   @@%@@@@@@@@  .>>>>>;>",
"                                                         ..     ",
"........XXXX   XX+XXXXXX+X+Xo   XXXXXXXX+++#   #+XXXXXXXXXXXX   ",
"HRRERq/(()__X X__j`'``___`j`_X X''_'`f````__+ X``j________d()X Q",
"R88R8:ss(dd__ __f,fj_fjj`jyj`_ ''df_dyfj`jh'_ ``jyfd_ddd_drd() )",
"8;:8>=,,s,rd_ `dyy,,f,rreryyj' 'jryfr=rreurj_ `jy-,,d,,,d,,rd) )",
";:::=O,,,rrra eryyyr,=-r=-ryre arrrr-@rr=-rua ery==r,==,r=,rr9 )",
"*:*=O*,=,,r-@ @-rryy=@=yr@-y-@ @-y--@=,-r=r-@ @-r,=,=@=,,@=r=@ t",
"O*OOO==@=r=@@ @@-r=-@@-y-@@-@@ %@-@@@--@-y-@@ @@-y-=@@=r=@@=@@ t",
"O OOOO@@@=@@   @@-@@@@@-@@@@@   @@@@@@@@@-@@   @@-@@@@@=@@@@@   ",
"                                                                ",
"VCGLL~~   XXXXXXXXoXooXX   +++++#XX$X##   X##X#XXXooXXXX   (~Q~Q",
"NCVLL~U~ X_______j`'''__+ +__'__j'''j'`# #'_'__'_f_`____X (~QQ~U",
"NCNLLLU~ )_dd_hdjrfj`jj__ __jj_jrj'jyj'` '`jj_hhdrj__dd_( )~~QIZ",
"bNCCLL~~ )0rrgrrr-r-jrra_ _auujuureurua' 'aurhruu-rddrr0) (~~~UL",
"NL2GGe>~ 0@=rrrr-@y=rr-@a a@;u;-ur=yr-@a a@-urur-@rrrr=@0 (>eUee",
"000Le>>> @@@-r--@@--u-@@% %%%;@@;--u-@@@ @@@;u--@@--r-@@@ r>>e>>",
">>:e>>>   @@@-@@@@@%;@@%   @@%%@@@@;@@%   @@@;@@@@@@-@@@   >>>>;",
"                                                                ",
"  ..XXXXXXXXX+++   $+++++++++++   ++++++++++++++   ++XXXXXXXX.. ",
" X!~~~(q)__g___'+ +_`___h_'____+ #_____h`__j`_'_+ +_____d(((~~~.",
" ~~eq(q>d_drhhhj_ _jg_jhuj_hgh__ __gg_hud`jrhjjj' _hg_gdrd(qqeUU",
" ~9=>q>>>drrru;uj juuhuu;uhuu;a_ _a-uguuujruuu;uj juudrr=>q>>=5U",
" 5 @===r>==---@-; ;;;;;;@-;;;@@a a@@---uu-;;;;@-; ;----=@====O 5",
"   @@@@==@@@@@@@   @@@%@@@@@@@@   @@@@@--@@@@@@@   @@@@@@@@ O O ",
"                                                                ",
"ZZZLLUQ~   XXX++++++++   +X++++XXXXX++XX   ++++++++XXX   QQUUULZ",
"NNBZCLZL~ X)____gg____+ +_________dd____X +___`_hg__)_X ~~ULZLLB",
"NNBNNZLU~ ~)g_gguug_g__ __gd_gdd_drrd_g__ __g_ggrug_g)) ~QUTLLCC",
"bN060LCU~ (0rduu-;ugua_ _purgu-rhrrrrdr0_ _auguu--rgrp) ~UUULLeL",
"bb112Ce>~ 9@=ru;@=uu-@a p@;uu-@-rr,rur-@a a%;uu;@=uu-@0 ~>eUH0:e",
"366NC6;>> @@@;;%@;;;%%@ %%%;-%@@-=-rr-@@% %%%;;@%;;-@@@ >>ree>:>",
"---07;;>   @@%@%%%%%%%    %%@%@@@@@-;@ %   %%@@%%@@@@@   >>r>>>>",
"                                                               .",
"bcnNGbUQ~~))   (~_))_~)__)___   _)_))(~()___   )_)!~)(~()(!Q)   "
};
